!!!COM: Mozart, Wolfgang Amadeus
!!!OPR: Symphony in E-flat Major
!!!OTL: Andante con moto
!!!OMV: 2
!!!SCT: K 543
!!!SCA: Chronologisch-thematisches Verzeichnis sämtlicher Tonwerke Wolfgang Amade Mozarts (L. von Köchel; 1862, 2/1905, 3/1937, 1947)
!!!YOR: Breitkopf & Härtel Edition
!!!EED: Frances Bennion
!!!ENC: Frances Bennion
!!!CDT: 1756/1/27/-1791/12/5/
!!!OCY: Österreich
!!!YEC: Copyright (c) 1994, 2000 Center for Computer Assisted Research in the Humanities
!!!YEM: Rights to all derivative editions reserved.
!!!YEM: Refer to licensing agreement for further details.
!!!YEN: United States of America
**kern	**dynam	**kern	**dynam	**kern	**dynam	**kern	**dynam	**kern	**dynam	**kern	**dynam	**kern	**dynam	**kern	**dynam
*I:Flauto	*I:Flauto	*I:Clarinetto 1, 2 in Bb	*I:Clarinetto 1, 2 in Bb	*I:Fagotto 1, 2	*I:Fagotto 1, 2	*I:Corno 1, 2 in Eb	*I:Corno 1, 2 in Eb	*I:Violino I	*I:Violino I	*I:Violino II	*I:Violino II	*I:Viola	*I:Viola	*I:Violoncello e Basso	*I:Violoncello e Basso
*>[A,A,B,B,C]	*	*>[A,A,B,B,C]	*	*>[A,A,B,B,C]	*	*>[A,A,B,B,C]	*	*>[A,A,B,B,C]	*	*>[A,A,B,B,C]	*	*>[A,A,B,B,C]	*	*>[A,A,B,B,C]	*
*>A	*	*>A	*	*>A	*	*>A	*	*>A	*	*>A	*	*>A	*	*>A	*
*clefG2	*	*clefG2	*	*clefF4	*	*clefG2	*	*clefG2	*	*clefG2	*	*clefC3	*	*clefF4	*
*k[b-e-a-d-]	*	*k[b-e-]	*	*k[b-e-a-d-]	*	*k[]	*	*k[b-e-a-d-]	*	*k[b-e-a-d-]	*	*k[b-e-a-d-]	*	*k[b-e-a-d-]	*
*A-:	*	*A-:	*	*A-:	*	*A-:	*	*A-:	*	*A-:	*	*A-:	*	*A-:	*
*M2/4	*	*M2/4	*	*M2/4	*	*M2/4	*	*M2/4	*	*M2/4	*	*M2/4	*	*M2/4	*
! Andante con moto	!	!	!	!	!	!	!	!	!	!	!	!	!	!	!
*tb64	*	*tb64	*	*tb64	*	*tb64	*	*tb64	*	*tb64	*	*tb64	*	*tb64	*
=1-	=1-	=1-	=1-	=1-	=1-	=1-	=1-	=1-	=1-	=1-	=1-	=1-	=1-	=1-	=1-
*	*	*^	*	*^	*	*^	*	*	*	*	*	*	*	*	*
2r	.	2r	2r	.	2r	2r	.	2r	2r	.	(4e-/	p	(4c/	p	[2A-/	p	(4AA-/	p
.	.	.	.	.	.	.	.	.	.	.	16.f/LL	.	16.d-/LL	.	.	.	4D-/	.
.	.	.	.	.	.	.	.	.	.	.	32g/k	.	32e-/k	.	.	.	.	.
.	.	.	.	.	.	.	.	.	.	.	16.a-/	.	16.f/	.	.	.	.	.
.	.	.	.	.	.	.	.	.	.	.	32f/JJk	.	32d-/JJk	.	.	.	.	.
=2	=2	=2	=2	=2	=2	=2	=2	=2	=2	=2	=2	=2	=2	=2	=2	=2	=2	=2
2r	.	2r	2r	.	2r	2r	.	2r	2r	.	8e-/)	.	8c/)	.	8A-/]	.	8AA-/)	.
.	.	.	.	.	.	.	.	.	.	.	8r	.	8r	.	8r	.	8r	.
.	.	.	.	.	.	.	.	.	.	.	(16.a-/LL	.	4r	.	4r	.	4r	.
.	.	.	.	.	.	.	.	.	.	.	32g/k	.	.	.	.	.	.	.
.	.	.	.	.	.	.	.	.	.	.	16.b-/	.	.	.	.	.	.	.
.	.	.	.	.	.	.	.	.	.	.	32a-/JJk	.	.	.	.	.	.	.
=3	=3	=3	=3	=3	=3	=3	=3	=3	=3	=3	=3	=3	=3	=3	=3	=3	=3	=3
*	*	*	*	*	*	*	*	*	*	*	*	*	*	*	*	*	*^	*
2r	.	2r	2r	.	2r	2r	.	2r	2r	.	16.cc\LL	.	4r	.	4r	.	4r	2r	.
.	.	.	.	.	.	.	.	.	.	.	32b-\k	.	.	.	.	.	.	.	.
.	.	.	.	.	.	.	.	.	.	.	16.dd-\	.	.	.	.	.	.	.	.
.	.	.	.	.	.	.	.	.	.	.	32cc\JJk	.	.	.	.	.	.	.	.
!	!	!	!	!	!	!	!	!	!	!	!	!	!	!	!	!	! Cello	!	!
.	.	.	.	.	.	.	.	.	.	.	8ee-'\L)	.	8b-'\L	.	8g'\L	.	8e-'/Lxx	.	.
.	.	.	.	.	.	.	.	.	.	.	8ee-'\J	.	8cc'\J	.	8a-'\J	.	8e-'/Jxx	.	.
=4	=4	=4	=4	=4	=4	=4	=4	=4	=4	=4	=4	=4	=4	=4	=4	=4	=4	=4	=4
2r	.	2r	2r	.	2r	2r	.	2r	2r	.	(4ee-\	.	4b-\	.	4g\	.	4e-/	2r	.
.	.	.	.	.	.	.	.	.	.	.	8e-/)	.	4r	.	4r	.	4r	.	.
.	.	.	.	.	.	.	.	.	.	.	8r	.	.	.	.	.	.	.	.
=5	=5	=5	=5	=5	=5	=5	=5	=5	=5	=5	=5	=5	=5	=5	=5	=5	=5	=5	=5
*	*	*	*	*	*	*	*	*	*	*	*	*	*	*	*	*	*v	*v	*
!	!	!	!	!	!	!	!	!	!	!	!	!	!	!	!	!	! Bassi	!
!	!	!	!	!	!	!	!	!	!	!	!	!	!	!	!	!	!	!
2r	.	2r	2r	.	2r	2r	.	2r	2r	.	(4e-/	.	(4c/	.	[2A-/	.	(4AA/	.
.	.	.	.	.	.	.	.	.	.	.	16.f/LL	.	16.d-/LL	.	.	.	4D-/	.
.	.	.	.	.	.	.	.	.	.	.	32g/k	.	32e-/k	.	.	.	.	.
.	.	.	.	.	.	.	.	.	.	.	16.a-/	.	16.f/	.	.	.	.	.
.	.	.	.	.	.	.	.	.	.	.	32f/JJk	.	32d-/JJk	.	.	.	.	.
=6	=6	=6	=6	=6	=6	=6	=6	=6	=6	=6	=6	=6	=6	=6	=6	=6	=6	=6
2r	.	2r	2r	.	2r	2r	.	2r	2r	.	8e-/)	.	8c/)	.	8A-/]	.	8AA-/)	.
.	.	.	.	.	.	.	.	.	.	.	8r	.	8r	.	8r	.	8r	.
.	.	.	.	.	.	.	.	.	.	.	(16.a-/LL	.	4r	.	4r	.	4r	.
.	.	.	.	.	.	.	.	.	.	.	32g/k	.	.	.	.	.	.	.
.	.	.	.	.	.	.	.	.	.	.	16.b-/	.	.	.	.	.	.	.
.	.	.	.	.	.	.	.	.	.	.	32a-/JJk	.	.	.	.	.	.	.
=7	=7	=7	=7	=7	=7	=7	=7	=7	=7	=7	=7	=7	=7	=7	=7	=7	=7	=7
2r	.	2r	2r	.	2r	2r	.	2r	2r	.	16.cc\LL	.	4r	.	4r	.	4r	.
.	.	.	.	.	.	.	.	.	.	.	32b-\k	.	.	.	.	.	.	.
.	.	.	.	.	.	.	.	.	.	.	16.ddn\	.	.	.	.	.	.	.
.	.	.	.	.	.	.	.	.	.	.	32cc\JJk)	.	.	.	.	.	.	.
!	!	!	!	!	!	!	!	!	!	!	!	!	!	!	!	!	! Cello	!
.	.	.	.	.	.	.	.	.	.	.	8ee-'\L	.	8g'/L	.	8B-'/L	.	8BB-'/L	.
.	.	.	.	.	.	.	.	.	.	.	8bb-'\J	.	8dn'/J	.	8A-'/J	.	8BB-'/J	.
=8	=8	=8	=8	=8	=8	=8	=8	=8	=8	=8	=8	=8	=8	=8	=8	=8	=8	=8
2r	.	2r	2r	.	2r	2r	.	2r	2r	.	(4bb-\	.	4e-/	.	4G/	.	4EE-/	.
.	.	.	.	.	.	.	.	.	.	.	8ee-\)	.	4r	.	4r	.	4r	.
.	.	.	.	.	.	.	.	.	.	.	8r	.	.	.	.	.	.	.
=9:!!:	=9:!!:	=9:!!:	=9:!!:	=9:!!:	=9:!!:	=9:!!:	=9:!!:	=9:!!:	=9:!!:	=9:!!:	=9:!!:	=9:!!:	=9:!!:	=9:!!:	=9:!!:	=9:!!:	=9:!!:	=9:!!:
*>B	*	*>B	*	*	*>B	*	*	*>B	*	*	*>B	*	*>B	*	*>B	*	*>B	*
!	!	!	!	!	!	!	!	!	!	!	!	!	!	!	!	!	! Bassi	!
2r	.	2r	2r	.	2r	2r	.	2r	2r	.	2r	.	(4G/	.	16e-\LL	.	(4E-\	.
.	.	.	.	.	.	.	.	.	.	.	.	.	.	.	16e-\	.	.	.
.	.	.	.	.	.	.	.	.	.	.	.	.	.	.	16e-\	.	.	.
.	.	.	.	.	.	.	.	.	.	.	.	.	.	.	16e-\	.	.	.
.	.	.	.	.	.	.	.	.	.	.	.	.	16.A-/LL	.	16e-\	.	16.F\LL	.
.	.	.	.	.	.	.	.	.	.	.	.	.	.	.	16e-\	.	.	.
.	.	.	.	.	.	.	.	.	.	.	.	.	32B-/k	.	.	.	32G\k	.
.	.	.	.	.	.	.	.	.	.	.	.	.	16.c/	.	16e-\	.	16.A-\	.
.	.	.	.	.	.	.	.	.	.	.	.	.	.	.	16e-\JJ	.	.	.
.	.	.	.	.	.	.	.	.	.	.	.	.	32A-/JJk	.	.	.	32F\JJk	.
=10	=10	=10	=10	=10	=10	=10	=10	=10	=10	=10	=10	=10	=10	=10	=10	=10	=10	=10
2r	.	2r	2r	.	2r	2r	.	2r	2r	.	(16.ee-\LL	.	8G/)	.	16e-\LL	.	8E-\)	.
.	.	.	.	.	.	.	.	.	.	.	.	.	.	.	16e-\	.	.	.
.	.	.	.	.	.	.	.	.	.	.	32ddn\k	.	.	.	.	.	.	.
.	.	.	.	.	.	.	.	.	.	.	16.gg\	.	8r	.	16e-\	.	8r	.
.	.	.	.	.	.	.	.	.	.	.	.	.	.	.	16e-\	.	.	.
.	.	.	.	.	.	.	.	.	.	.	32ff\JJk	.	.	.	.	.	.	.
.	.	.	.	.	.	.	.	.	.	.	16.aa-\LL	.	4r	.	16e-\	.	4r	.
.	.	.	.	.	.	.	.	.	.	.	.	.	.	.	16e-\	.	.	.
.	.	.	.	.	.	.	.	.	.	.	32gg\Jk	.	.	.	.	.	.	.
.	.	.	.	.	.	.	.	.	.	.	8bb-\J)	.	.	.	16e-\	.	.	.
.	.	.	.	.	.	.	.	.	.	.	.	.	.	.	16e-\JJ	.	.	.
=11	=11	=11	=11	=11	=11	=11	=11	=11	=11	=11	=11	=11	=11	=11	=11	=11	=11	=11
2r	.	2r	2r	.	2r	2r	.	2r	2r	.	2r	.	(4A-/	.	16e-\LL	.	(4F\	.
.	.	.	.	.	.	.	.	.	.	.	.	.	.	.	16e-\	.	.	.
.	.	.	.	.	.	.	.	.	.	.	.	.	.	.	16e-\	.	.	.
.	.	.	.	.	.	.	.	.	.	.	.	.	.	.	16e-\	.	.	.
.	.	.	.	.	.	.	.	.	.	.	.	.	16.B-/LL	.	16e-\	.	16.G\LL	.
.	.	.	.	.	.	.	.	.	.	.	.	.	.	.	16e-\	.	.	.
.	.	.	.	.	.	.	.	.	.	.	.	.	32c/k	.	.	.	32A-\k	.
.	.	.	.	.	.	.	.	.	.	.	.	.	16.d-/	.	16e-\	.	16.B-\	.
.	.	.	.	.	.	.	.	.	.	.	.	.	.	.	16e-\JJ	.	.	.
.	.	.	.	.	.	.	.	.	.	.	.	.	32B-/JJk	.	.	.	32G\JJk	.
=12	=12	=12	=12	=12	=12	=12	=12	=12	=12	=12	=12	=12	=12	=12	=12	=12	=12	=12
2r	.	2r	2r	.	2r	2r	.	2r	2r	.	(16.ee-\LL	.	8A-/)	.	16e-\LL	.	8F\)	.
.	.	.	.	.	.	.	.	.	.	.	.	.	.	.	16e-\	.	.	.
.	.	.	.	.	.	.	.	.	.	.	32ddn\k	.	.	.	.	.	.	.
.	.	.	.	.	.	.	.	.	.	.	16.aa-\	.	8r	.	16e-\	.	8r	.
.	.	.	.	.	.	.	.	.	.	.	.	.	.	.	16e-\	.	.	.
.	.	.	.	.	.	.	.	.	.	.	32gg\JJk	.	.	.	.	.	.	.
.	.	.	.	.	.	.	.	.	.	.	16.bb-\LL	.	4r	.	16e-\	.	4r	.
.	.	.	.	.	.	.	.	.	.	.	.	.	.	.	16e-\	.	.	.
.	.	.	.	.	.	.	.	.	.	.	32aa-\Jk	.	.	.	.	.	.	.
.	.	.	.	.	.	.	.	.	.	.	8ccc\J)	.	.	.	16e-\	.	.	.
.	.	.	.	.	.	.	.	.	.	.	.	.	.	.	16e-\JJ	.	.	.
=13	=13	=13	=13	=13	=13	=13	=13	=13	=13	=13	=13	=13	=13	=13	=13	=13	=13	=13
2r	.	2r	2r	.	2r	2r	.	2r	2r	.	2r	.	(4B-/	.	16e-\LL	.	(4G\	.
.	.	.	.	.	.	.	.	.	.	.	.	.	.	.	16e-\	.	.	.
.	.	.	.	.	.	.	.	.	.	.	.	.	.	.	16e-\	.	.	.
.	.	.	.	.	.	.	.	.	.	.	.	.	.	.	16e-\	.	.	.
.	.	.	.	.	.	.	.	.	.	.	.	.	16.c/LL	.	16e-\	.	16.A-\LL	.
.	.	.	.	.	.	.	.	.	.	.	.	.	.	.	16e-\	.	.	.
.	.	.	.	.	.	.	.	.	.	.	.	.	32d-/k	.	.	.	32B-\k	.
.	.	.	.	.	.	.	.	.	.	.	.	.	16.e-/	.	16e-\	.	16.c\	.
.	.	.	.	.	.	.	.	.	.	.	.	.	.	.	16e-\JJ	.	.	.
.	.	.	.	.	.	.	.	.	.	.	.	.	32c/JJk	.	.	.	32A-\JJk	.
=14	=14	=14	=14	=14	=14	=14	=14	=14	=14	=14	=14	=14	=14	=14	=14	=14	=14	=14
2r	.	2r	2r	.	2r	2r	.	2r	2r	.	(16.ee-\LL	.	8B-/)	.	8e-\	.	8G\)	.
.	.	.	.	.	.	.	.	.	.	.	32ddn\k	.	.	.	.	.	.	.
.	.	.	.	.	.	.	.	.	.	.	16.bb-\	.	8r	.	8r	.	8r	.
.	.	.	.	.	.	.	.	.	.	.	32aa-\JJk	.	.	.	.	.	.	.
.	.	.	.	.	.	.	.	.	.	.	16.ccc\LL	.	4r	.	4r	.	4r	.
.	.	.	.	.	.	.	.	.	.	.	32bb-\k	.	.	.	.	.	.	.
.	.	.	.	.	.	.	.	.	.	.	16ddd-\)	.	.	.	.	.	.	.
.	.	.	.	.	.	.	.	.	.	.	32r	.	.	.	.	.	.	.
.	.	.	.	.	.	.	.	.	.	.	(32bb-\JJk	.	.	.	.	.	.	.
=15	=15	=15	=15	=15	=15	=15	=15	=15	=15	=15	=15	=15	=15	=15	=15	=15	=15	=15
*	*	*	*	*	*	*	*	*	*	*	*	*	*	*	*	*	*^	*
!	!	!	!	!	!	!	!	!	!	!	!	!	!	!	!	!	! Cello	!	!
!	!	!	!	!	!	!	!	!	!	!	!	!	!	!	!	!	!	!	!
2r	.	2r	2r	.	2r	2r	.	2r	2r	.	16ccc\LL)	.	8c'/	.	8e-'\	.	8A-'/	2r	.
.	.	.	.	.	.	.	.	.	.	.	32r	.	.	.	.	.	.	.	.
.	.	.	.	.	.	.	.	.	.	.	(32gg\k	.	.	.	.	.	.	.	.
.	.	.	.	.	.	.	.	.	.	.	16aa-\)	.	8r	.	8r	.	8r	.	.
.	.	.	.	.	.	.	.	.	.	.	32r	.	.	.	.	.	.	.	.
.	.	.	.	.	.	.	.	.	.	.	(32een\JJk	.	.	.	.	.	.	.	.
.	.	.	.	.	.	.	.	.	.	.	16ff\LL)	.	8a-'/	.	8dn'\	.	8B-'/	.	.
.	.	.	.	.	.	.	.	.	.	.	32r	.	.	.	.	.	.	.	.
.	.	.	.	.	.	.	.	.	.	.	(32cc#\k	.	.	.	.	.	.	.	.
.	.	.	.	.	.	.	.	.	.	.	16ddn\)	.	8r	.	8r	.	8r	.	.
.	.	.	.	.	.	.	.	.	.	.	32r	.	.	.	.	.	.	.	.
.	.	.	.	.	.	.	.	.	.	.	(32b-\JJk	.	.	.	.	.	.	.	.
=16	=16	=16	=16	=16	=16	=16	=16	=16	=16	=16	=16	=16	=16	=16	=16	=16	=16	=16	=16
2r	.	2r	2r	.	2r	2r	.	2r	2r	.	16ee-\LL)	.	8g'/	.	8e-'\	.	8E-'/	2r	.
.	.	.	.	.	.	.	.	.	.	.	32r	.	.	.	.	.	.	.	.
.	.	.	.	.	.	.	.	.	.	.	(32gg\k	.	.	.	.	.	.	.	.
.	.	.	.	.	.	.	.	.	.	.	16bb-\)	.	8r	.	8r	.	8r	.	.
.	.	.	.	.	.	.	.	.	.	.	32r	.	.	.	.	.	.	.	.
.	.	.	.	.	.	.	.	.	.	.	(32ee-\JJk	.	.	.	.	.	.	.	.
.	.	.	.	.	.	.	.	.	.	.	16gg\LL)	.	8r	.	8r	.	8r	.	.
.	.	.	.	.	.	.	.	.	.	.	32r	.	.	.	.	.	.	.	.
.	.	.	.	.	.	.	.	.	.	.	(32b-\k	.	.	.	.	.	.	.	.
.	.	.	.	.	.	.	.	.	.	.	16aa-\)	.	8f'/	.	8dn'\	.	8B-'/	.	.
.	.	.	.	.	.	.	.	.	.	.	32r	.	.	.	.	.	.	.	.
.	.	.	.	.	.	.	.	.	.	.	(32ff\JJk	.	.	.	.	.	.	.	.
=17	=17	=17	=17	=17	=17	=17	=17	=17	=17	=17	=17	=17	=17	=17	=17	=17	=17	=17	=17
2r	.	2r	2r	.	2r	2r	.	2r	2r	.	16ee-\LL)	.	8g'/	.	8e-'\	.	8e-'/	2r	.
.	.	.	.	.	.	.	.	.	.	.	32r	.	.	.	.	.	.	.	.
.	.	.	.	.	.	.	.	.	.	.	(32gg\k	.	.	.	.	.	.	.	.
.	.	.	.	.	.	.	.	.	.	.	16bb-\)	.	8r	.	8r	.	8r	.	.
.	.	.	.	.	.	.	.	.	.	.	32r	.	.	.	.	.	.	.	.
.	.	.	.	.	.	.	.	.	.	.	(32ee-\JJk	.	.	.	.	.	.	.	.
.	.	.	.	.	.	.	.	.	.	.	16gg\LL)	.	8r	.	8r	.	8r	.	.
.	.	.	.	.	.	.	.	.	.	.	32r	.	.	.	.	.	.	.	.
.	.	.	.	.	.	.	.	.	.	.	(32b-\k	.	.	.	.	.	.	.	.
.	.	.	.	.	.	.	.	.	.	.	16aa-\)	.	8f'/	.	8dn'\	.	8B-'/	.	.
.	.	.	.	.	.	.	.	.	.	.	32r	.	.	.	.	.	.	.	.
.	.	.	.	.	.	.	.	.	.	.	(32ff\JJk	.	.	.	.	.	.	.	.
=18	=18	=18	=18	=18	=18	=18	=18	=18	=18	=18	=18	=18	=18	=18	=18	=18	=18	=18	=18
2r	.	2r	2r	.	2r	2r	.	2r	2r	.	16ee-\LL)	.	16e-'/LL	.	8e-'\	.	8e-'/	2r	.
.	.	.	.	.	.	.	.	.	.	.	32r	.	32r	.	.	.	.	.	.
.	.	.	.	.	.	.	.	.	.	.	(32een\k	.	(32en/k	.	.	.	.	.	.
.	.	.	.	.	.	.	.	.	.	.	16ff\)	.	16f/)	.	8r	.	8r	.	.
.	.	.	.	.	.	.	.	.	.	.	32r	.	32r	.	.	.	.	.	.
.	.	.	.	.	.	.	.	.	.	.	(32ee-\JJk	.	(32e-/JJk	.	.	.	.	.	.
.	.	.	.	.	.	.	.	.	.	.	16dd-\LL)	.	16d-/LL)	.	4r	.	4r	.	.
.	.	.	.	.	.	.	.	.	.	.	32r	.	32r	.	.	.	.	.	.
.	.	.	.	.	.	.	.	.	.	.	(32cc\k	.	(32c/k	.	.	.	.	.	.
.	.	.	.	.	.	.	.	.	.	.	16b-\)	.	16B-/)	.	.	.	.	.	.
.	.	.	.	.	.	.	.	.	.	.	32r	.	32r	.	.	.	.	.	.
.	.	.	.	.	.	.	.	.	.	.	(32a-\JJk	.	(32A-/JJk	.	.	.	.	.	.
=19	=19	=19	=19	=19	=19	=19	=19	=19	=19	=19	=19	=19	=19	=19	=19	=19	=19	=19	=19
*	*	*	*	*	*	*	*	*	*	*	*	*	*	*	*	*	*v	*v	*
2r	.	2r	2r	.	2r	2r	.	2r	2r	.	8g/)	.	8G/)	.	16.r	.	16.r	.
!	!	!	!	!	!	!	!	!	!	!	!	!	!	!	!	!	! Bassi	!
.	.	.	.	.	.	.	.	.	.	.	.	.	.	.	(32f\LLK	.	(32F\LLK	.
.	.	.	.	.	.	.	.	.	.	.	8r	.	8r	.	16e-\)	.	16E-\)	.
.	.	.	.	.	.	.	.	.	.	.	.	.	.	.	32r	.	32r	.
.	.	.	.	.	.	.	.	.	.	.	.	.	.	.	(32d-\JJk	.	(32D-\JJk	.
.	.	.	.	.	.	.	.	.	.	.	4r	.	4r	.	16c/LL)	.	16C/LL)	.
.	.	.	.	.	.	.	.	.	.	.	.	.	.	.	32r	.	32r	.
.	.	.	.	.	.	.	.	.	.	.	.	.	.	.	(32B-/K	.	(32BB-/K	.
.	.	.	.	.	.	.	.	.	.	.	.	.	.	.	16A-/)	.	16AA-/)	.
.	.	.	.	.	.	.	.	.	.	.	.	.	.	.	32r	.	32r	.
.	.	.	.	.	.	.	.	.	.	.	.	.	.	.	(32G/JJk	.	(32GG/JJk	.
=20	=20	=20	=20	=20	=20	=20	=20	=20	=20	=20	=20	=20	=20	=20	=20	=20	=20	=20
2r	.	2r	2r	.	2r	2r	.	2r	2r	.	(4e-/	.	(4c/	.	[2A-/	.	4AA-/	.
.	.	.	.	.	.	.	.	.	.	.	16.f/LL	.	16.d-/LL	.	.	.	4D-/	.
.	.	.	.	.	.	.	.	.	.	.	32g/k	.	32e-/k	.	.	.	.	.
.	.	.	.	.	.	.	.	.	.	.	16.a-/	.	16.f/	.	.	.	.	.
.	.	.	.	.	.	.	.	.	.	.	32f/JJk	.	32d-/JJk	.	.	.	.	.
=21	=21	=21	=21	=21	=21	=21	=21	=21	=21	=21	=21	=21	=21	=21	=21	=21	=21	=21
2r	.	2r	2r	.	2r	2r	.	2r	2r	.	8e-/)	.	8c/)	.	8A-/])	.	8AA-/)	.
.	.	.	.	.	.	.	.	.	.	.	8r	.	8r	.	8r	.	8r	.
.	.	.	.	.	.	.	.	.	.	.	(16.a-/LL	.	4r	.	4r	.	4r	.
.	.	.	.	.	.	.	.	.	.	.	32g/k	.	.	.	.	.	.	.
.	.	.	.	.	.	.	.	.	.	.	16.b-/	.	.	.	.	.	.	.
.	.	.	.	.	.	.	.	.	.	.	32a-/JJk	.	.	.	.	.	.	.
=22	=22	=22	=22	=22	=22	=22	=22	=22	=22	=22	=22	=22	=22	=22	=22	=22	=22	=22
*	*	*	*	*	*	*	*	*	*	*	*	*	*	*	*	*	*^	*
2r	.	2r	2r	.	2r	2r	.	2r	2r	.	16.cc\LL	.	4r	.	4r	.	4r	2r	.
.	.	.	.	.	.	.	.	.	.	.	32b-\k	.	.	.	.	.	.	.	.
.	.	.	.	.	.	.	.	.	.	.	16.dd-\	.	.	.	.	.	.	.	.
.	.	.	.	.	.	.	.	.	.	.	32cc\JJk	.	.	.	.	.	.	.	.
!	!	!	!	!	!	!	!	!	!	!	!	!	!	!	!	!	! Cello	!	!
.	.	.	.	.	.	.	.	.	.	.	8ee-'\L)	.	8b-'\L	.	8g'\L	.	8e-'/L	.	.
.	.	.	.	.	.	.	.	.	.	.	8ee-'\J	.	8cc-'\J	.	8a-'\J	.	8e-'/J	.	.
=23	=23	=23	=23	=23	=23	=23	=23	=23	=23	=23	=23	=23	=23	=23	=23	=23	=23	=23	=23
2r	.	2r	2r	.	2r	2r	.	2r	2r	.	(4ee-\	.	4b-\	.	4g\	.	4e-/	2r	.
.	.	.	.	.	.	.	.	.	.	.	8e-/)	.	4r	.	4r	.	4r	.	.
.	.	.	.	.	.	.	.	.	.	.	8r	.	.	.	.	.	.	.	.
=24	=24	=24	=24	=24	=24	=24	=24	=24	=24	=24	=24	=24	=24	=24	=24	=24	=24	=24	=24
*	*	*	*	*	*	*	*	*	*	*	*	*	*	*	*	*	*v	*v	*
!	!	!	!	!	!	!	!	!	!	!	!	!	!	!	!	!	! Bassi	!
!	!	!	!	!	!	!	!	!	!	!	!	!	!	!	!	!	!	!
2r	.	2r	2r	.	2r	2r	.	2r	2r	.	(4e-/	.	(4c-/	.	[2A-/	.	(4AA-/	.
.	.	.	.	.	.	.	.	.	.	.	16.f-/LL	.	16.d-/LL	.	.	.	4D-/	.
.	.	.	.	.	.	.	.	.	.	.	32g-/k	.	32e-/k	.	.	.	.	.
.	.	.	.	.	.	.	.	.	.	.	16.a-/	.	16.f-/	.	.	.	.	.
.	.	.	.	.	.	.	.	.	.	.	32f-/JJk	.	32d-/JJk	.	.	.	.	.
=25	=25	=25	=25	=25	=25	=25	=25	=25	=25	=25	=25	=25	=25	=25	=25	=25	=25	=25
*	*	*	*	*	*	*	*	*	*	*	*	*	*	*	*	*	*^	*
2r	.	2r	2r	.	2r	2r	.	2r	2r	.	8e-/)	.	8c-/)	.	8A-/]	.	8AA-/)	4ryy	.
.	.	.	.	.	.	.	.	.	.	.	8r	.	8r	.	8r	.	8r	.	.
!	!	!	!	!	!	!	!	!	!	!	!	!	!	!	!	!	! Cello	!	!
.	.	.	.	.	.	.	.	.	.	.	(16.a-/LL	.	(4dn/	.	[4A-/	.	(4F/	4r	.
.	.	.	.	.	.	.	.	.	.	.	32gn/k	.	.	.	.	.	.	.	.
.	.	.	.	.	.	.	.	.	.	.	16.b-/	.	.	.	.	.	.	.	.
.	.	.	.	.	.	.	.	.	.	.	32a-/JJk	.	.	.	.	.	.	.	.
=26	=26	=26	=26	=26	=26	=26	=26	=26	=26	=26	=26	=26	=26	=26	=26	=26	=26	=26	=26
2r	.	2r	2r	.	2r	2r	.	2r	2r	.	16.ccn\LL	.	8e-/)	.	8A-/]	.	8E-/)	2r	.
.	.	.	.	.	.	.	.	.	.	.	32b-\k	.	.	.	.	.	.	.	.
.	.	.	.	.	.	.	.	.	.	.	16.dd-\	.	8r	.	8r	.	8r	.	.
.	.	.	.	.	.	.	.	.	.	.	32cc\JJk	.	.	.	.	.	.	.	.
.	.	.	.	.	.	.	.	.	.	.	8ee-'\L)	.	8r	.	8r	.	8r	.	.
.	.	.	.	.	.	.	.	.	.	.	8ee-'\J	.	8g'/	.	8d-'\	.	8EE-'/	.	.
=27	=27	=27	=27	=27	=27	=27	=27	=27	=27	=27	=27	=27	=27	=27	=27	=27	=27	=27	=27
2r	.	2r	2r	.	2r	2r	.	2r	2r	.	(4ee-\	.	4a-/	.	4c\	.	4AA-/	2r	.
.	.	.	.	.	.	.	.	.	.	.	8a-/)	.	4r	.	4r	.	4r	.	.
.	.	.	.	.	.	.	.	.	.	.	8r	.	.	.	.	.	.	.	.
=28:|!	=28:|!	=28:|!	=28:|!	=28:|!	=28:|!	=28:|!	=28:|!	=28:|!	=28:|!	=28:|!	=28:|!	=28:|!	=28:|!	=28:|!	=28:|!	=28:|!	=28:|!	=28:|!	=28:|!
*>C	*	*>C	*	*	*>C	*	*	*	*	*	*>C	*	*>C	*	*>C	*	*	*	*
*	*	*	*	*	*	*	*	*v	*v	*	*	*	*	*	*	*	*	*	*
*	*	*	*	*	*	*	*	*>C	*	*	*	*	*	*	*	*	*	*
!	!	!	!	!	!	!	!	! a 2.	!	!	!	!	!	!	!	!	!	!
!	!	!	!	!	!	!	!	!	!	!	!	!	!	!	!	!	!	!
*	*	*	*	*	*	*	*	*	*	*	*	*	*	*	*	*v	*v	*
*	*	*	*	*	*	*	*	*	*	*	*	*	*	*	*	*>C	*
(8ccc'\L	p	(8ff#'\L	8cc\L	p	(8c'\L	8C\L	p	(8ee'\L	p	2r	.	2r	.	2r	.	2r	.
8ccc'\	.	8ff#'\	8cc\	.	8c'\	8C\	.	8ee'\	.	.	.	.	.	.	.	.	.
8ccc'\	.	8ff#'\	8cc\	.	8c'\	8C\	.	8ee'\	.	.	.	.	.	.	.	.	.
8ccc'\J)	.	8ff#'\J)	8cc\J	.	8c'\J)	8C\J	.	8ee'\J)	.	.	.	.	.	.	.	.	.
=29	=29	=29	=29	=29	=29	=29	=29	=29	=29	=29	=29	=29	=29	=29	=29	=29	=29
!	!	! ten.	!	!	!	!	!	!	!	!	!	!	!	!	!	!	!
(16ccc\LL	.	2ff#\	2cc\	.	2c\	2C\	.	2ee\	.	2r	.	2r	.	2r	.	2r	.
16ddd-\	.	.	.	.	.	.	.	.	.	.	.	.	.	.	.	.	.
16ccc\	.	.	.	.	.	.	.	.	.	.	.	.	.	.	.	.	.
16bbn\JJ	.	.	.	.	.	.	.	.	.	.	.	.	.	.	.	.	.
16ccc\LL	.	.	.	.	.	.	.	.	.	.	.	.	.	.	.	.	.
16bb-\	.	.	.	.	.	.	.	.	.	.	.	.	.	.	.	.	.
16aa-\	.	.	.	.	.	.	.	.	.	.	.	.	.	.	.	.	.
16gg\JJ)	.	.	.	.	.	.	.	.	.	.	.	.	.	.	.	.	.
=30	=30	=30	=30	=30	=30	=30	=30	=30	=30	=30	=30	=30	=30	=30	=30	=30	=30
!	!	!	!	!	!	!	!	!	!	!	!	!	!	!	!	! Bassi	!
4ff\	.	4gg\	4b-\	.	4c\	4F\	.	2dd\	f	8ff\L	f	16c/LK	f	16A-/LK	f	16FF\LL	f
.	.	.	.	.	.	.	.	.	.	.	.	8c/	.	8A-/	.	16F\	.
.	.	.	.	.	.	.	.	.	.	16.cc\L	.	.	.	.	.	16F\	.
.	.	.	.	.	.	.	.	.	.	.	.	8c/	.	8A-/	.	16F\JJ	.
.	.	.	.	.	.	.	.	.	.	32ff\JJk	.	.	.	.	.	.	.
4r	.	4r	4r	.	4r	4r	.	.	.	8aa-\	.	.	.	.	.	16F\LL	.
.	.	.	.	.	.	.	.	.	.	.	.	8c/	.	8A-/	.	16F\	.
.	.	.	.	.	.	.	.	.	.	16r	.	.	.	.	.	16F\	.
.	.	.	.	.	.	.	.	.	.	(48aa-\LLL	.	(16c/Jk	.	(16A-/Jk	.	16F\JJ	.
.	.	.	.	.	.	.	.	.	.	48gg\	.	.	.	.	.	.	.
.	.	.	.	.	.	.	.	.	.	48ff\JJJ)	.	.	.	.	.	.	.
=31	=31	=31	=31	=31	=31	=31	=31	=31	=31	=31	=31	=31	=31	=31	=31	=31	=31
2eeen\	f	2ff#\	2cc\	f	2d-\	2B-\	ff	2ee\	.	8een\L	.	16d-/LK)	.	16B-/LK)	.	16FF\LL	.
.	.	.	.	.	.	.	.	.	.	.	.	8d-/	.	8B-/	.	16F\	.
.	.	.	.	.	.	.	.	.	.	16.gg\L	.	.	.	.	.	16F\	.
.	.	.	.	.	.	.	.	.	.	.	.	8d-/	.	8B-/	.	16F\JJ	.
.	.	.	.	.	.	.	.	.	.	32bb-\JJk	.	.	.	.	.	.	.
.	.	.	.	.	.	.	.	.	.	8ddd-\	.	.	.	.	.	16F\LL	.
.	.	.	.	.	.	.	.	.	.	.	.	8d-/	.	8B-/	.	16F\	.
.	.	.	.	.	.	.	.	.	.	16.r	.	.	.	.	.	16F\	.
.	.	.	.	.	.	.	.	.	.	.	.	(16d-/Jk	.	(16B-/Jk	.	16F\JJ	.
.	.	.	.	.	.	.	.	.	.	32ee\	.	.	.	.	.	.	.
=32	=32	=32	=32	=32	=32	=32	=32	=32	=32	=32	=32	=32	=32	=32	=32	=32	=32
2fff\	.	2gg\	[2b-\	.	2c\	2A-\	.	2dd\	.	8ff\L	.	16c/LK)	.	16A-/LK)	.	16FF\LL	.
.	.	.	.	.	.	.	.	.	.	.	.	8c/	.	8A-/	.	16F\	.
.	.	.	.	.	.	.	.	.	.	16.cc\L	.	.	.	.	.	16F\	.
.	.	.	.	.	.	.	.	.	.	.	.	8c/	.	8A-/	.	16F\JJ	.
.	.	.	.	.	.	.	.	.	.	32ff\JJk	.	.	.	.	.	.	.
.	.	.	.	.	.	.	.	.	.	8aa-\L	.	.	.	.	.	16F\LL	.
.	.	.	.	.	.	.	.	.	.	.	.	8c/	.	8A-/	.	16F\	.
.	.	.	.	.	.	.	.	.	.	16r	.	.	.	.	.	16F\	.
.	.	.	.	.	.	.	.	.	.	(64aa-\LLL	.	(16c/Jk	.	[16A-/Jk	.	16F\JJ	.
.	.	.	.	.	.	.	.	.	.	64gg\	.	.	.	.	.	.	.
.	.	.	.	.	.	.	.	.	.	64ff\	.	.	.	.	.	.	.
.	.	.	.	.	.	.	.	.	.	64ee-\JJJJ	.	.	.	.	.	.	.
=33	=33	=33	=33	=33	=33	=33	=33	=33	=33	=33	=33	=33	=33	=33	=33	=33	=33
2dddn\	.	2een\	2b-\]	.	2c-\	2A-\	.	2dd\	.	8ddn\L)	.	16c-/LK)	.	16A-/LK]	.	16FF\LL	.
.	.	.	.	.	.	.	.	.	.	.	.	8c-/	.	8A-/	.	16F\	.
.	.	.	.	.	.	.	.	.	.	16.ff\L	.	.	.	.	.	16F\	.
.	.	.	.	.	.	.	.	.	.	.	.	8c-/	.	8A-/	.	16F\JJ	.
.	.	.	.	.	.	.	.	.	.	32aa-\JJk	.	.	.	.	.	.	.
.	.	.	.	.	.	.	.	.	.	8ccc-\	.	.	.	.	.	16F\LL	.
.	.	.	.	.	.	.	.	.	.	.	.	8c-/	.	8A-/	.	16F\	.
.	.	.	.	.	.	.	.	.	.	16.r	.	.	.	.	.	16F\	.
.	.	.	.	.	.	.	.	.	.	.	.	(16c-/Jk	.	(16A-/Jk	.	16F\JJ	.
.	.	.	.	.	.	.	.	.	.	32dd\	.	.	.	.	.	.	.
=34	=34	=34	=34	=34	=34	=34	=34	=34	=34	=34	=34	=34	=34	=34	=34	=34	=34
[2eee-\	.	2ffn\	2cc\	.	2B-\	[2G-\	.	2cc\	.	8ee-\L	.	16B-/LK)	.	16G-/LK)	.	16GG-\LL	.
.	.	.	.	.	.	.	.	.	.	.	.	8e-/	.	8B-/	.	16G-\	.
.	.	.	.	.	.	.	.	.	.	16.b-\L	.	.	.	.	.	16G-\	.
.	.	.	.	.	.	.	.	.	.	.	.	8e-/	.	8B-/	.	16G-\JJ	.
.	.	.	.	.	.	.	.	.	.	32ee-\JJk	.	.	.	.	.	.	.
.	.	.	.	.	.	.	.	.	.	8gg-\L	.	.	.	.	.	16G-\LL	.
.	.	.	.	.	.	.	.	.	.	.	.	8e-/	.	8B-/	.	16G-\	.
.	.	.	.	.	.	.	.	.	.	16r	.	.	.	.	.	16G-\	.
.	.	.	.	.	.	.	.	.	.	(64ee-\LLL	.	[16e-/Jk	.	(16B-/Jk	.	16G-\JJ	.
.	.	.	.	.	.	.	.	.	.	64dd-\	.	.	.	.	.	.	.
.	.	.	.	.	.	.	.	.	.	64cc-\	.	.	.	.	.	.	.
.	.	.	.	.	.	.	.	.	.	64b-\JJJJ	.	.	.	.	.	.	.
=35	=35	=35	=35	=35	=35	=35	=35	=35	=35	=35	=35	=35	=35	=35	=35	=35	=35
*	*	*	*	*	*	*	*	*^	*	*	*	*	*	*	*	*	*
4eee-\]	.	(4aa-\	4ff\	.	2e-/	(4G-\]	.	2cc/	2c/	.	8an\L)	.	16e-/LK]	.	16c-\LK)	.	16C-\LL	.
.	.	.	.	.	.	.	.	.	.	.	.	.	8g-/	.	8e-\	.	16c-\	.
.	.	.	.	.	.	.	.	.	.	.	16.aan\L	.	.	.	.	.	16c-\	.
.	.	.	.	.	.	.	.	.	.	.	.	.	8g-/	.	8e-\	.	16c-\JJ	.
.	.	.	.	.	.	.	.	.	.	.	32ee-\JJk	.	.	.	.	.	.	.
4aan\	.	4ff\)	4bn\	.	.	4An\)	.	.	.	.	8eee-\	.	.	.	.	.	16c-\LL	.
.	.	.	.	.	.	.	.	.	.	.	.	.	8g-/	.	8e-\	.	16c-\	.
.	.	.	.	.	.	.	.	.	.	.	16.r	.	.	.	.	.	16c-\	.
.	.	.	.	.	.	.	.	.	.	.	.	.	(16g-/Jk	.	(16e-\Jk	.	16c-\JJ	.
.	.	.	.	.	.	.	.	.	.	.	32aa\	.	.	.	.	.	.	.
=36	=36	=36	=36	=36	=36	=36	=36	=36	=36	=36	=36	=36	=36	=36	=36	=36	=36	=36
(4bb-\	.	(8een\L	8cc\L	.	(4dn\	4B-\	.	4g/	4G/	.	8bb-\L	.	16f/LK)	.	16dn\LK)	.	16BB-\LL	.
.	.	.	.	.	.	.	.	.	.	.	.	.	8f/	.	8d\	.	16B-\	.
.	.	8gg\	8een\	.	.	.	.	.	.	.	16.ff\L	.	.	.	.	.	16B-\	.
.	.	.	.	.	.	.	.	.	.	.	.	.	(16f/Jk	.	(16B-\Jk	.	16B-\JJ	.
.	.	.	.	.	.	.	.	.	.	.	32dddn\JJk	.	.	.	.	.	.	.
4aan\	.	8aa-\	8ff\	.	4c\	4An\	.	4cc/	4c/	.	8eee-\	.	16g-/LK)	.	16An\LK)	.	16BB-\LL	.
.	.	.	.	.	.	.	.	.	.	.	.	.	8g-/	.	8c\	.	16B-\	.
.	.	8ff\J)	8dd\J	.	.	.	.	.	.	.	16.r	.	.	.	.	.	16B-\	.
.	.	.	.	.	.	.	.	.	.	.	.	.	(16g-/Jk	.	(16e-\Jk	.	16B-\JJ	.
.	.	.	.	.	.	.	.	.	.	.	32aan\	.	.	.	.	.	.	.
=37	=37	=37	=37	=37	=37	=37	=37	=37	=37	=37	=37	=37	=37	=37	=37	=37	=37	=37
4bb-\	.	(8een\L	8cc\L	.	4dn\	4B-\	.	4g/	4G/	.	8bb-\L	.	16f/LK)	.	16dn\LK)	.	16BB-\LL	.
.	.	.	.	.	.	.	.	.	.	.	.	.	8f/	.	8d\	.	16B-\	.
.	.	8gg\	8een\	.	.	.	.	.	.	.	16.ff\L	.	.	.	.	.	16B-\	.
.	.	.	.	.	.	.	.	.	.	.	.	.	(16f/Jk	.	(16B-\Jk	.	16B-\JJ	.
.	.	.	.	.	.	.	.	.	.	.	32dddn\JJk	.	.	.	.	.	.	.
4aan\)	.	8aa-\	8ff\	.	4c\)	4An\	.	4cc/	4c/	.	8eee-\	.	16g-/LK)	.	16An\LK)	.	16BB-\LL	.
.	.	.	.	.	.	.	.	.	.	.	.	.	8g-/	.	8c\	.	16B-\	.
.	.	8ff\J)	8dd\J	.	.	.	.	.	.	.	16.r	.	.	.	.	.	16B-\	.
.	.	.	.	.	.	.	.	.	.	.	.	.	(16g-/Jk	.	(16e-\Jk	.	16B-\JJ	.
.	.	.	.	.	.	.	.	.	.	.	32aan\	.	.	.	.	.	.	.
=38	=38	=38	=38	=38	=38	=38	=38	=38	=38	=38	=38	=38	=38	=38	=38	=38	=38	=38
8bb-\	.	8een\	8cc\	.	8dn\	8B-\	.	[2g/	[2G/	fp	16bb-\LL	p	16f/LL)	.	8dn\)	.	8BB-/	.
.	.	.	.	.	.	.	.	.	.	.	16bb-\	.	16b-/	p	.	.	.	.
8r	.	8r	8r	.	8r	8r	.	.	.	.	16bb-\	.	16b-/	.	8r	.	8r	.
.	.	.	.	.	.	.	.	.	.	.	16bb-\JJ	.	16b-/JJ	.	.	.	.	.
4r	.	4r	4r	.	4r	4r	.	.	.	.	16bb-\LL	.	16b-\LL	.	4r	.	4r	.
.	.	.	.	.	.	.	.	.	.	.	16bb-\	.	16b-\	.	.	.	.	.
.	.	.	.	.	.	.	.	.	.	.	16bb-\	.	16b-\	.	.	.	.	.
.	.	.	.	.	.	.	.	.	.	.	16bb-\JJ	.	16b-\JJ	.	.	.	.	.
=39	=39	=39	=39	=39	=39	=39	=39	=39	=39	=39	=39	=39	=39	=39	=39	=39	=39	=39
2r	.	(4een\	4cc\	p	(4Dn/	4BB-/	p	2g/_	2G/_	.	16bb-\LL	.	16b-\LL	.	2r	.	2r	.
.	.	.	.	.	.	.	.	.	.	.	16bb-\	.	16b-\	.	.	.	.	.
.	.	.	.	.	.	.	.	.	.	.	16bb-\	.	16b-\	.	.	.	.	.
.	.	.	.	.	.	.	.	.	.	.	16bb-\	.	16b-\	.	.	.	.	.
.	.	16.ff\LL	16.dd\LL	.	16.E-\LL	16.C\LL	.	.	.	.	16bb-\	.	16b-\	.	.	.	.	.
.	.	.	.	.	.	.	.	.	.	.	16bb-\	.	16b-\	.	.	.	.	.
.	.	32gg\k	32een\k	.	32F\k	32D\k	.	.	.	.	.	.	.	.	.	.	.	.
.	.	16.aa\	16.ff\	.	16.G\	16.E-\	.	.	.	.	16bb-\	.	16b-\	.	.	.	.	.
.	.	.	.	.	.	.	.	.	.	.	16bb-\JJ	.	16b-\JJ	.	.	.	.	.
.	.	32ff\JJk	32dd\JJk	.	32E-\JJk	32C\JJk	.	.	.	.	.	.	.	.	.	.	.	.
=40	=40	=40	=40	=40	=40	=40	=40	=40	=40	=40	=40	=40	=40	=40	=40	=40	=40	=40
2r	.	8een\)	8cc\	.	8Dn/)	8BB-/	.	2g/_	2G/_	.	16bb-\LL	.	16b-\LL	.	(16.B-\LL	p	(16.BB-/LL	p
.	.	.	.	.	.	.	.	.	.	.	16bb-\	.	16b-\	.	.	.	.	.
.	.	.	.	.	.	.	.	.	.	.	.	.	.	.	32An\k	.	32AAn/k	.
.	.	8r	8r	.	8r	8r	.	.	.	.	16bb-\	.	16b-\	.	16.dn\	.	16.Dn/	.
.	.	.	.	.	.	.	.	.	.	.	16bb-\	.	16b-\	.	.	.	.	.
.	.	.	.	.	.	.	.	.	.	.	.	.	.	.	32c\JJk	.	32C/JJk	.
.	.	4r	4r	.	4r	4r	.	.	.	.	16bb-\	.	16b-\	.	16.e-\LL	.	16.E-\LL	.
.	.	.	.	.	.	.	.	.	.	.	16bb-\	.	16b-\	.	.	.	.	.
.	.	.	.	.	.	.	.	.	.	.	.	.	.	.	32d\Jk	.	32D\Jk	.
.	.	.	.	.	.	.	.	.	.	.	16bb-\	.	16b-\	.	8f\J)	.	8F\J)	.
.	.	.	.	.	.	.	.	.	.	.	16bb-\JJ	.	16b-\JJ	.	.	.	.	.
=41	=41	=41	=41	=41	=41	=41	=41	=41	=41	=41	=41	=41	=41	=41	=41	=41	=41	=41
2r	.	(4ff\	4dd\	.	(4E-/	4C/	.	2g/_	2G/_	.	16bb-\LL	.	16b-\LL	.	2r	.	2r	.
.	.	.	.	.	.	.	.	.	.	.	16bb-\	.	16b-\	.	.	.	.	.
.	.	.	.	.	.	.	.	.	.	.	16bb-\	.	16b-\	.	.	.	.	.
.	.	.	.	.	.	.	.	.	.	.	16bb-\	.	16b-\	.	.	.	.	.
.	.	16.gg\LL	16.een\LL	.	16.F\LL	16.Dn\LL	.	.	.	.	16bb-\	.	16b-\	.	.	.	.	.
.	.	.	.	.	.	.	.	.	.	.	16bb-\	.	16b-\	.	.	.	.	.
.	.	32aa\k	32ff\k	.	32G\k	32E-\k	.	.	.	.	.	.	.	.	.	.	.	.
.	.	16.bb-\	16.gg\	.	16.A-\	16.F\	.	.	.	.	16bb-\	.	16b-\	.	.	.	.	.
.	.	.	.	.	.	.	.	.	.	.	16bb-\JJ	.	16b-\JJ	.	.	.	.	.
.	.	32gg\JJk	32ee\JJk	.	32F\JJk	32D\JJk	.	.	.	.	.	.	.	.	.	.	.	.
=42	=42	=42	=42	=42	=42	=42	=42	=42	=42	=42	=42	=42	=42	=42	=42	=42	=42	=42
2r	.	8ff\)	8dd\	.	8E-/)	8C/	.	2g/_	2G/_	.	16bb-\LL	.	16b-\LL	.	(16.B-\LL	.	(16.BB-/LL	.
.	.	.	.	.	.	.	.	.	.	.	16bb-\	.	16b-\	.	.	.	.	.
.	.	.	.	.	.	.	.	.	.	.	.	.	.	.	32An\k	.	32AAn/k	.
.	.	8r	8r	.	8r	8r	.	.	.	.	16bb-\	.	16b-\	.	16.e-\	.	16.E-/	.
.	.	.	.	.	.	.	.	.	.	.	16bb-\	.	16b-\	.	.	.	.	.
.	.	.	.	.	.	.	.	.	.	.	.	.	.	.	32dn\JJk	.	32Dn/JJk	.
.	.	4r	4r	.	4r	4r	.	.	.	.	16bb-\	.	16b-\	.	16.f\LL	.	16.F\LL	.
.	.	.	.	.	.	.	.	.	.	.	16bb-\	.	16b-\	.	.	.	.	.
.	.	.	.	.	.	.	.	.	.	.	.	.	.	.	32e-\Jk	.	32E-\Jk	.
.	.	.	.	.	.	.	.	.	.	.	16bb-\	.	16b-\	.	8g\J)	.	8G\J)	.
.	.	.	.	.	.	.	.	.	.	.	16bb-\JJ	.	16b-\JJ	.	.	.	.	.
=43	=43	=43	=43	=43	=43	=43	=43	=43	=43	=43	=43	=43	=43	=43	=43	=43	=43	=43
2r	.	(4gg\	4een\	.	(4F\	4Dn\	.	2g/_	2G/_	.	16bb-\LL	.	16b-\LL	.	2r	.	2r	.
.	.	.	.	.	.	.	.	.	.	.	16bb-\	.	16b-\	.	.	.	.	.
.	.	.	.	.	.	.	.	.	.	.	16bb-\	.	16b-\	.	.	.	.	.
.	.	.	.	.	.	.	.	.	.	.	16bb-\	.	16b-\	.	.	.	.	.
.	.	16.aa\LL	16.ff\LL	.	16.G\LL	16.E-\LL	.	.	.	.	16bb-\	.	16b-\	.	.	.	.	.
.	.	.	.	.	.	.	.	.	.	.	16bb-\	.	16b-\	.	.	.	.	.
.	.	32bb-\k	32gg\k	.	32A-\k	32F\k	.	.	.	.	.	.	.	.	.	.	.	.
.	.	16.ccc\	16.aa\	.	16.B-\	16.G\	.	.	.	.	16bb-\	.	16b-\	.	.	.	.	.
.	.	.	.	.	.	.	.	.	.	.	16bb-\JJ	.	16b-\JJ	.	.	.	.	.
.	.	32aa\JJk	32ff\JJk	.	32G\JJk	32E-\JJk	.	.	.	.	.	.	.	.	.	.	.	.
=44	=44	=44	=44	=44	=44	=44	=44	=44	=44	=44	=44	=44	=44	=44	=44	=44	=44	=44
2r	.	8gg\)	8een\	.	8F\)	8Dn\	.	2g/_	(2G/]	.	(4.bb-\	.	4.b-\	.	(16.B-\LL	.	(16.BB-\LL	.
.	.	.	.	.	.	.	.	.	.	.	.	.	.	.	32An\k	.	32AAn\k	.
.	.	8r	8r	.	8r	8r	.	.	.	.	.	.	.	.	16.f\	.	16.F\	.
.	.	.	.	.	.	.	.	.	.	.	.	.	.	.	32e-\JJk	.	32E-\JJk	.
.	.	4r	4r	.	4r	4r	.	.	.	.	.	.	.	.	16.g\LL	.	16.G\LL	.
.	.	.	.	.	.	.	.	.	.	.	.	.	.	.	32f\Jk	.	32F\Jk	.
.	.	.	.	.	.	.	.	.	.	.	8ddn\)	.	(8b-/ 8f/	.	8a-\J	.	8A-\J	.
=45	=45	=45	=45	=45	=45	=45	=45	=45	=45	=45	=45	=45	=45	=45	=45	=45	=45	=45
2r	.	2r	2r	.	2r	2r	.	8g/]	8c/)	.	(16.ee-\LL	.	8b-/ 8g/)	.	8g\)	.	8G\)	.
.	.	.	.	.	.	.	.	.	.	.	32ddn\k	.	.	.	.	.	.	.
.	.	.	.	.	.	.	.	8r	8r	.	16.ff\	.	8r	.	8r	.	8r	.
.	.	.	.	.	.	.	.	.	.	.	32ee-\JJk	.	.	.	.	.	.	.
.	.	.	.	.	.	.	.	4r	4r	.	16.aa-\LL	.	8r	.	4r	.	4r	.
.	.	.	.	.	.	.	.	.	.	.	32gg\k	.	.	.	.	.	.	.
.	.	.	.	.	.	.	.	.	.	.	16.bb-\)	.	16.r	.	.	.	.	.
.	.	.	.	.	.	.	.	.	.	.	32bb-\JJk	f	32b-\	f	.	.	.	.
=46	=46	=46	=46	=46	=46	=46	=46	=46	=46	=46	=46	=46	=46	=46	=46	=46	=46	=46
16bb-\LL	f	16aa\LL	16cc\LL	f	16g\LL	16c\LL	ff	2r	2r	.	8bb-'\L	.	8b-'/L	.	(16.en\LL	f	(16.En\LL	f
16bb-\	.	16aa\	16cc\	.	16g\	16c\	.	.	.	.	.	.	.	.	.	.	.	.
.	.	.	.	.	.	.	.	.	.	.	.	.	.	.	32dn\k	.	32Dn\k	.
16bb-\	.	16aa\	16cc\	.	16g\	16c\	.	.	.	.	8cc'\J	.	8c'/J	.	16.f\	.	16.F\	.
16bb-\JJ	.	16aa\JJ	16cc\JJ	.	16g\JJ	16c\JJ	.	.	.	.	.	.	.	.	.	.	.	.
.	.	.	.	.	.	.	.	.	.	.	.	.	.	.	32e\JJk	.	32E\JJk	.
16aa-\LL	.	16gg\LL	16b-\LL	.	16f\LL	16c\LL	.	.	.	.	16r	.	16r	.	16.g\LL	.	16.G\LL	.
!	!	!	!	!	!	!	!	!	!	!	! (32ddP/LLL	!	! (32dP/LLL	!	!	!	!	!
!	!	!	!	!	!	!	!	!	!	!	! 32ccP/	!	! 32cP/	!	!	!	!	!
!	!	!	!	!	!	!	!	!	!	!	! 32bP/JJJ)	!	! 32BP/JJJ)	!	!	!	!	!
16aa-\	.	16gg\	16b-\	.	16f\	16c\	.	.	.	.	16ccp'\LL	.	16cp'/LL	.	.	.	.	.
.	.	.	.	.	.	.	.	.	.	.	.	.	.	.	32f\Jk	.	32F\Jk	.
16aa-\	.	16gg\	16b-\	.	16f\	16c\	.	.	.	.	16ff'\	.	16f'/	.	8a-\J)	.	8A-\J)	.
16aa-\JJ	.	16gg\JJ	16b-\JJ	.	16f\JJ	16c\JJ	.	.	.	.	16aa-'\JJ	.	16a-'/JJ	.	.	.	.	.
=47	=47	=47	=47	=47	=47	=47	=47	=47	=47	=47	=47	=47	=47	=47	=47	=47	=47	=47
16aa-\LL	.	16gg\LL	16b-\LL	.	16f\LL	16B-\LL	.	2gg\	2g\	f	8aa-'\L	.	8a-'/L	.	(16.dn\LL	.	(16.Dn\LL	.
16aa-\	.	16gg\	16b-\	.	16f\	16B-\	.	.	.	.	.	.	.	.	.	.	.	.
.	.	.	.	.	.	.	.	.	.	.	.	.	.	.	32c\k	.	32C\k	.
16aa-\	.	16gg\	16b-\	.	16f\	16B-\	.	.	.	.	8b-'\J	.	8B-'/J	.	16.e-\	.	16.E-\	.
16aa-\JJ	.	16gg\JJ	16b-\JJ	.	16f\JJ	16B-\JJ	.	.	.	.	.	.	.	.	.	.	.	.
.	.	.	.	.	.	.	.	.	.	.	.	.	.	.	32d\JJk	.	32D\JJk	.
16gg\LL	.	16ff\LL	16a/LL	.	16e-\LL	16B-\LL	.	.	.	.	16r	.	16r	.	16.f\LL	.	16.F\LL	.
!	!	!	!	!	!	!	!	!	!	!	! (32ccP/LLL	!	! (32cP/LLL	!	!	!	!	!
!	!	!	!	!	!	!	!	!	!	!	! 32b-P/	!	! 32B-P/	!	!	!	!	!
!	!	!	!	!	!	!	!	!	!	!	! 32aP/JJJ)	!	! 32AP/JJJ)	!	!	!	!	!
16gg\	.	16ff\	16a/	.	16e-\	16B-\	.	.	.	.	16b-p'\LL	.	16B-p'/LL	.	.	.	.	.
.	.	.	.	.	.	.	.	.	.	.	.	.	.	.	32e-\Jk	.	32E-\Jk	.
16gg\	.	16ff\	16a/	.	16e-\	16B-\	.	.	.	.	16ee-'\	.	16e-'/	.	8g\J)	.	8G\J)	.
16gg\JJ	.	16ff\JJ	16a/JJ	.	16e-\JJ	16B-\JJ	.	.	.	.	16gg'\JJ	.	16g'/JJ	.	.	.	.	.
=48	=48	=48	=48	=48	=48	=48	=48	=48	=48	=48	=48	=48	=48	=48	=48	=48	=48	=48
16gg\LL	.	16ff\LL	16a/LL	.	16e-\LL	16A-\LL	.	2r	2r	.	8gg'\L	.	8g'/L	.	(16.c\LL	.	(16.C/LL	.
16gg\	.	16ff\	16a/	.	16e-\	16A-\	.	.	.	.	.	.	.	.	.	.	.	.
.	.	.	.	.	.	.	.	.	.	.	.	.	.	.	32Bn\k	.	32BBn/k	.
16gg\	.	16ff\	16a/	.	16e-\	16A-\	.	.	.	.	8a-'\J	.	8A-'/J	.	16.dn\	.	16.Dn/	.
16gg\JJ	.	16ff\JJ	16a/JJ	.	16e-\JJ	16A-\JJ	.	.	.	.	.	.	.	.	.	.	.	.
.	.	.	.	.	.	.	.	.	.	.	.	.	.	.	32c\JJk	.	32C/JJk	.
16ff\LL	.	16een\LL	16g/LL	.	16dn\LL	16A-\LL	.	.	.	.	16r	.	16r	.	16.e-\LL	.	16.E-\LL	.
!	!	!	!	!	!	!	!	!	!	!	! (32b-P/LLL	!	! (32B-P/LLL	!	!	!	!	!
!	!	!	!	!	!	!	!	!	!	!	! 32a-P/	!	! 32A-P/	!	!	!	!	!
!	!	!	!	!	!	!	!	!	!	!	! 32gP/JJJ)	!	! 32GP/JJJ)	!	!	!	!	!
16ff\	.	16ee\	16g/	.	16d\	16A-\	.	.	.	.	16a-p'\LL	.	16A-p'/LL	.	.	.	.	.
.	.	.	.	.	.	.	.	.	.	.	.	.	.	.	32d\Jk	.	32D\Jk	.
16ff\	.	16ee\	16g/	.	16d\	16A-\	.	.	.	.	16ddn'\	.	16dn'/	.	8f\J)	.	8F\J)	.
16ff\JJ	.	16ee\JJ	16g/JJ	.	16d\JJ	16A-\JJ	.	.	.	.	16ff'\JJ	.	16f'/JJ	.	.	.	.	.
=49	=49	=49	=49	=49	=49	=49	=49	=49	=49	=49	=49	=49	=49	=49	=49	=49	=49	=49
16ff\LL	.	16een\LL	16g/LL	.	16dn\LL	16G\LL	.	2ee/	2e/	f	8ff'\L	.	8f'/L	.	(16.Bn/LL	.	(16.BBn/LL	.
16ff\	.	16ee\	16g/	.	16d\	16G\	.	.	.	.	.	.	.	.	.	.	.	.
.	.	.	.	.	.	.	.	.	.	.	.	.	.	.	32An/k	.	32AAn/k	.
16ff\	.	16ee\	16g/	.	16d\	16G\	.	.	.	.	8g'\J	.	8G'/J	.	16.c/	.	16.C/	.
16ff\JJ	.	16ee\JJ	16g/JJ	.	16d\JJ	16G\JJ	.	.	.	.	.	.	.	.	.	.	.	.
.	.	.	.	.	.	.	.	.	.	.	.	.	.	.	32B/JJk	.	32BB/JJk	.
16ee-\LL	.	16dd\LL	16f/LL	.	16c\LL	16G\LL	.	.	.	.	16r	.	16r	.	16.dn\LL	.	16.Dn/LL	.
!	!	!	!	!	!	!	!	!	!	!	! (32a-P/LLL	!	!	!	!	!	!	!
!	!	!	!	!	!	!	!	!	!	!	! 32gP/	!	!	!	!	!	!	!
!	!	!	!	!	!	!	!	!	!	!	! 32f#P/JJJ)	!	!	!	!	!	!	!
16ee-\	.	16dd\	16f/	.	16c\	16G\	.	.	.	.	16gp'\LL	.	16G'/LL	.	.	.	.	.
.	.	.	.	.	.	.	.	.	.	.	.	.	.	.	32c\Jk	.	32C/Jk	.
16ee-\	.	16dd\	16f/	.	16c\	16G\	.	.	.	.	16cc'\	.	16c'/	.	8e-\J)	.	8E-/J)	.
16ee-\JJ	.	16dd\JJ	16f/JJ	.	16c\JJ	16G\JJ	.	.	.	.	16ee-'\JJ	.	16e-'/JJ	.	.	.	.	.
=50	=50	=50	=50	=50	=50	=50	=50	=50	=50	=50	=50	=50	=50	=50	=50	=50	=50	=50
2r	.	2r	2r	.	2r	2r	.	2r	2r	.	(16.fn/LL	p	8c/	p	8A-/	p	8AA-/	p
.	.	.	.	.	.	.	.	.	.	.	32en/k	.	.	.	.	.	.	.
.	.	.	.	.	.	.	.	.	.	.	16.g/	.	8r	.	8r	.	8r	.
.	.	.	.	.	.	.	.	.	.	.	32f/JJk	.	.	.	.	.	.	.
.	.	.	.	.	.	.	.	.	.	.	16.a-/LL	.	4r	.	4r	.	4r	.
.	.	.	.	.	.	.	.	.	.	.	32g/Jk)	.	.	.	.	.	.	.
.	.	.	.	.	.	.	.	.	.	.	[8bn/J	.	.	.	.	.	.	.
=51	=51	=51	=51	=51	=51	=51	=51	=51	=51	=51	=51	=51	=51	=51	=51	=51	=51	=51
2r	.	2r	2r	.	2r	2r	.	2r	2r	.	16.b\LL]	.	8f/	.	8c\	.	8A-\	.
.	.	.	.	.	.	.	.	.	.	.	(32ddn\k	.	.	.	.	.	.	.
.	.	.	.	.	.	.	.	.	.	.	16.cc\	.	8r	.	8r	.	8r	.
.	.	.	.	.	.	.	.	.	.	.	32een\JJk	.	.	.	.	.	.	.
.	.	.	.	.	.	.	.	.	.	.	16.gg\LL	.	4r	.	4r	.	4r	.
.	.	.	.	.	.	.	.	.	.	.	32ff\Jk)	.	.	.	.	.	.	.
.	.	.	.	.	.	.	.	.	.	.	[8bbn\J	.	.	.	.	.	.	.
=52	=52	=52	=52	=52	=52	=52	=52	=52	=52	=52	=52	=52	=52	=52	=52	=52	=52	=52
2r	.	2r	2r	.	2r	2r	.	2r	2r	.	16.bb\LL]	.	8g-/	.	8e-\	.	8An\	.
.	.	.	.	.	.	.	.	.	.	.	(32dddn\k	.	.	.	.	.	.	.
.	.	.	.	.	.	.	.	.	.	.	16.ccc\	.	8r	.	8r	.	8r	.
.	.	.	.	.	.	.	.	.	.	.	32ee-\JJk	.	.	.	.	.	.	.
.	.	.	.	.	.	.	.	.	.	.	16.gg-\LL	.	4r	.	4r	.	4r	.
.	.	.	.	.	.	.	.	.	.	.	32cc\k	.	.	.	.	.	.	.
.	.	.	.	.	.	.	.	.	.	.	16.ee-\	.	.	.	.	.	.	.
.	.	.	.	.	.	.	.	.	.	.	32an\JJk	.	.	.	.	.	.	.
=53	=53	=53	=53	=53	=53	=53	=53	=53	=53	=53	=53	=53	=53	=53	=53	=53	=53	=53
2r	.	2r	2r	.	8r	2r	.	2g/	2G/	p	8b-\)	.	8b-\	.	8B-/	.	8B-\	.
.	.	.	.	.	(8A-'/L	.	p	.	.	.	8r	.	8r	.	8r	.	8r	.
.	.	.	.	.	8A-'/	.	.	.	.	.	8dn/	.	8B-/	.	8F/	.	8BB-/	.
.	.	.	.	.	8A-'/J)	.	.	.	.	.	8r	.	8r	.	8r	.	8r	.
=54	=54	=54	=54	=54	=54	=54	=54	=54	=54	=54	=54	=54	=54	=54	=54	=54	=54	=54
2r	.	(8ff'/L	2r	p	(16A-/LL	2r	.	[2c/	[2c\	.	(16e-/LL	.	[2B-/	.	(2E-/	.	[2E-\	.
.	.	.	.	.	16G/	.	.	.	.	.	16B-/	.	.	.	.	.	.	.
.	.	8ff'/	.	.	16A-/	.	.	.	.	.	16e-/	.	.	.	.	.	.	.
.	.	.	.	.	16B-/JJ	.	.	.	.	.	16B-/JJ	.	.	.	.	.	.	.
.	.	8ff'/	.	.	16A-/LL	.	.	.	.	.	16e-/LL	.	.	.	.	.	.	.
.	.	.	.	.	16G/	.	.	.	.	.	16B-/	.	.	.	.	.	.	.
.	.	8ff'/J)	.	.	16F/	.	.	.	.	.	16e-/	.	.	.	.	.	.	.
.	.	.	.	.	16E-/JJ)	.	.	.	.	.	16B-/JJ)	.	.	.	.	.	.	.
=55	=55	=55	=55	=55	=55	=55	=55	=55	=55	=55	=55	=55	=55	=55	=55	=55	=55	=55
2r	.	(16ff/LL	(8b-'\L	p	8A-/	(8A-'\L	p	2c/_	2c\_	.	(16dn/LL	.	2B-/_	.	2F/	.	2E-\_	.
.	.	16een/	.	.	.	.	.	.	.	.	16B-/	.	.	.	.	.	.	.
.	.	16ff/	8b-'\	.	8r	8A-'\	.	.	.	.	16d/	.	.	.	.	.	.	.
.	.	16gg/JJ	.	.	.	.	.	.	.	.	16B-/JJ	.	.	.	.	.	.	.
.	.	16ff/LL	8b-'\	.	4r	8A-'\	.	.	.	.	16d/LL	.	.	.	.	.	.	.
.	.	16ee/	.	.	.	.	.	.	.	.	16B-/	.	.	.	.	.	.	.
.	.	16dd/	8b-'\J)	.	.	8A-'\J)	.	.	.	.	16d/	.	.	.	.	.	.	.
.	.	16cc/JJ)	.	.	.	.	.	.	.	.	16B-/JJ)	.	.	.	.	.	.	.
=56	=56	=56	=56	=56	=56	=56	=56	=56	=56	=56	=56	=56	=56	=56	=56	=56	=56	=56
2r	.	(8ff'/L	(16b-\LL	.	(8e-'/L	(16A-\LL	.	2c/_	2c\_	.	(16e-/LL	.	2B-/_	.	2E-/	.	2E-\_	.
.	.	.	16a\	.	.	16G\	.	.	.	.	16B-/	.	.	.	.	.	.	.
.	.	8ff'/	16b-\	.	8e-'/	16A-\	.	.	.	.	16e-/	.	.	.	.	.	.	.
.	.	.	16cc\JJ	.	.	16B-\JJ	.	.	.	.	16B-/JJ	.	.	.	.	.	.	.
.	.	8ff'/	16b-\LL	.	8e-'/	16A-\LL	.	.	.	.	16e-/LL	.	.	.	.	.	.	.
.	.	.	16a\	.	.	16G\	.	.	.	.	16B-/	.	.	.	.	.	.	.
.	.	8ff'/J)	16g\	.	8e-'/J)	16F\	.	.	.	.	16e-/	.	.	.	.	.	.	.
.	.	.	16f\JJ)	.	.	16E-\JJ)	.	.	.	.	16B-/JJ)	.	.	.	.	.	.	.
=57	=57	=57	=57	=57	=57	=57	=57	=57	=57	=57	=57	=57	=57	=57	=57	=57	=57	=57
(8aa-'\L	p	(16ff/LL	8g\L	.	(16e-/LL	(8A-'\L	.	2c/]	2c\]	.	(16dn/LL	.	2B-/]	.	2F/)	.	2E-\]	.
.	.	16een/	.	.	16dn/	.	.	.	.	.	16B-/	.	.	.	.	.	.	.
8aa-'\	.	16ff/	8g\	.	16e-/	8A-'\	.	.	.	.	16d/	.	.	.	.	.	.	.
.	.	16gg/JJ	.	.	16f/JJ	.	.	.	.	.	16B-/JJ	.	.	.	.	.	.	.
8aa-'\	.	16ff/LL	8g\	.	16e-/LL	8A-'\	.	.	.	.	16d/LL	.	.	.	.	.	.	.
.	.	16ee/	.	.	16d/	.	.	.	.	.	16B-/	.	.	.	.	.	.	.
8aa-'\J)	.	16dd/	8g\J	.	16c/	8A-'\J)	.	.	.	.	16d/	.	.	.	.	.	.	.
.	.	16cc/JJ)	.	.	16B-/JJ)	.	.	.	.	.	16B-/JJ)	.	.	.	.	.	.	.
=58	=58	=58	=58	=58	=58	=58	=58	=58	=58	=58	=58	=58	=58	=58	=58	=58	=58	=58
2r	.	2r	2r	.	2r	2r	.	4cc/	4c/	f	(8.gg\L	f	(8.b-/L	f	(8.g\L 8.B-\	f	16EE-/LL	f
.	.	.	.	.	.	.	.	.	.	.	.	.	.	.	.	.	16E-/	.
.	.	.	.	.	.	.	.	.	.	.	.	.	.	.	.	.	16E-/	.
.	.	.	.	.	.	.	.	.	.	.	16ee-\k)	.	16g/k)	.	16e-\ 16G\k)	.	16E-/JJ	.
.	.	.	.	.	.	.	.	4cc/	4c/	.	(8.aa-\	.	(8.cc/	.	(8.a-\ 8.c\	.	16AA-\LL	.
.	.	.	.	.	.	.	.	.	.	.	.	.	.	.	.	.	16A-\	.
.	.	.	.	.	.	.	.	.	.	.	.	.	.	.	.	.	16A-\	.
.	.	.	.	.	.	.	.	.	.	.	16ff\Jk)	.	16a-/Jk)	.	16f\ 16A-\Jk)	.	16A-\JJ	.
=59	=59	=59	=59	=59	=59	=59	=59	=59	=59	=59	=59	=59	=59	=59	=59	=59	=59	=59
2r	.	2r	2r	.	2r	2r	.	8g/L	8G/L	.	(16ff\LL	.	(16a-/LL	.	(16f/ 16A-/LL	.	16BB-\LL	.
.	.	.	.	.	.	.	.	.	.	.	16ee-\J)	.	16g/J)	.	16e-/ 16G/J)	.	16B-\	.
.	.	.	.	.	.	.	.	8g/	8G/	.	8.ee-\J	.	8.g/J	.	8.e-/ 8.G\J	.	16B-\	.
.	.	.	.	.	.	.	.	.	.	.	.	.	.	.	.	.	16B-\JJ	.
.	.	.	.	.	.	.	.	8g/	8G/	.	.	.	.	.	.	.	16B-\LL	.
.	.	.	.	.	.	.	.	.	.	.	(32ddn\LLL	.	(32f/LLL	.	(32d/ 32Fn/LLL	.	16B-\	.
.	.	.	.	.	.	.	.	.	.	.	32ee-\J)	.	32g/J)	.	32e-/ 32G/J)	.	.	.
.	.	.	.	.	.	.	.	8g/J	8G/J	.	16ff\	.	16a-/	.	16f/ 16A-/	.	16BB-\	.
.	.	.	.	.	.	.	.	.	.	.	16dd\JJ	.	16f/JJ	.	16d/ 16F/JJ	.	16BB-\JJ	.
=60	=60	=60	=60	=60	=60	=60	=60	=60	=60	=60	=60	=60	=60	=60	=60	=60	=60	=60
2r	.	2r	2r	.	(8e-'/L	2r	p	[2cc/	[2c/	p	8ee-\	p	8g/	p	8e-/ 8G/	p	[2E-\	p
.	.	.	.	.	8e-'/	.	.	.	.	.	8r	.	8r	.	8r	.	.	.
.	.	.	.	.	8e-'/	.	.	.	.	.	4r	.	4r	.	4r	.	.	.
.	.	.	.	.	8e-'/J)	.	.	.	.	.	.	.	.	.	.	.	.	.
=61	=61	=61	=61	=61	=61	=61	=61	=61	=61	=61	=61	=61	=61	=61	=61	=61	=61	=61
2r	.	2r	(8b-'\L	p	(16e-/LL	2r	.	2cc/_	2c/_	.	2r	.	2r	.	2r	.	2E-\_	.
.	.	.	.	.	16dn/	.	.	.	.	.	.	.	.	.	.	.	.	.
.	.	.	8b-'\	.	16e-/	.	.	.	.	.	.	.	.	.	.	.	.	.
.	.	.	.	.	16f/JJ	.	.	.	.	.	.	.	.	.	.	.	.	.
.	.	.	8b-'\	.	16e-/LL	.	.	.	.	.	.	.	.	.	.	.	.	.
.	.	.	.	.	16d/	.	.	.	.	.	.	.	.	.	.	.	.	.
.	.	.	8b-'\J)	.	16c/	.	.	.	.	.	.	.	.	.	.	.	.	.
.	.	.	.	.	16B-/JJ)	.	.	.	.	.	.	.	.	.	.	.	.	.
=62	=62	=62	=62	=62	=62	=62	=62	=62	=62	=62	=62	=62	=62	=62	=62	=62	=62	=62
2r	.	(8ff'/L	(16b-\LL	p	(8.B-/L	2r	.	2cc/_	2c/_	.	2r	.	2r	.	2r	.	2E-\_	.
.	.	.	16a\	.	.	.	.	.	.	.	.	.	.	.	.	.	.	.
.	.	8ff'/	16b-\	.	.	.	.	.	.	.	.	.	.	.	.	.	.	.
.	.	.	16cc\JJ	.	32c/LL	.	.	.	.	.	.	.	.	.	.	.	.	.
.	.	.	.	.	32dn/JJJ	.	.	.	.	.	.	.	.	.	.	.	.	.
.	.	8ff'/	16b-\LL	.	8e-/)	.	.	.	.	.	.	.	.	.	.	.	.	.
.	.	.	16a\	.	.	.	.	.	.	.	.	.	.	.	.	.	.	.
.	.	8ff'/J)	16g\	.	8r	.	.	.	.	.	.	.	.	.	.	.	.	.
.	.	.	16f\JJ)	.	.	.	.	.	.	.	.	.	.	.	.	.	.	.
=63	=63	=63	=63	=63	=63	=63	=63	=63	=63	=63	=63	=63	=63	=63	=63	=63	=63	=63
(8aa-'\L	p	(16ff/LL	(8.g\L	.	2r	2r	.	2cc/_	2c/_	.	2r	.	2r	.	2r	.	2E-\_	.
.	.	16een/	.	.	.	.	.	.	.	.	.	.	.	.	.	.	.	.
8aa-'\	.	16ff/	.	.	.	.	.	.	.	.	.	.	.	.	.	.	.	.
.	.	16gg/JJ	32a\LL	.	.	.	.	.	.	.	.	.	.	.	.	.	.	.
.	.	.	32b-\JJJ	.	.	.	.	.	.	.	.	.	.	.	.	.	.	.
8aa-'\	.	16ff/LL	8cc\)	.	.	.	.	.	.	.	.	.	.	.	.	.	.	.
.	.	16ee/	.	.	.	.	.	.	.	.	.	.	.	.	.	.	.	.
8aa-'\J)	.	16dd/	8r	.	.	.	.	.	.	.	.	.	.	.	.	.	.	.
.	.	16cc/JJ)	.	.	.	.	.	.	.	.	.	.	.	.	.	.	.	.
=64	=64	=64	=64	=64	=64	=64	=64	=64	=64	=64	=64	=64	=64	=64	=64	=64	=64	=64
(16aa-\LL	.	(8.cc/L	2r	.	(8e-'/L	2r	.	2cc/]	2e-/]	.	2r	.	2r	.	2r	.	2E-\]	.
16gg\	.	.	.	.	.	.	.	.	.	.	.	.	.	.	.	.	.	.
16aa-\	.	.	.	.	8e-'/	.	.	.	.	.	.	.	.	.	.	.	.	.
16bb-\JJ	.	32dd/LL	.	.	.	.	.	.	.	.	.	.	.	.	.	.	.	.
.	.	32een/JJJ	.	.	.	.	.	.	.	.	.	.	.	.	.	.	.	.
16aa-\LL	.	8ff/)	.	.	8e-'/	.	.	.	.	.	.	.	.	.	.	.	.	.
16gg\	.	.	.	.	.	.	.	.	.	.	.	.	.	.	.	.	.	.
16ff\	.	8r	.	.	8e-'/J)	.	.	.	.	.	.	.	.	.	.	.	.	.
16ee-\JJ)	.	.	.	.	.	.	.	.	.	.	.	.	.	.	.	.	.	.
=65	=65	=65	=65	=65	=65	=65	=65	=65	=65	=65	=65	=65	=65	=65	=65	=65	=65	=65
8ff'\L	.	8dd'/L	8bn\	.	(16e-/LL	2r	.	[2E-/	[2EE-/	.	8f/	p	8c/	p	8An/	p	8E-\	p
.	.	.	.	.	16dn/	.	.	.	.	.	.	.	.	.	.	.	.	.
(8ccc\	.	(8bbn/	8r	.	16e-/	.	.	.	.	.	8r	.	8r	.	8r	.	8r	.
.	.	.	.	.	16f/JJ	.	.	.	.	.	.	.	.	.	.	.	.	.
8ddd-\)	.	8ccc/)	8r	.	16e-/LL	.	.	.	.	.	8ff\	.	8dd-\	.	8b-\	.	8E-\	.
.	.	.	.	.	16d-/	.	.	.	.	.	.	.	.	.	.	.	.	.
8ff'\J	.	8ee-'/J	8cc\	.	16c/	.	.	.	.	.	8r	.	8r	.	8r	.	8r	.
.	.	.	.	.	16B-/JJ)	.	.	.	.	.	.	.	.	.	.	.	.	.
=66	=66	=66	=66	=66	=66	=66	=66	=66	=66	=66	=66	=66	=66	=66	=66	=66	=66	=66
8ee-'\L	.	8cc'/L	8a\	.	(16d-/LL	2r	.	2E-/_	2EE-/_	.	8e-/	.	8B-/	.	8G/	.	8E-\	.
.	.	.	.	.	16c/	.	.	.	.	.	.	.	.	.	.	.	.	.
(8bb-\	.	(8aa/	8r	.	16d-/	.	.	.	.	.	8r	.	8r	.	8r	.	8r	.
.	.	.	.	.	16e-/JJ	.	.	.	.	.	.	.	.	.	.	.	.	.
8ccc\)	.	8bb-/)	8r	.	16d-/LL	.	.	.	.	.	8ee-\	.	8cc\	.	8a-\	.	8E-\	.
.	.	.	.	.	16c/	.	.	.	.	.	.	.	.	.	.	.	.	.
8ee-'\J	.	8dd'/J	8b-\	.	16B-/	.	.	.	.	.	8r	.	8r	.	8r	.	8r	.
.	.	.	.	.	16A-/JJ)	.	.	.	.	.	.	.	.	.	.	.	.	.
=67	=67	=67	=67	=67	=67	=67	=67	=67	=67	=67	=67	=67	=67	=67	=67	=67	=67	=67
8dd-'\L	.	8b-'/L	8g\	.	(16c/LL	2r	.	2E-/]	2EEE-/]	.	8d-/	.	8A-/	.	8F/	.	8E-\	.
.	.	.	.	.	16B-/	.	.	.	.	.	.	.	.	.	.	.	.	.
(8aa-\	.	(8gg/	8r	.	16c/	.	.	.	.	.	8r	.	8r	.	8r	.	8r	.
.	.	.	.	.	16d-/JJ	.	.	.	.	.	.	.	.	.	.	.	.	.
8bb-\)	.	8aa/)	8r	.	16c/LL	.	.	.	.	.	8dd-\	.	8b-\	.	8g\	.	8E-\	.
.	.	.	.	.	16B-/	.	.	.	.	.	.	.	.	.	.	.	.	.
8dd-'\J	.	8cc'/J	8f\	.	16A-/	.	.	.	.	.	8r	.	8r	.	8r	.	8r	.
.	.	.	.	.	16G/JJ)	.	.	.	.	.	.	.	.	.	.	.	.	.
=68	=68	=68	=68	=68	=68	=68	=68	=68	=68	=68	=68	=68	=68	=68	=68	=68	=68	=68
8cc\	.	8b-/	8f/	.	8A-/	2r	.	2r	2r	.	(4e-/	.	(4c/	.	[2A-/	.	(4AA-/	.
8r	.	8r	8r	.	8r	.	.	.	.	.	.	.	.	.	.	.	.	.
4r	.	4r	4r	.	4r	.	.	.	.	.	16.f/LL	.	16.d-/LL	.	.	.	4D-/	.
.	.	.	.	.	.	.	.	.	.	.	32g/k	.	32e-/k	.	.	.	.	.
.	.	.	.	.	.	.	.	.	.	.	16.a-/	.	16.f/	.	.	.	.	.
.	.	.	.	.	.	.	.	.	.	.	32f/JJk	.	32d-/JJk	.	.	.	.	.
=69	=69	=69	=69	=69	=69	=69	=69	=69	=69	=69	=69	=69	=69	=69	=69	=69	=69	=69
2r	.	2r	2r	.	2r	2r	.	2r	2r	.	8e-/)	.	8c/)	.	8A-/]	.	8AA-/)	.
.	.	.	.	.	.	.	.	.	.	.	8r	.	8r	.	8r	.	8r	.
.	.	.	.	.	.	.	.	.	.	.	(16.a-/LL	.	4r	.	4r	.	4r	.
.	.	.	.	.	.	.	.	.	.	.	32g/k	.	.	.	.	.	.	.
.	.	.	.	.	.	.	.	.	.	.	16.b-/	.	.	.	.	.	.	.
.	.	.	.	.	.	.	.	.	.	.	32a-/JJk	.	.	.	.	.	.	.
=70	=70	=70	=70	=70	=70	=70	=70	=70	=70	=70	=70	=70	=70	=70	=70	=70	=70	=70
*	*	*	*	*	*	*	*	*	*	*	*	*	*	*	*	*	*^	*
2r	.	2r	2r	.	2r	2r	.	2r	2r	.	16.cc\LL	.	4r	.	4r	.	4r	2r	.
.	.	.	.	.	.	.	.	.	.	.	32b-\k	.	.	.	.	.	.	.	.
.	.	.	.	.	.	.	.	.	.	.	16.dd-\	.	.	.	.	.	.	.	.
.	.	.	.	.	.	.	.	.	.	.	32cc\JJk	.	.	.	.	.	.	.	.
!	!	!	!	!	!	!	!	!	!	!	!	!	!	!	!	!	! Cello	!	!
.	.	.	.	.	.	.	.	.	.	.	8ee-'\L)	.	8b-'\L	.	8g'\L	.	8e-'/L	.	.
.	.	.	.	.	.	.	.	.	.	.	8ee-'\J	.	8cc'\J	.	8a-'\J	.	8e-'/J	.	.
=71	=71	=71	=71	=71	=71	=71	=71	=71	=71	=71	=71	=71	=71	=71	=71	=71	=71	=71	=71
2r	.	2r	2r	.	2r	2r	.	2r	2r	.	(4ee-\	.	4b-\	.	4g\	.	4e-/	2r	.
.	.	.	.	.	.	.	.	.	.	.	8e-/)	.	4r	.	4r	.	4r	.	.
.	.	.	.	.	.	.	.	.	.	.	8r	.	.	.	.	.	.	.	.
=72	=72	=72	=72	=72	=72	=72	=72	=72	=72	=72	=72	=72	=72	=72	=72	=72	=72	=72	=72
*	*	*	*	*	*	*	*	*	*	*	*	*	*	*	*	*	*v	*v	*
!	!	!	!	!	!	!	!	!	!	!	!	!	!	!	!	!	! Bassi	!
!	!	!	!	!	!	!	!	!	!	!	!	!	!	!	!	!	!	!
(4ee-\	.	(4dd/	4f/	.	(4c/	2r	.	2r	2r	.	8r	.	8r	.	[2A-/	.	(4AA-/	.
.	.	.	.	.	.	.	.	.	.	.	(8aa-'\L	.	(8a-'/L	.	.	.	.	.
16.ff\LL	.	16.ee-\LL	16.g\LL	.	16.d-/LL	.	.	.	.	.	8aa-'\	.	8a-'/	.	.	.	4D-/	.
32gg\k	.	32ff\k	32a\k	.	32e-/k	.	.	.	.	.	.	.	.	.	.	.	.	.
16.aa-\	.	16.gg\	16.b-\	.	16.f/	.	.	.	.	.	8aa-'\J)	.	8a-'/J)	.	.	.	.	.
32ff\JJk	.	32ee-\JJk	32g\JJk	.	32d-/JJk	.	.	.	.	.	.	.	.	.	.	.	.	.
=73	=73	=73	=73	=73	=73	=73	=73	=73	=73	=73	=73	=73	=73	=73	=73	=73	=73	=73
8ee-\)	.	8dd/)	8f/	.	8c/)	2r	.	2r	2r	.	(8.aa-\L	.	(8.a-/L	.	8A-/]	.	8AA-/)	.
8r	.	8r	8ryy	.	8r	.	.	.	.	.	.	.	.	.	8r	.	8r	.
.	.	.	.	.	.	.	.	.	.	.	32gg\LL	.	32g/LL	.	.	.	.	.
.	.	.	.	.	.	.	.	.	.	.	32ff\JJJ	.	32f/JJJ	.	.	.	.	.
4r	.	(16.b-/LL	4r	.	(16.A-/LL	.	.	.	.	.	8ee-\L)	.	8e-/L)	.	4r	.	4r	.
.	.	32a/k	.	.	32G/k	.	.	.	.	.	.	.	.	.	.	.	.	.
.	.	16.cc/	.	.	16.B-/	.	.	.	.	.	8ee-'\J	.	8e-'/J	.	.	.	.	.
.	.	32b-/JJk	.	.	32A-/JJk	.	.	.	.	.	.	.	.	.	.	.	.	.
=74	=74	=74	=74	=74	=74	=74	=74	=74	=74	=74	=74	=74	=74	=74	=74	=74	=74	=74
*	*	*	*	*	*	*	*	*	*	*	*	*	*	*	*	*	*^	*
4r	.	16.dd/LL	2r	.	16.c/LL	2r	.	4r	4ryy	.	(8.ee-\L	.	(8.e-/L	.	4r	.	4r	2r	.
.	.	32cc/k	.	.	32B-/k	.	.	.	.	.	.	.	.	.	.	.	.	.	.
.	.	16.een/	.	.	16.dn/	.	.	.	.	.	.	.	.	.	.	.	.	.	.
.	.	.	.	.	.	.	.	.	.	.	64ddn\LLL	.	64dn/LLL	.	.	.	.	.	.
.	.	.	.	.	.	.	.	.	.	.	64cc\	.	64c/	.	.	.	.	.	.
.	.	32dd/JJk	.	.	32c/JJk	.	.	.	.	.	64b-\	.	64B-/	.	.	.	.	.	.
.	.	.	.	.	.	.	.	.	.	.	64a-\JJJJ	.	64A-/JJJJ	.	.	.	.	.	.
!	!	!	!	!	!	!	!	!	!	!	!	!	!	!	!	!	! Cello	!	!
8r	.	8ff'/L)	.	.	8e-'/L)	.	.	8B-'/Lxx	8B-'\Lxx	.	16.g/LL	.	16.G/LL	.	(16.E-/LL	.	8BB-'/L	.	.
.	.	.	.	.	.	.	.	.	.	.	32b-/k)	.	32B-/k)	.	32G/k	.	.	.	.
8bb-\	.	8cc'/J	.	.	8B-'/J	.	.	8B-'/Jxx	8B-'\Jxx	.	(16.a-/	.	(16.A-/	.	16.F/	.	8BB-'/J	.	.
.	.	.	.	.	.	.	.	.	.	.	32f/JJk)	.	32d/JJk)	.	32A-/JJk)	.	.	.	.
=75	=75	=75	=75	=75	=75	=75	=75	=75	=75	=75	=75	=75	=75	=75	=75	=75	=75	=75	=75
(4bb-\	.	(4cc/	2r	.	(4B-/	2r	.	4E-/	4E-\	.	(4f/	.	(4dn/	.	(4A-/	.	4EE-/	2r	.
8ee-\)	.	8f/)	.	.	8E-/)	.	.	4r	4ryy	.	8e-/)	.	8e-/)	.	8G/)	.	4r	.	.
8r	.	8r	.	.	8r	.	.	.	.	.	8r	.	8r	.	8r	.	.	.	.
=76	=76	=76	=76	=76	=76	=76	=76	=76	=76	=76	=76	=76	=76	=76	=76	=76	=76	=76	=76
*	*	*	*	*	*	*	*	*	*	*	*	*	*	*	*	*	*v	*v	*
!	!	!	!	!	!	!	!	!	!	!	!	!	!	!	!	!	! Bassi	!
!	!	!	!	!	!	!	!	!	!	!	!	!	!	!	!	!	!	!
2r	.	2r	2r	.	2r	2r	.	[2e-/	[2E-/	.	2r	.	(4G/	.	16e-\LL	.	(4E-\	.
.	.	.	.	.	.	.	.	.	.	.	.	.	.	.	16e-\	.	.	.
.	.	.	.	.	.	.	.	.	.	.	.	.	.	.	16e-\	.	.	.
.	.	.	.	.	.	.	.	.	.	.	.	.	.	.	16e-\JJ	.	.	.
.	.	.	.	.	.	.	.	.	.	.	.	.	16.A-/LL	.	16e-\LL	.	16.F\LL	.
.	.	.	.	.	.	.	.	.	.	.	.	.	.	.	16e-\	.	.	.
.	.	.	.	.	.	.	.	.	.	.	.	.	32B-/k	.	.	.	32G\k	.
.	.	.	.	.	.	.	.	.	.	.	.	.	16.c/	.	16e-\	.	16.A-\	.
.	.	.	.	.	.	.	.	.	.	.	.	.	.	.	16e-\JJ	.	.	.
.	.	.	.	.	.	.	.	.	.	.	.	.	32A-/JJk	.	.	.	32F\JJk	.
=77	=77	=77	=77	=77	=77	=77	=77	=77	=77	=77	=77	=77	=77	=77	=77	=77	=77	=77
16bb-'\LL	.	16cc/LL	16a'/LL	.	16B-'\LL	16G\LL	.	2e-/_	2E-/_	.	(16.ee-\LL	.	8G/)	.	16e-\LL	.	8E-\)	.
16aa-'\	.	16b-/	16g'/	.	16A-'\	16F\	.	.	.	.	.	.	.	.	16e-\	.	.	.
.	.	.	.	.	.	.	.	.	.	.	32ddn\k	.	.	.	.	.	.	.
16gg'\	.	16a/	16f'/	.	16G'\	16E-\	.	.	.	.	16.gg\	.	8r	.	16e-\	.	8r	.
16ff'\JJ	.	16g/JJ	16e-'/JJ	.	16F'\JJ	16D-\JJ	.	.	.	.	.	.	.	.	16e-\JJ	.	.	.
.	.	.	.	.	.	.	.	.	.	.	32ff\JJk	.	.	.	.	.	.	.
16ee-'\LL	.	16f/LL	16d'/LL	.	16E-/LL	16C'/LL	.	.	.	.	16.aa-\LL	.	4r	.	16e-\LL	.	4r	.
16dd-'\	.	16e-/	16c'/	.	16D-/	16BB-'/	.	.	.	.	.	.	.	.	16e-\	.	.	.
.	.	.	.	.	.	.	.	.	.	.	32gg\Jk	.	.	.	.	.	.	.
16cc'\	.	16d/	16B-'/	.	16C/	16AA-'/	.	.	.	.	8bb-\J)	.	.	.	16e-\	.	.	.
16b-'\JJ	.	16c/JJ	16A'/JJ	.	16BB-/JJ	16GG'/JJ	.	.	.	.	.	.	.	.	16e-\JJ	.	.	.
=78	=78	=78	=78	=78	=78	=78	=78	=78	=78	=78	=78	=78	=78	=78	=78	=78	=78	=78
8a-/	.	8B-/	8G/	.	8AA-/	8FF/	.	2e-/_	2E-/_	.	2r	.	(4A-/	.	16e-\LL	.	(4F\	.
.	.	.	.	.	.	.	.	.	.	.	.	.	.	.	16e-\	.	.	.
8r	.	8r	8r	.	8r	8r	.	.	.	.	.	.	.	.	16e-\	.	.	.
.	.	.	.	.	.	.	.	.	.	.	.	.	.	.	16e-\	.	.	.
4r	.	4r	4r	.	4r	4r	.	.	.	.	.	.	16.B-/LL	.	16e-\	.	16.G\LL	.
.	.	.	.	.	.	.	.	.	.	.	.	.	.	.	16e-\	.	.	.
.	.	.	.	.	.	.	.	.	.	.	.	.	32c/k	.	.	.	32A-\k	.
.	.	.	.	.	.	.	.	.	.	.	.	.	16.d-/	.	16e-\	.	16.B-\	.
.	.	.	.	.	.	.	.	.	.	.	.	.	.	.	16e-\JJ	.	.	.
.	.	.	.	.	.	.	.	.	.	.	.	.	32B-/JJk	.	.	.	32G\JJk	.
=79	=79	=79	=79	=79	=79	=79	=79	=79	=79	=79	=79	=79	=79	=79	=79	=79	=79	=79
16ccc'\LL	.	16dd/LL	16b-'/LL	.	16c'\LL	16A-\LL	.	2e-/_	2E-/_	.	(16.ee-\LL	.	8A-/)	.	16e-\LL	.	8F\)	.
16bb-'\	.	16cc/	16a'/	.	16B-'\	16G\	.	.	.	.	.	.	.	.	16e-\	.	.	.
.	.	.	.	.	.	.	.	.	.	.	32ddn\k	.	.	.	.	.	.	.
16aa-'\	.	16b-/	16g'/	.	16A-'\	16F\	.	.	.	.	16.aa-\	.	8r	.	16e-\	.	8r	.
16gg'\JJ	.	16a/JJ	16f'/JJ	.	16G'\JJ	16E-\JJ	.	.	.	.	.	.	.	.	16e-\JJ	.	.	.
.	.	.	.	.	.	.	.	.	.	.	32gg\JJk	.	.	.	.	.	.	.
16ff'\LL	.	16g/LL	16e-'/LL	.	16F'\LL	16D-\LL	.	.	.	.	16.bb-\LL	.	4r	.	16e-\LL	.	4r	.
16ee-'\	.	16f/	16d'/	.	16E-'\	16C\	.	.	.	.	.	.	.	.	16e-\	.	.	.
.	.	.	.	.	.	.	.	.	.	.	32aa-\Jk	.	.	.	.	.	.	.
16dd-'\	.	16e-/	16c'/	.	16D-'\	16BB-\	.	.	.	.	8ccc\J)	.	.	.	16e-\	.	.	.
16cc'\JJ	.	16d/JJ	16B-'/JJ	.	16C'\JJ	16AA-\JJ	.	.	.	.	.	.	.	.	16e-\JJ	.	.	.
=80	=80	=80	=80	=80	=80	=80	=80	=80	=80	=80	=80	=80	=80	=80	=80	=80	=80	=80
8b-\	.	8c/	8A/	.	8BB-/	8GG/	.	2e-/_	2E-/_	.	2r	.	(4B-/	.	16e-\LL	.	(4G\	.
.	.	.	.	.	.	.	.	.	.	.	.	.	.	.	16e-\	.	.	.
8r	.	8r	8r	.	8r	8r	.	.	.	.	.	.	.	.	16e-\	.	.	.
.	.	.	.	.	.	.	.	.	.	.	.	.	.	.	16e-\	.	.	.
4r	.	4r	4r	.	4r	4r	.	.	.	.	.	.	16.c/LL	.	16e-\	.	16.A-\LL	.
.	.	.	.	.	.	.	.	.	.	.	.	.	.	.	16e-\	.	.	.
.	.	.	.	.	.	.	.	.	.	.	.	.	32d-/k	.	.	.	32B-\k	.
.	.	.	.	.	.	.	.	.	.	.	.	.	16.e-/	.	16e-\	.	16.c\	.
.	.	.	.	.	.	.	.	.	.	.	.	.	.	.	16e-\JJ	.	.	.
.	.	.	.	.	.	.	.	.	.	.	.	.	32c/JJk	.	.	.	32A-\JJk	.
=81	=81	=81	=81	=81	=81	=81	=81	=81	=81	=81	=81	=81	=81	=81	=81	=81	=81	=81
16ddd-'\LL	.	16ee-'\LL	16cc\LL	.	16d-'\LL	16B-\LL	.	2e-/_	2E-/_	.	(16.ee-\LL	.	8B-/)	.	8e-\	.	8G\)	.
16ccc'\	.	16dd'\	16b-\	.	16c'\	16A-\	.	.	.	.	.	.	.	.	.	.	.	.
.	.	.	.	.	.	.	.	.	.	.	32ddn\k	.	.	.	.	.	.	.
16bb-'\	.	16cc'\	16a\	.	16B-'\	16G\	.	.	.	.	16.bb-\	.	8r	.	8r	.	8r	.
16aa-'\JJ	.	16b-'\JJ	16g\JJ	.	16A-'\JJ	16F\JJ	.	.	.	.	.	.	.	.	.	.	.	.
.	.	.	.	.	.	.	.	.	.	.	32aa-\JJk	.	.	.	.	.	.	.
16gg'\LL	.	16a/LL	16f'/LL	.	16G'\LL	16E-\LL	.	.	.	.	16.ccc\LL	.	4r	.	4r	.	4r	.
16ff'\	.	16g/	16e-'/	.	16F'\	16D-\	.	.	.	.	.	.	.	.	.	.	.	.
.	.	.	.	.	.	.	.	.	.	.	32bb-\k	.	.	.	.	.	.	.
16ee-'\	.	16f/	16d'/	.	16E-'\	16C\	.	.	.	.	16ddd-\)	.	.	.	.	.	.	.
16dd-'\JJ	.	16e-/JJ	16c'/JJ	.	16D-'\JJ	16BB-\JJ	.	.	.	.	32r	.	.	.	.	.	.	.
.	.	.	.	.	.	.	.	.	.	.	(32bb-\JJk	.	.	.	.	.	.	.
=82	=82	=82	=82	=82	=82	=82	=82	=82	=82	=82	=82	=82	=82	=82	=82	=82	=82	=82
*	*	*	*	*	*	*	*	*	*	*	*	*	*	*	*	*	*^	*
!	!	!	!	!	!	!	!	!	!	!	!	!	!	!	!	!	! Cello	!	!
!	!	!	!	!	!	!	!	!	!	!	!	!	!	!	!	!	!	!	!
8cc\	.	8d/	8B-/	.	8C/	8AA-/	.	8e-/]	8E-/]	.	16ccc\LL)	.	8c'/	.	8e-'\	.	8A-'/	2r	.
.	.	.	.	.	.	.	.	.	.	.	32r	.	.	.	.	.	.	.	.
.	.	.	.	.	.	.	.	.	.	.	(32gg\k	.	.	.	.	.	.	.	.
8r	.	8r	8r	.	8r	8r	.	8r	8r	.	16aa-\)	.	8r	.	8r	.	8r	.	.
.	.	.	.	.	.	.	.	.	.	.	32r	.	.	.	.	.	.	.	.
.	.	.	.	.	.	.	.	.	.	.	(32een\JJk	.	.	.	.	.	.	.	.
4r	.	4r	4r	.	4r	4r	.	4r	4r	.	16ff\LL)	.	8a-'/	.	8dn'\	.	8B-'/	.	.
.	.	.	.	.	.	.	.	.	.	.	32r	.	.	.	.	.	.	.	.
.	.	.	.	.	.	.	.	.	.	.	(32cc#\k	.	.	.	.	.	.	.	.
.	.	.	.	.	.	.	.	.	.	.	16ddn\)	.	8r	.	8r	.	8r	.	.
.	.	.	.	.	.	.	.	.	.	.	32r	.	.	.	.	.	.	.	.
.	.	.	.	.	.	.	.	.	.	.	(32b-\JJk	.	.	.	.	.	.	.	.
=83	=83	=83	=83	=83	=83	=83	=83	=83	=83	=83	=83	=83	=83	=83	=83	=83	=83	=83	=83
2r	.	2r	2r	.	2r	2r	.	2r	2r	.	16ee-\LL)	.	8g'/	.	8e-'\	.	8E-'/	2r	.
.	.	.	.	.	.	.	.	.	.	.	32r	.	.	.	.	.	.	.	.
.	.	.	.	.	.	.	.	.	.	.	(32gg\k	.	.	.	.	.	.	.	.
.	.	.	.	.	.	.	.	.	.	.	16bb-\)	.	8r	.	8r	.	8r	.	.
.	.	.	.	.	.	.	.	.	.	.	32r	.	.	.	.	.	.	.	.
.	.	.	.	.	.	.	.	.	.	.	(32ee-\JJk	.	.	.	.	.	.	.	.
.	.	.	.	.	.	.	.	.	.	.	16gg\LL)	.	8r	.	8r	.	8r	.	.
.	.	.	.	.	.	.	.	.	.	.	32r	.	.	.	.	.	.	.	.
.	.	.	.	.	.	.	.	.	.	.	(32b-\k	.	.	.	.	.	.	.	.
.	.	.	.	.	.	.	.	.	.	.	16aa-\)	.	8f'/	.	8dn'\	.	8B-'/	.	.
.	.	.	.	.	.	.	.	.	.	.	32r	.	.	.	.	.	.	.	.
.	.	.	.	.	.	.	.	.	.	.	(32ff\JJk	.	.	.	.	.	.	.	.
=84	=84	=84	=84	=84	=84	=84	=84	=84	=84	=84	=84	=84	=84	=84	=84	=84	=84	=84	=84
2r	.	2r	2r	.	2r	2r	.	2r	2r	.	16ee-\LL)	.	8g'/	.	8e-'\	.	8e-'/	2r	.
.	.	.	.	.	.	.	.	.	.	.	32r	.	.	.	.	.	.	.	.
.	.	.	.	.	.	.	.	.	.	.	(32gg\k	.	.	.	.	.	.	.	.
.	.	.	.	.	.	.	.	.	.	.	16bb-\)	.	8r	.	8r	.	8r	.	.
.	.	.	.	.	.	.	.	.	.	.	32r	.	.	.	.	.	.	.	.
.	.	.	.	.	.	.	.	.	.	.	(32ee-\JJk	.	.	.	.	.	.	.	.
.	.	.	.	.	.	.	.	.	.	.	16gg\LL)	.	8r	.	8r	.	8r	.	.
.	.	.	.	.	.	.	.	.	.	.	32r	.	.	.	.	.	.	.	.
.	.	.	.	.	.	.	.	.	.	.	(32b-\k	.	.	.	.	.	.	.	.
.	.	.	.	.	.	.	.	.	.	.	16aa-\)	.	8f'/	.	8dn'\	.	8B-'/	.	.
.	.	.	.	.	.	.	.	.	.	.	32r	.	.	.	.	.	.	.	.
.	.	.	.	.	.	.	.	.	.	.	(32ff\JJk	.	.	.	.	.	.	.	.
=85	=85	=85	=85	=85	=85	=85	=85	=85	=85	=85	=85	=85	=85	=85	=85	=85	=85	=85	=85
2r	.	2r	2r	.	2r	2r	.	2r	2r	.	16ee-\LL)	.	16e-'/LL	.	8e-'\	.	8e-'/	2r	.
.	.	.	.	.	.	.	.	.	.	.	32r	.	32r	.	.	.	.	.	.
.	.	.	.	.	.	.	.	.	.	.	(32een\k	.	(32en/K	.	.	.	.	.	.
.	.	.	.	.	.	.	.	.	.	.	16ff\)	.	16f/)	.	8r	.	8r	.	.
.	.	.	.	.	.	.	.	.	.	.	32r	.	32r	.	.	.	.	.	.
.	.	.	.	.	.	.	.	.	.	.	(32ee-\JJk	.	(32e-/JJk	.	.	.	.	.	.
.	.	.	.	.	.	.	.	.	.	.	16dd-\LL)	.	16d-/LL)	.	4r	.	4r	.	.
.	.	.	.	.	.	.	.	.	.	.	32r	.	32r	.	.	.	.	.	.
.	.	.	.	.	.	.	.	.	.	.	(32cc\k	.	(32c/K	.	.	.	.	.	.
.	.	.	.	.	.	.	.	.	.	.	16b-\)	.	16B-/)	.	.	.	.	.	.
.	.	.	.	.	.	.	.	.	.	.	32r	.	32r	.	.	.	.	.	.
.	.	.	.	.	.	.	.	.	.	.	(32a-\JJk	.	(32A-/JJk	.	.	.	.	.	.
=86	=86	=86	=86	=86	=86	=86	=86	=86	=86	=86	=86	=86	=86	=86	=86	=86	=86	=86	=86
*	*	*	*	*	*	*	*	*	*	*	*	*	*	*	*	*	*v	*v	*
2r	.	2r	2r	.	2r	2r	.	2r	2r	.	8g/)	.	8G/)	.	16.r	.	16.r	.
!	!	!	!	!	!	!	!	!	!	!	!	!	!	!	!	!	! Bassi	!
.	.	.	.	.	.	.	.	.	.	.	.	.	.	.	(32f\LLK	.	(32F\LLK	.
.	.	.	.	.	.	.	.	.	.	.	8r	.	8r	.	16.e-\)	.	16.E-\)	.
.	.	.	.	.	.	.	.	.	.	.	.	.	.	.	(32d-\JJk	.	(32D-\JJk	.
.	.	.	.	.	.	.	.	.	.	.	4r	.	4r	.	16.c/LL)	.	16.C/LL)	.
.	.	.	.	.	.	.	.	.	.	.	.	.	.	.	(32B-/k	.	(32BB-/k	.
.	.	.	.	.	.	.	.	.	.	.	.	.	.	.	16.A-/)	.	16.AA-/)	.
.	.	.	.	.	.	.	.	.	.	.	.	.	.	.	(32G/JJk	.	32GG/JJk	.
=87	=87	=87	=87	=87	=87	=87	=87	=87	=87	=87	=87	=87	=87	=87	=87	=87	=87	=87
(4ee-\	.	(4dd/	4f/	.	(4c/	2r	.	2r	2r	.	8r	.	8r	.	[2A-/)	.	(4AA-/	.
.	.	.	.	.	.	.	.	.	.	.	(8aa-'\L	.	(8a-'/L	.	.	.	.	.
16.ff\LL	.	16.ee-\LL	16.g\LL	.	16.d-/LL	.	.	.	.	.	8aa-'\	.	8a-'/	.	.	.	4D-/	.
32gg\k	.	32ff\k	32a\k	.	32e-/k	.	.	.	.	.	.	.	.	.	.	.	.	.
16.aa-\	.	16.gg\	16.b-\	.	16.f/	.	.	.	.	.	8aa-'\J)	.	8a-'/J)	.	.	.	.	.
32ff\JJk	.	32ee-\JJk	32g\JJk	.	32d-/JJk	.	.	.	.	.	.	.	.	.	.	.	.	.
=88	=88	=88	=88	=88	=88	=88	=88	=88	=88	=88	=88	=88	=88	=88	=88	=88	=88	=88
8ee-\)	.	8dd/)	8f/	.	8c/)	2r	.	2r	2r	.	(8.aa-\L	.	(8.a-/L	.	8A-/]	.	8AA-/)	.
8r	.	8r	8ryy	.	8r	.	.	.	.	.	.	.	.	.	8r	.	8r	.
.	.	.	.	.	.	.	.	.	.	.	32gg\LL	.	32g/LL	.	.	.	.	.
.	.	.	.	.	.	.	.	.	.	.	32ff\JJJ	.	32f/JJJ	.	.	.	.	.
(16.aa-\LL	.	(16.b-/LL	4r	.	(16.A-/LL	.	.	.	.	.	8ee-\L)	.	8e-/L)	.	4r	.	4r	.
32gg\k	.	32a/k	.	.	32G/k	.	.	.	.	.	.	.	.	.	.	.	.	.
16.bb-\	.	16.cc/	.	.	16.B-/	.	.	.	.	.	8ee-'\J	.	8e-'/J	.	.	.	.	.
32aa-\JJk	.	32b-/JJk	.	.	32A-/JJk	.	.	.	.	.	.	.	.	.	.	.	.	.
=89	=89	=89	=89	=89	=89	=89	=89	=89	=89	=89	=89	=89	=89	=89	=89	=89	=89	=89
*	*	*	*	*	*	*	*	*	*	*	*	*	*	*	*	*	*^	*
16.ccc\LL	.	16.dd/LL	2r	.	16.c/LL	2r	.	4r	4r	.	(8.ee-\L	.	(8.e-/L	.	4r	.	4r	2r	.
32bb-\k	.	32cc/k	.	.	32B-/k	.	.	.	.	.	.	.	.	.	.	.	.	.	.
16.ddd-\	.	16.ee-/	.	.	16.d-/	.	.	.	.	.	.	.	.	.	.	.	.	.	.
.	.	.	.	.	.	.	.	.	.	.	64dd-\LLL	.	64d-/LLL	.	.	.	.	.	.
.	.	.	.	.	.	.	.	.	.	.	64cc\	.	64c/	.	.	.	.	.	.
32ccc\JJk	.	32dd/JJk	.	.	32c/JJk	.	.	.	.	.	64b-\	.	64B-/	.	.	.	.	.	.
.	.	.	.	.	.	.	.	.	.	.	64a-\JJJJ	.	64A-/JJJJ	.	.	.	.	.	.
!	!	!	!	!	!	!	!	!	!	!	!	!	!	!	!	!	! Cello	!	!
8eee-\L)	.	8ff/L)	.	.	8e-/L)	.	.	8e-/L	8E-'/L	.	8g/L)	.	8G/L)	.	8d-'\L	.	8B-'/L	.	.
8eee-'\J	.	8ff'/J	.	.	8e-'/J	.	.	8e-/J	8E-'/J	.	8a-'/J	.	8A-'/J	.	8c'\J	.	8A-'/J	.	.
=90	=90	=90	=90	=90	=90	=90	=90	=90	=90	=90	=90	=90	=90	=90	=90	=90	=90	=90	=90
(4eee-\	.	(4ff/	2r	.	(4e-/	2r	.	4.e-/	4.E-/	.	(4cc\	.	4c/	.	(4A-/	.	4.E-/	2r	.
8ee-\)	.	8f/)	.	.	8E-/)	.	.	.	.	.	8b-\)	.	(16B-/LL	.	8G/)	.	.	.	.
.	.	.	.	.	.	.	.	.	.	.	.	.	16e-/	.	.	.	.	.	.
8r	.	8r	.	.	8r	.	.	8r	8r	.	8r	.	16d-/	.	8r	.	8r	.	.
.	.	.	.	.	.	.	.	.	.	.	.	.	16B-/JJ)	.	.	.	.	.	.
=91	=91	=91	=91	=91	=91	=91	=91	=91	=91	=91	=91	=91	=91	=91	=91	=91	=91	=91	=91
*	*	*	*	*	*	*	*	*	*	*	*	*	*	*	*	*	*v	*v	*
!	!	!	!	!	!	!	!	!	!	!	!	!	!	!	!	!	! Bassi	!
!	!	!	!	!	!	!	!	!	!	!	!	!	!	!	!	!	!	!
2r	.	2r	2r	.	2r	2r	.	2r	2r	.	(4e-/	.	(4c-/	.	[2A-/	.	(4AA-/	.
.	.	.	.	.	.	.	.	.	.	.	16.f-/LL	.	16.d-/LL	.	.	.	4D-/	.
.	.	.	.	.	.	.	.	.	.	.	32g-/k	.	32e-/k	.	.	.	.	.
.	.	.	.	.	.	.	.	.	.	.	16.a-/	.	16.f-/	.	.	.	.	.
.	.	.	.	.	.	.	.	.	.	.	32f-/JJk	.	32d-/JJk	.	.	.	.	.
=92	=92	=92	=92	=92	=92	=92	=92	=92	=92	=92	=92	=92	=92	=92	=92	=92	=92	=92
(8dd#\L	.	2r	2r	.	(8d#/L	2r	.	2r	2r	.	8e-/)	.	8c-/)	.	8A-/]	.	8AA-/)	.
8een\	.	.	.	.	8en/	.	.	.	.	.	8r	.	8r	.	8r	.	8r	.
8ee#\	.	.	.	.	8e#/	.	.	.	.	.	4r	.	4r	.	4r	.	4r	.
8ff#\J)	.	.	.	.	8f#/J)	.	.	.	.	.	.	.	.	.	.	.	.	.
=93	=93	=93	=93	=93	=93	=93	=93	=93	=93	=93	=93	=93	=93	=93	=93	=93	=93	=93
2ff#\	.	2r	2r	.	[2f#/	2r	.	2r	2r	.	(4d#/	.	(4Bn/	.	[2F#/	.	(4F#\	.
.	.	.	.	.	.	.	.	.	.	.	16.en/LL	.	16.c#/LL	.	.	.	4En\)	.
.	.	.	.	.	.	.	.	.	.	.	32d#/k	.	32B/k	.	.	.	.	.
.	.	.	.	.	.	.	.	.	.	.	16.e/	.	16.c#/	.	.	.	.	.
.	.	.	.	.	.	.	.	.	.	.	32c#/JJk)	.	32A#/JJk)	.	.	.	.	.
=94	=94	=94	=94	=94	=94	=94	=94	=94	=94	=94	=94	=94	=94	=94	=94	=94	=94	=94
(4ddd#\	.	(4aa-/	2r	.	(4f#\]	4Bn\	.	2r	2r	.	8f#'/L	.	8d#'/L	.	8F#/L]	.	8D#'\L	.
.	.	.	.	.	.	.	.	.	.	.	8f#'/	.	8d#'/	.	8Bn'/	.	8D#'\	.
16ccc#\LL	.	16gg-/LL	.	.	4en\	4c#\	.	.	.	.	8g#'/	.	8c#'/	.	8B'/	.	8En'\	.
16ddd#\	.	16aa-/	.	.	.	.	.	.	.	.	.	.	.	.	.	.	.	.
16eeen\	.	16bb-/	.	.	.	.	.	.	.	.	8g#'/J	.	8c#'/J	.	8B'/J	.	8E'\J	.
16ccc#\JJ)	.	16gg-/JJ)	.	.	.	.	.	.	.	.	.	.	.	.	.	.	.	.
=95	=95	=95	=95	=95	=95	=95	=95	=95	=95	=95	=95	=95	=95	=95	=95	=95	=95	=95
8bbn'\L	.	8ff'/L	2r	.	4d#\	4Bn\	.	2r	2r	.	8d#'/L	.	8Bn'/L	.	8F#'/L	.	8F#'/L	.
8bb'\	.	8ff'/	.	.	.	.	.	.	.	.	8d#'/	.	8B'/	.	8F#'/	.	8F#'/	.
8aa#'\	.	8ee-'/	.	.	4c#\)	4A#\	.	.	.	.	8c#'/	.	8A#'/	.	8F#'/	.	8FF#'/	.
8aa#'\J	.	8ee-'/J	.	.	.	.	.	.	.	.	8c#'/J	.	8A#'/J	.	8F#'/J	.	8FF#'/J	.
=96	=96	=96	=96	=96	=96	=96	=96	=96	=96	=96	=96	=96	=96	=96	=96	=96	=96	=96
2fff#\	f	2ddd-\	2een\	ff	2f#\	2dn\	ff	2f#/	2f#\	ff	8bbn\L	f	16bn/LK 16dn/	f	16f#\LK	f	16BBn\LL	f
.	.	.	.	.	.	.	.	.	.	.	.	.	8b/ 8d/	.	8f#\	.	16Bn\	.
.	.	.	.	.	.	.	.	.	.	.	16.ff#\L	.	.	.	.	.	16B\	.
.	.	.	.	.	.	.	.	.	.	.	.	.	8b/ 8d/	.	8f#\	.	16B\JJ	.
.	.	.	.	.	.	.	.	.	.	.	32bb\JJk	.	.	.	.	.	.	.
.	.	.	.	.	.	.	.	.	.	.	8dddn\L	.	.	.	.	.	16B\LL	.
.	.	.	.	.	.	.	.	.	.	.	.	.	8b/ 8d/	.	8f#\	.	16B\	.
.	.	.	.	.	.	.	.	.	.	.	16r	.	.	.	.	.	16B\	.
.	.	.	.	.	.	.	.	.	.	.	(48ddd\LL	.	(16b/ 16d/Jk	.	(16f#\Jk	.	16B\JJ	.
.	.	.	.	.	.	.	.	.	.	.	48ccc#\	.	.	.	.	.	.	.
.	.	.	.	.	.	.	.	.	.	.	48bb\JJJ)	.	.	.	.	.	.	.
=97	=97	=97	=97	=97	=97	=97	=97	=97	=97	=97	=97	=97	=97	=97	=97	=97	=97	=97
2ggg\	.	2ccc\	2ff#\	.	2en\	2c#\	.	2g/	2g\	.	8aa#\L	.	16cc#/ 16en/LK)	.	16g\LK)	.	16BBn\LL	.
.	.	.	.	.	.	.	.	.	.	.	.	.	8cc#/ 8e/	.	8g\	.	16Bn\	.
.	.	.	.	.	.	.	.	.	.	.	16.ccc#\L	.	.	.	.	.	16B\	.
.	.	.	.	.	.	.	.	.	.	.	.	.	8cc#/ 8e/	.	8g\	.	16B\JJ	.
.	.	.	.	.	.	.	.	.	.	.	32aa#\JJk	.	.	.	.	.	.	.
.	.	.	.	.	.	.	.	.	.	.	8eeen\L	.	.	.	.	.	16B\LL	.
.	.	.	.	.	.	.	.	.	.	.	.	.	8cc#/ 8e/	.	8g\	.	16B\	.
.	.	.	.	.	.	.	.	.	.	.	16.r	.	.	.	.	.	16B\	.
.	.	.	.	.	.	.	.	.	.	.	.	.	(16cc#/ 16e/Jk	.	(16g\Jk	.	16B\JJ	.
.	.	.	.	.	.	.	.	.	.	.	32aa#\Jkk	.	.	.	.	.	.	.
=98	=98	=98	=98	=98	=98	=98	=98	=98	=98	=98	=98	=98	=98	=98	=98	=98	=98	=98
2fff#\	.	2ddd-\	[2een\	.	2f#\	2dn\	.	2f#/	2f#\	.	8bbn\L	.	16bn/ 16dn/LK)	.	16f#\LK)	.	16BBn\LL	.
.	.	.	.	.	.	.	.	.	.	.	.	.	8b/ 8d/	.	8f#\	.	16Bn\	.
.	.	.	.	.	.	.	.	.	.	.	16.ff#\L	.	.	.	.	.	16B\	.
.	.	.	.	.	.	.	.	.	.	.	.	.	8b/ 8d/	.	8f#\	.	16B\JJ	.
.	.	.	.	.	.	.	.	.	.	.	32bb\JJk	.	.	.	.	.	.	.
.	.	.	.	.	.	.	.	.	.	.	8dddn\L	.	.	.	.	.	16B\LL	.
.	.	.	.	.	.	.	.	.	.	.	.	.	8b/ 8d/	.	8f#\	.	16B\	.
.	.	.	.	.	.	.	.	.	.	.	16r	.	.	.	.	.	16B\	.
.	.	.	.	.	.	.	.	.	.	.	(64ddd\LLL	.	(16b/ 16d/Jk	.	(16f#\Jk	.	16B\JJ	.
.	.	.	.	.	.	.	.	.	.	.	64cccn\	.	.	.	.	.	.	.
.	.	.	.	.	.	.	.	.	.	.	64bb\	.	.	.	.	.	.	.
.	.	.	.	.	.	.	.	.	.	.	64aan\JJJJ	.	.	.	.	.	.	.
=99	=99	=99	=99	=99	=99	=99	=99	=99	=99	=99	=99	=99	=99	=99	=99	=99	=99	=99
[2fffn\	.	2bb-\	2ee\]	.	2dn\	2G#\	.	2fn/	2fn\	.	8gg#\L)	.	16a-/ 16B/LK)	.	16fn\LK)	.	16BBn\LL	.
.	.	.	.	.	.	.	.	.	.	.	.	.	8a-/ 8B/	.	8f\	.	16Bn\	.
.	.	.	.	.	.	.	.	.	.	.	16.bbn\L	.	.	.	.	.	16B\	.
.	.	.	.	.	.	.	.	.	.	.	.	.	8a-/ 8B/	.	8f\	.	16B\JJ	.
.	.	.	.	.	.	.	.	.	.	.	32dddn\JJk	.	.	.	.	.	.	.
.	.	.	.	.	.	.	.	.	.	.	8fffn\L	.	.	.	.	.	16B\LL	.
.	.	.	.	.	.	.	.	.	.	.	.	.	8a-/ 8B/	.	8f\	.	16B\	.
.	.	.	.	.	.	.	.	.	.	.	16.r	.	.	.	.	.	16B\	.
.	.	.	.	.	.	.	.	.	.	.	.	.	(16a-/ 16B/Jk	.	[16f\Jk	.	16B\JJ	.
.	.	.	.	.	.	.	.	.	.	.	32gg#\Jkk	.	.	.	.	.	.	.
=100	=100	=100	=100	=100	=100	=100	=100	=100	=100	=100	=100	=100	=100	=100	=100	=100	=100	=100
2fff\_	.	2bbn\	[2gg\	.	2cn\	2An\	.	2f/	2f\	.	8aan\L	.	16a/ 16cn/LK)	.	16f\LK]	.	16Cn\LL	.
.	.	.	.	.	.	.	.	.	.	.	.	.	8a/ 8c/	.	8f\	.	16cn\	.
.	.	.	.	.	.	.	.	.	.	.	16.cccn\L	.	.	.	.	.	16c\	.
.	.	.	.	.	.	.	.	.	.	.	.	.	8a/ 8c/	.	8f\	.	16c\JJ	.
.	.	.	.	.	.	.	.	.	.	.	32aa\JJk	.	.	.	.	.	.	.
.	.	.	.	.	.	.	.	.	.	.	8fff\L	.	.	.	.	.	16c\LL	.
.	.	.	.	.	.	.	.	.	.	.	.	.	8a/ 8c/	.	8f\	.	16c\	.
.	.	.	.	.	.	.	.	.	.	.	16.r	.	.	.	.	.	16c\	.
.	.	.	.	.	.	.	.	.	.	.	.	.	(16a/ 16c/Jk	.	(16f\Jk	.	16c\JJ	.
.	.	.	.	.	.	.	.	.	.	.	32ffn\Jkk	.	.	.	.	.	.	.
=101	=101	=101	=101	=101	=101	=101	=101	=101	=101	=101	=101	=101	=101	=101	=101	=101	=101	=101
2fff\]	.	2bb-\	2gg\]	.	2fn\	2A-\	.	2f/	2f\	.	8aa-\L	.	16dd-/ 16f/LK)	.	16a-\LK)	.	16D-\LL	.
.	.	.	.	.	.	.	.	.	.	.	.	.	8dd-/ 8f/	.	8a-\	.	16d-\	.
.	.	.	.	.	.	.	.	.	.	.	16.ddd-\L	.	.	.	.	.	16d-\	.
.	.	.	.	.	.	.	.	.	.	.	.	.	8dd-/ 8f/	.	8a-\	.	16d-\JJ	.
.	.	.	.	.	.	.	.	.	.	.	32aa-\JJk	.	.	.	.	.	.	.
.	.	.	.	.	.	.	.	.	.	.	8fff\L	.	.	.	.	.	16d-\LL	.
.	.	.	.	.	.	.	.	.	.	.	.	.	8dd-/ 8f/	.	8a-\	.	16d-\	.
.	.	.	.	.	.	.	.	.	.	.	16.r	.	.	.	.	.	16d-\	.
.	.	.	.	.	.	.	.	.	.	.	.	.	(16dd-/ 16f/Jk	.	(16a-\Jk	.	16d-\JJ	.
.	.	.	.	.	.	.	.	.	.	.	32aa-\Jkk	.	.	.	.	.	.	.
=102	=102	=102	=102	=102	=102	=102	=102	=102	=102	=102	=102	=102	=102	=102	=102	=102	=102	=102
2fff-\	.	2ccc\	2aan\	.	2f-\	2Gn\	.	2g\	2B-\	.	8ggn\L	.	16ff-\ 16gn\LK)	.	16b-\LK)	.	16D-\LL	.
.	.	.	.	.	.	.	.	.	.	.	.	.	8ff-\ 8g\	.	8b-\	.	16d-\	.
.	.	.	.	.	.	.	.	.	.	.	16.bb-\L	.	.	.	.	.	16d-\	.
.	.	.	.	.	.	.	.	.	.	.	.	.	8ff-\ 8g\	.	8b-\	.	16d-\JJ	.
.	.	.	.	.	.	.	.	.	.	.	32ff-\JJk	.	.	.	.	.	.	.
.	.	.	.	.	.	.	.	.	.	.	8fff-\L	.	.	.	.	.	16d-\LL	.
.	.	.	.	.	.	.	.	.	.	.	.	.	8ff-\ 8g\	.	8b-\	.	16d-\	.
.	.	.	.	.	.	.	.	.	.	.	16.r	.	.	.	.	.	16d-\	.
.	.	.	.	.	.	.	.	.	.	.	.	.	(16ff-\ 16g\Jk	.	(16b-\Jk	.	16d-\JJ	.
.	.	.	.	.	.	.	.	.	.	.	32gg\Jkk	.	.	.	.	.	.	.
=103	=103	=103	=103	=103	=103	=103	=103	=103	=103	=103	=103	=103	=103	=103	=103	=103	=103	=103
4eee-\	.	(4ddd-\	4bb-\	.	4e-\	4A-\	.	2e-/	2E-/	.	8aa-\L	.	16ee-\ 16a-\LK)	.	16cc-\LK)	.	16C-\LL	.
.	.	.	.	.	.	.	.	.	.	.	.	.	8ee-\ 8a-\	.	8cc-\	.	16c-\	.
.	.	.	.	.	.	.	.	.	.	.	16.ccc-\L	.	.	.	.	.	16c-\	.
.	.	.	.	.	.	.	.	.	.	.	.	.	8ee-\ 8a-\	.	8cc-\	.	16c-\JJ	.
.	.	.	.	.	.	.	.	.	.	.	32ee-\JJk	.	.	.	.	.	.	.
!	!	! a 2.	!	!	! a 2.	!	!	!	!	!	!	!	!	!	!	!	!	!
[4eee-\	.	[4ff\)	4ryy	.	[4e-\	4ryy	.	.	.	.	8eee-\	.	.	.	.	.	16c-\LL	.
.	.	.	.	.	.	.	.	.	.	.	.	.	8ee-\ 8a-\	.	8cc-\	.	16c-\	.
.	.	.	.	.	.	.	.	.	.	.	16r	.	.	.	.	.	16c-\	.
.	.	.	.	.	.	.	.	.	.	.	(48ee-\LLL	.	16ee-\ 16a-\Jk	.	16cc-\Jk	.	16c-\JJ	.
.	.	.	.	.	.	.	.	.	.	.	48ffn\	.	.	.	.	.	.	.
.	.	.	.	.	.	.	.	.	.	.	48gg\JJJ	.	.	.	.	.	.	.
=104	=104	=104	=104	=104	=104	=104	=104	=104	=104	=104	=104	=104	=104	=104	=104	=104	=104	=104
*	*	*v	*v	*	*	*	*	*	*	*	*	*	*	*	*	*	*	*
*	*	*	*	*v	*v	*	*	*	*	*	*	*	*	*	*	*	*
(4eee-\]	.	(4ff\]	.	(4e-\]	.	2r	2r	.	8aa-\L)	.	16cc-\ 16a-\LK	.	16f-\LK	.	16FF-/LL	.
.	.	.	.	.	.	.	.	.	.	.	8cc-\ 8a-\	.	8f-\	.	16F-/	.
.	.	.	.	.	.	.	.	.	16.ccc-\L	.	.	.	.	.	16F-/	.
.	.	.	.	.	.	.	.	.	.	.	8cc-\ 8a-\	.	8f-\	.	16F-/JJ	.
.	.	.	.	.	.	.	.	.	32cc-\JJk	.	.	.	.	.	.	.
8fff-\L	.	8gg-\L	.	8f-\L	.	.	.	.	8aa-\	.	.	.	.	.	16F-\LL	.
.	.	.	.	.	.	.	.	.	.	.	8cc-\ 8a-\	.	8f-\	.	16F-\	.
[8eee-\J)	.	[8ff\J)	.	[8e-\J)	.	.	.	.	16r	.	.	.	.	.	16F-\	.
.	.	.	.	.	.	.	.	.	(48gg\LLL	.	[16cc-\ 16a-\Jk	.	(16f-\Jk	.	16F-\JJ	.
.	.	.	.	.	.	.	.	.	48aa-\	.	.	.	.	.	.	.
.	.	.	.	.	.	.	.	.	48bb-\JJJ	.	.	.	.	.	.	.
=105	=105	=105	=105	=105	=105	=105	=105	=105	=105	=105	=105	=105	=105	=105	=105	=105
8eee-\L]	.	8ff\L]	.	8e-\L]	.	2r	2r	.	8ccc-\L)	.	16cc-\ 16a-\LK]	.	16fn\LK)	.	16FFn/LL	.
.	.	.	.	.	.	.	.	.	.	.	8cc-\ 8a-\	.	8f\	.	16Fn/	.
(16ddd-\L	.	(16ee-\L	.	(16d-\L	.	.	.	.	16.aa-\L	.	.	.	.	.	16F/	.
16ccc-\JJ	.	16dd-\JJ	.	16c-\JJ	.	.	.	.	.	.	8cc-\ 8a-\	.	(16f\Jk	.	16F/JJ	.
.	.	.	.	.	.	.	.	.	32cc-\JJk	.	.	.	.	.	.	.
8ddd-\L	.	8ee-\L	.	8d-\L	.	.	.	.	8ccc-\L	.	.	.	16f-\LK)	.	16FF-/LL	.
.	.	.	.	.	.	.	.	.	.	.	8cc-\ 8a-\	.	8f-\	.	16F-/	.
8dddn\J)	.	8een\J)	.	8dn\J)	.	.	.	.	16.r	.	.	.	.	.	16F-/	.
.	.	.	.	.	.	.	.	.	.	.	16a-\Jk	.	16f-\Jk	.	16F-/JJ	.
.	.	.	.	.	.	.	.	.	32aa-\Jkk	.	.	.	.	.	.	.
=106	=106	=106	=106	=106	=106	=106	=106	=106	=106	=106	=106	=106	=106	=106	=106	=106
*	*	*^	*	*^	*	*	*	*	*	*	*	*	*	*	*	*
(4eee-\	.	(4ff\	4ryy	.	(4e-\	4ryy	.	4e-/	4E-/	.	8ggn\L	.	16g\LK	.	16e-\LK	.	16EE-/LL	.
.	.	.	.	.	.	.	.	.	.	.	.	.	8b-\	.	8g\	.	16E-/	.
.	.	.	.	.	.	.	.	.	.	.	16.bb-\L	.	.	.	.	.	16E-/	.
.	.	.	.	.	.	.	.	.	.	.	.	.	(16b-\Jk	.	(16g\Jk	.	16E-/JJ	.
.	.	.	.	.	.	.	.	.	.	.	32eee-\JJk	.	.	.	.	.	.	.
4dddn\)	.	4ggn\)	4een\	.	4c-\)	4A-\	.	4e-/	4E-/	.	8dddn\L	.	16cc-\LK)	.	16a-\LK)	.	16EE-/LL	.
.	.	.	.	.	.	.	.	.	.	.	.	.	8cc-\	.	8a-\	.	16E-/	.
.	.	.	.	.	.	.	.	.	.	.	16.r	.	.	.	.	.	16E-/	.
.	.	.	.	.	.	.	.	.	.	.	.	.	(16cc-\Jk	.	(16a-\Jk	.	16E-/JJ	.
.	.	.	.	.	.	.	.	.	.	.	32ddn\Jkk	.	.	.	.	.	.	.
=107	=107	=107	=107	=107	=107	=107	=107	=107	=107	=107	=107	=107	=107	=107	=107	=107	=107	=107
(4eee-\	.	(4aa\	4ff\	.	(4B-\	4G\	.	4e-/	4E-/	.	16.ee-\LL	.	16b-\LK)	.	16g\LK)	.	16EE-/LL	.
.	.	.	.	.	.	.	.	.	.	.	.	.	8b-\	.	8g\	.	16E-/	.
.	.	.	.	.	.	.	.	.	.	.	32gg\k	.	.	.	.	.	.	.
.	.	.	.	.	.	.	.	.	.	.	16.bb-\	.	.	.	.	.	16E-/	.
.	.	.	.	.	.	.	.	.	.	.	.	.	(16b-\Jk	.	(16g\Jk	.	16E-/JJ	.
.	.	.	.	.	.	.	.	.	.	.	32eee-\JJk	.	.	.	.	.	.	.
4dddn\)	.	4gg\)	4een\	.	4c-\)	4A-\	.	4e-/	4E-/	.	8dddn\L	.	16cc-\LK)	.	16a-\LK)	.	16EE-/LL	.
.	.	.	.	.	.	.	.	.	.	.	.	.	8cc-\	.	8a-\	.	16E-/	.
.	.	.	.	.	.	.	.	.	.	.	16.r	.	.	.	.	.	16E-/	.
.	.	.	.	.	.	.	.	.	.	.	.	.	(16cc-\Jk	.	(16a-\Jk	.	16E-/JJ	.
.	.	.	.	.	.	.	.	.	.	.	32ddn\Jkk	.	.	.	.	.	.	.
=108	=108	=108	=108	=108	=108	=108	=108	=108	=108	=108	=108	=108	=108	=108	=108	=108	=108	=108
8eee-\	.	8aa\	8ff\	.	8B-\	8G\	.	[2e-/	[2E-/	fp	16ee-\LL	.	8b-\)	.	8g\)	.	8EE-/	.
.	.	.	.	.	.	.	.	.	.	.	16eee-\	p	.	.	.	.	.	.
8r	.	8r	8r	.	8r	8r	.	.	.	.	16eee-\	.	8r	.	8r	.	8r	.
.	.	.	.	.	.	.	.	.	.	.	16eee-\JJ	.	.	.	.	.	.	.
4r	.	4r	4r	.	4r	4r	.	.	.	.	16eee-\LL	.	4r	.	4r	.	4r	.
.	.	.	.	.	.	.	.	.	.	.	16eee-\	.	.	.	.	.	.	.
.	.	.	.	.	.	.	.	.	.	.	16eee-\	.	.	.	.	.	.	.
.	.	.	.	.	.	.	.	.	.	.	16eee-\JJ	.	.	.	.	.	.	.
=109	=109	=109	=109	=109	=109	=109	=109	=109	=109	=109	=109	=109	=109	=109	=109	=109	=109	=109
(4gg\	p	4a/	(4f/	pp	(4G\	4E-\	p	2e-/_	2E-/_	.	16eee-\LL	.	2r	.	2r	.	2r	.
.	.	.	.	.	.	.	.	.	.	.	16eee-\	.	.	.	.	.	.	.
.	.	.	.	.	.	.	.	.	.	.	16eee-\	.	.	.	.	.	.	.
.	.	.	.	.	.	.	.	.	.	.	16eee-\	.	.	.	.	.	.	.
16.aa-\LL	.	16.b-/LL	16.g/LL	.	16.A-\LL	16.F\LL	.	.	.	.	16eee-\	.	.	.	.	.	.	.
.	.	.	.	.	.	.	.	.	.	.	16eee-\	.	.	.	.	.	.	.
32bb-\k	.	32cc/k	32a/k	.	32B-\k	32G\k	.	.	.	.	.	.	.	.	.	.	.	.
16.cccn\	.	16.ddn/	16.b-/	.	16.cn\	16.A-\	.	.	.	.	16eee-\	.	.	.	.	.	.	.
.	.	.	.	.	.	.	.	.	.	.	16eee-\JJ	.	.	.	.	.	.	.
32aa-\JJk	.	32b-/JJk	32g/JJk	.	32A-\JJk	32F\JJk	.	.	.	.	.	.	.	.	.	.	.	.
=110	=110	=110	=110	=110	=110	=110	=110	=110	=110	=110	=110	=110	=110	=110	=110	=110	=110	=110
8gg\)	.	8a/	8f/)	.	8G\)	8E-\	.	2e-/_	2E-/_	.	16eee-\LL	.	16b-'/LL	p	16g'\LL	p	(16.E-\LL	p
.	.	.	.	.	.	.	.	.	.	.	16eee-\	.	16a-'/	.	16f'\	.	.	.
.	.	.	.	.	.	.	.	.	.	.	.	.	.	.	.	.	32Dn\k	.
8r	.	8r	8r	.	8r	8r	.	.	.	.	16eee-\	.	16g'/	.	16e-'\	.	16.G\	.
.	.	.	.	.	.	.	.	.	.	.	16eee-\	.	16f'/JJ	.	16d-'\JJ	.	.	.
.	.	.	.	.	.	.	.	.	.	.	.	.	.	.	.	.	32F\JJk	.
4r	.	4r	4r	.	4r	4r	.	.	.	.	16eee-\	.	16e-'/LL	.	16c'/LL	.	16.A-\LL	.
.	.	.	.	.	.	.	.	.	.	.	16eee-\	.	16d-'/	.	16B-'/	.	.	.
.	.	.	.	.	.	.	.	.	.	.	.	.	.	.	.	.	32G\Jk	.
.	.	.	.	.	.	.	.	.	.	.	16eee-\	.	16c'/	.	16A-'/	.	8B-\J)	.
.	.	.	.	.	.	.	.	.	.	.	16eee-\JJ	.	16B-'/JJ	.	16G'/JJ	.	.	.
=111	=111	=111	=111	=111	=111	=111	=111	=111	=111	=111	=111	=111	=111	=111	=111	=111	=111	=111
(4aa-\	.	(4b-/	4g/	.	(4A-\	4F\	.	2e-/_	2E-/_	.	16eee-\LL	.	8A-/	.	8F/	.	2r	.
.	.	.	.	.	.	.	.	.	.	.	16eee-\	.	.	.	.	.	.	.
.	.	.	.	.	.	.	.	.	.	.	16eee-\	.	8r	.	8r	.	.	.
.	.	.	.	.	.	.	.	.	.	.	16eee-\	.	.	.	.	.	.	.
16.bb-\LL	.	16.cc\LL	16.a\LL	.	16.B-\LL	16.G\LL	.	.	.	.	16eee-\	.	4r	.	4r	.	.	.
.	.	.	.	.	.	.	.	.	.	.	16eee-\	.	.	.	.	.	.	.
32ccc\k	.	32dd\k	32b-\k	.	32c\k	32A-\k	.	.	.	.	.	.	.	.	.	.	.	.
16.ddd-\	.	16.ee-\	16.cc\	.	16.d-\	16.B-\	.	.	.	.	16eee-\	.	.	.	.	.	.	.
.	.	.	.	.	.	.	.	.	.	.	16eee-\JJ	.	.	.	.	.	.	.
32bb-\JJk	.	32cc\JJk	32a\JJk	.	32B-\JJk	32G\JJk	.	.	.	.	.	.	.	.	.	.	.	.
=112	=112	=112	=112	=112	=112	=112	=112	=112	=112	=112	=112	=112	=112	=112	=112	=112	=112	=112
8aa-\)	.	8b-/)	8g/	.	8A-\)	8F\	.	2e-/_	2E-/_	.	16eee-\LL	.	16cc'/LL	.	16a-'\LL	.	(16.E-\LL	.
.	.	.	.	.	.	.	.	.	.	.	16eee-\	.	16b-'/	.	16g'\	.	.	.
.	.	.	.	.	.	.	.	.	.	.	.	.	.	.	.	.	32Dn\k	.
8r	.	8r	8r	.	8r	8r	.	.	.	.	16eee-\	.	16a-/	.	16f'\	.	16.A-\	.
.	.	.	.	.	.	.	.	.	.	.	16eee-\	.	16g'/JJ	.	16e-'\JJ	.	.	.
.	.	.	.	.	.	.	.	.	.	.	.	.	.	.	.	.	32G\JJk	.
4r	.	4r	4r	.	4r	4r	.	.	.	.	16eee-\	.	16f'/LL	.	16d-'\LL	.	16.B-\LL	.
.	.	.	.	.	.	.	.	.	.	.	16eee-\	.	16e-'/	.	16c'\	.	.	.
.	.	.	.	.	.	.	.	.	.	.	.	.	.	.	.	.	32A-\Jk	.
.	.	.	.	.	.	.	.	.	.	.	16eee-\	.	16d-'/	.	16B-'\	.	8c\J)	.
.	.	.	.	.	.	.	.	.	.	.	16eee-\JJ	.	16c'/JJ	.	16A-'\JJ	.	.	.
=113	=113	=113	=113	=113	=113	=113	=113	=113	=113	=113	=113	=113	=113	=113	=113	=113	=113	=113
(4bb-\	.	(4cc/	4a/	.	(4B-\	4G\	.	2e-/_	2E-/_	.	16eee-\LL	.	8B-/	.	8G/	.	2r	.
.	.	.	.	.	.	.	.	.	.	.	16eee-\	.	.	.	.	.	.	.
.	.	.	.	.	.	.	.	.	.	.	16eee-\	.	8r	.	8r	.	.	.
.	.	.	.	.	.	.	.	.	.	.	16eee-\	.	.	.	.	.	.	.
16.ccc\LL	.	16.dd\LL	16.b-\LL	.	16.c\LL	16.A-\LL	.	.	.	.	16eee-\	.	4r	.	4r	.	.	.
.	.	.	.	.	.	.	.	.	.	.	16eee-\	.	.	.	.	.	.	.
32ddd-\k	.	32ee-\k	32cc\k	.	32d-\k	32B-\k	.	.	.	.	.	.	.	.	.	.	.	.
16.eee-\	.	16.ff\	16.dd\	.	16.e-\	16.c\	.	.	.	.	16eee-\	.	.	.	.	.	.	.
.	.	.	.	.	.	.	.	.	.	.	16eee-\JJ	.	.	.	.	.	.	.
32ccc\JJk	.	32dd\JJk	32b-\JJk	.	32c\JJk	32A-\JJk	.	.	.	.	.	.	.	.	.	.	.	.
=114	=114	=114	=114	=114	=114	=114	=114	=114	=114	=114	=114	=114	=114	=114	=114	=114	=114	=114
8bb-\)	.	8cc\)	8a\	.	8B-\)	8G\	.	2e-/_	2E-/_	.	(4.eee-\	.	16dd-'\LL	.	16b-'\LL	.	(16.E-\LL	.
.	.	.	.	.	.	.	.	.	.	.	.	.	16cc'\	.	16a-'\	.	.	.
.	.	.	.	.	.	.	.	.	.	.	.	.	.	.	.	.	32Dn\k	.
8r	.	8r	8r	.	8r	8r	.	.	.	.	.	.	16b-\	.	16g'\	.	16.B-\	.
.	.	.	.	.	.	.	.	.	.	.	.	.	16a-'\JJ	.	16f'\JJ	.	.	.
.	.	.	.	.	.	.	.	.	.	.	.	.	.	.	.	.	32A-\JJk	.
4r	.	4r	4r	.	4r	4r	.	.	.	.	.	.	16g'/LL	.	16e-'\LL	.	16.c\LL	.
.	.	.	.	.	.	.	.	.	.	.	.	.	16f'/	.	16d-'\	.	.	.
.	.	.	.	.	.	.	.	.	.	.	.	.	.	.	.	.	32B-\Jk	.
.	.	.	.	.	.	.	.	.	.	.	8gg\)	.	16e-'/	.	16c'\	.	8d-\J	.
.	.	.	.	.	.	.	.	.	.	.	.	.	16d-'/JJ	.	16B-'\JJ	.	.	.
=115	=115	=115	=115	=115	=115	=115	=115	=115	=115	=115	=115	=115	=115	=115	=115	=115	=115	=115
2r	.	2r	2r	.	2r	2r	.	8e-/]	8E-/]	.	(16.aa-\LL	.	8e-/	.	8c\	.	8c\)	.
.	.	.	.	.	.	.	.	.	.	.	32gg\k	.	.	.	.	.	.	.
.	.	.	.	.	.	.	.	8r	8r	.	16.bb-\	.	8r	.	8r	.	8r	.
.	.	.	.	.	.	.	.	.	.	.	32aa-\JJk	.	.	.	.	.	.	.
.	.	.	.	.	.	.	.	4r	4r	.	16.ddd-\LL	.	8r	.	4r	.	4r	.
.	.	.	.	.	.	.	.	.	.	.	32ccc\k	.	.	.	.	.	.	.
.	.	.	.	.	.	.	.	.	.	.	16.eee-\)	.	16.r	.	.	.	.	.
.	.	.	.	.	.	.	.	.	.	.	32eee-\JJk	.	32ee-\	f	.	.	.	.
=116	=116	=116	=116	=116	=116	=116	=116	=116	=116	=116	=116	=116	=116	=116	=116	=116	=116	=116
(16eee-'\LL	f	(16ff'\LL	16dd\LL	f	(16e-'\LL	16c\LL	f	16f/LL	16f\LL	ff	8eee-'\L	f	8ee-'\L	.	(16.an\LL	f	(16.An\LL	f
16eee-'\	.	16ff'\	16dd\	.	16e-'\	16c\	.	16f/	16f\	.	.	.	.	.	.	.	.	.
.	.	.	.	.	.	.	.	.	.	.	.	.	.	.	32g\k	.	32G\k	.
16eee-'\	.	16ff'\	16dd\	.	16e-'\	16c\	.	16f/	16f\	.	8ff'\J	.	8f'\J	.	16.b-\	.	16.B-\	.
16eee-'\JJ)	.	16ff'\JJ)	16dd\JJ	.	16e-'\JJ)	16c\JJ	.	16f/JJ	16f\JJ	.	.	.	.	.	.	.	.	.
.	.	.	.	.	.	.	.	.	.	.	.	.	.	.	32a\JJk	.	32A\JJk	.
16ddd-\LL	.	16ee-\LL	16cc\LL	.	16d-\LL	16B-\LL	.	16f/LL	16f\LL	.	16r	.	16r	.	16.cc\LL	.	16.c\LL	.
!	!	!	!	!	!	!	!	!	!	!	! (32ggP/LLL	!	! (32gP/LLL	!	!	!	!	!
!	!	!	!	!	!	!	!	!	!	!	! 32ffP/	!	! 32fP/	!	!	!	!	!
!	!	!	!	!	!	!	!	!	!	!	! 32eeP/JJJ)	!	! 32eP/JJJ)	!	!	!	!	!
16ddd-\	.	16ee-\	16cc\	.	16d-\	16B-\	.	16f/	16f\	.	16ffp'\LL	.	16fp'/LL	.	.	.	.	.
.	.	.	.	.	.	.	.	.	.	.	.	.	.	.	32b-\Jk	.	32B-\Jk	.
16ddd-\	.	16ee-\	16cc\	.	16d-\	16B-\	.	16f/	16f\	.	16bb-'\	.	16b-'/	.	8dd-\J)	.	8d-\J)	.
16ddd-\JJ	.	16ee-\JJ	16cc\JJ	.	16d-\JJ	16B-\JJ	.	16f/JJ	16f\JJ	.	16ddd-'\JJ	.	16dd-'/JJ	.	.	.	.	.
=117	=117	=117	=117	=117	=117	=117	=117	=117	=117	=117	=117	=117	=117	=117	=117	=117	=117	=117
16ddd-\LL	.	16ee-\LL	16cc\LL	.	16d-\LL	16B-\LL	.	16e-/LL	16E-/LL	.	8ddd-'\L	.	8dd-'/L	.	(16.g\LL	.	(16.G\LL	.
16ddd-\	.	16ee-\	16cc\	.	16d-\	16B-\	.	16e-/	16E-/	.	.	.	.	.	.	.	.	.
.	.	.	.	.	.	.	.	.	.	.	.	.	.	.	32f\k	.	32F\k	.
16ddd-\	.	16ee-\	16cc\	.	16d-\	16B-\	.	16e-/	16E-/	.	8ee-'\J	.	8e-'/J	.	16.a-\	.	16.A-\	.
16ddd-\JJ	.	16ee-\JJ	16cc\JJ	.	16d-\JJ	16B-\JJ	.	16e-/JJ	16E-/JJ	.	.	.	.	.	.	.	.	.
.	.	.	.	.	.	.	.	.	.	.	.	.	.	.	32g\JJk	.	32G\JJk	.
16ccc\LL	.	16dd\LL	16b-\LL	.	16c\LL	16A-\LL	.	16e-/LL	16E-/LL	.	16r	.	16r	.	16.b-\LL	.	16.B-\LL	.
!	!	!	!	!	!	!	!	!	!	!	! (32ffP/LLL	!	! (32fP/LLL	!	!	!	!	!
!	!	!	!	!	!	!	!	!	!	!	! 32ee-P/	!	! 32e-P/	!	!	!	!	!
!	!	!	!	!	!	!	!	!	!	!	! 32ddP/JJJ)	!	! 32dP/JJJ)	!	!	!	!	!
16ccc\	.	16dd\	16b-\	.	16c\	16A-\	.	16e-/	16E-/	.	16ee-p'\LL	.	16e-p'/LL	.	.	.	.	.
.	.	.	.	.	.	.	.	.	.	.	.	.	.	.	32a-\Jk	.	32A-\Jk	.
16ccc\	.	16dd\	16b-\	.	16c\	16A-\	.	16e-/	16E-/	.	16aa-'\	.	16a-'/	.	8cc\J)	.	8c\J)	.
16ccc\JJ	.	16dd\JJ	16b-\JJ	.	16c\JJ	16A-\JJ	.	16e-/JJ	16E-/JJ	.	16ccc'\JJ	.	16cc'/JJ	.	.	.	.	.
=118	=118	=118	=118	=118	=118	=118	=118	=118	=118	=118	=118	=118	=118	=118	=118	=118	=118	=118
16ccc\LL	.	16ee-\LL	16dd\LL	.	16c\LL	16A-\LL	.	16a-/LL	16a-\LL	.	8ccc'\L	.	8cc'/L	.	(16.f\LL	.	(16.F\LL	.
16ccc\	.	16ee-\	16dd\	.	16c\	16A-\	.	16a-/	16a-\	.	.	.	.	.	.	.	.	.
.	.	.	.	.	.	.	.	.	.	.	.	.	.	.	32en\k	.	32En\k	.
16ccc\	.	16ee-\	16dd\	.	16c\	16A-\	.	16a-/	16a-\	.	8dd-'\J	.	8d-'/J	.	16.g\	.	16.G\	.
16ccc\JJ	.	16ee-\JJ	16dd\JJ	.	16c\JJ	16A-\JJ	.	16a-/JJ	16a-\JJ	.	.	.	.	.	.	.	.	.
.	.	.	.	.	.	.	.	.	.	.	.	.	.	.	32f\JJk	.	32F\JJk	.
16bb-\LL	.	16ee-\LL	16cc\LL	.	16B-\LL	16G\LL	.	16g/LL	16g\LL	.	16r	.	16r	.	16.a-\LL	.	16.A-\LL	.
!	!	!	!	!	!	!	!	!	!	!	! (32ee-P/LLL	!	! (32e-P/LLL	!	!	!	!	!
!	!	!	!	!	!	!	!	!	!	!	! 32dd-P/	!	! 32d-P/	!	!	!	!	!
!	!	!	!	!	!	!	!	!	!	!	! 32ccP/JJJ)	!	! 32cP/JJJ)	!	!	!	!	!
16bb-\	.	16ee-\	16cc\	.	16B-\	16G\	.	16g/	16g\	.	16dd-p'\LL	.	16d-p'/LL	.	.	.	.	.
.	.	.	.	.	.	.	.	.	.	.	.	.	.	.	32g\Jk	.	32G\Jk	.
16bb-\	.	16ee-\	16cc\	.	16B-\	16G\	.	16g/	16g\	.	16gg'\	.	16g'/	.	8b-\J)	.	8B-\J)	.
16bb-\JJ	.	16ee-\JJ	16cc\JJ	.	16B-\JJ	16G\JJ	.	16g/JJ	16g\JJ	.	16bb-'\JJ	.	16b-'/JJ	.	.	.	.	.
=119	=119	=119	=119	=119	=119	=119	=119	=119	=119	=119	=119	=119	=119	=119	=119	=119	=119	=119
16bb-\LL	.	16aa\LL	16dd\LL	.	16B-\LL	16G\LL	.	16b-\LL	16g\LL	.	8bb-'\L	.	8b-'/L	.	(16.en\LL	.	(16.En\LL	.
16bb-\	.	16aa\	16dd\	.	16B-\	16G\	.	16b-\	16g\	.	.	.	.	.	.	.	.	.
.	.	.	.	.	.	.	.	.	.	.	.	.	.	.	32dn\k	.	32Dn\k	.
16bb-\	.	16aa\	16dd\	.	16B-\	16G\	.	16b-\	16g\	.	8cc'\J	.	8c'/J	.	16.f\	.	16.F\	.
16bb-\JJ	.	16aa\JJ	16dd\JJ	.	16B-\JJ	16G\JJ	.	16b-\JJ	16g\JJ	.	.	.	.	.	.	.	.	.
.	.	.	.	.	.	.	.	.	.	.	.	.	.	.	32e\JJk	.	32E\JJk	.
16aa-\LL	.	16gg\LL	16dd\LL	.	16A-\LL	16F\LL	.	16a-\LL	16f\LL	.	16r	.	16r	.	16.g\LL	.	16.G\LL	.
!	!	!	!	!	!	!	!	!	!	!	! (32ddP/LLL	!	! (32dP/LLL	!	!	!	!	!
!	!	!	!	!	!	!	!	!	!	!	! 32ccP/	!	! 32cP/	!	!	!	!	!
!	!	!	!	!	!	!	!	!	!	!	! 32bP/JJJ)	!	! 32BP/JJJ)	!	!	!	!	!
16aa-\	.	16gg\	16dd\	.	16A-\	16F\	.	16a-\	16f\	.	16ccp'\LL	.	16cp'/LL	.	.	.	.	.
.	.	.	.	.	.	.	.	.	.	.	.	.	.	.	32f\Jk	.	32F\Jk	.
16aa-\	.	16gg\	16dd\	.	16A-\	16F\	.	16a-\	16f\	.	16ff'\	.	16f'/	.	8a-\J)	.	8A-\J)	.
16aa-\JJ	.	16gg\JJ	16dd\JJ	.	16A-\JJ	16F\JJ	.	16a-\JJ	16f\JJ	.	16aa-'\JJ	.	16a-'/JJ	.	.	.	.	.
=120	=120	=120	=120	=120	=120	=120	=120	=120	=120	=120	=120	=120	=120	=120	=120	=120	=120	=120
2r	.	2r	2r	.	2r	2r	.	2r	2r	.	(16.b-\LL	p	8f/	p	8d-\	p	8D-\	p
.	.	.	.	.	.	.	.	.	.	.	32an\k	.	.	.	.	.	.	.
.	.	.	.	.	.	.	.	.	.	.	16.cc\	.	8r	.	8r	.	8r	.
.	.	.	.	.	.	.	.	.	.	.	32b-\JJk	.	.	.	.	.	.	.
.	.	.	.	.	.	.	.	.	.	.	16.dd-\LL	.	4r	.	4r	.	4r	.
.	.	.	.	.	.	.	.	.	.	.	32cc\Jk	.	.	.	.	.	.	.
.	.	.	.	.	.	.	.	.	.	.	[8een\J)	.	.	.	.	.	.	.
=121	=121	=121	=121	=121	=121	=121	=121	=121	=121	=121	=121	=121	=121	=121	=121	=121	=121	=121
2r	.	2r	2r	.	2r	2r	.	2r	2r	.	16.ee\LL]	.	8b-\	.	8f\	.	8D-\	.
.	.	.	.	.	.	.	.	.	.	.	(32gg\k	.	.	.	.	.	.	.
.	.	.	.	.	.	.	.	.	.	.	16.ff\	.	8r	.	8r	.	8r	.
.	.	.	.	.	.	.	.	.	.	.	32aan\JJk	.	.	.	.	.	.	.
.	.	.	.	.	.	.	.	.	.	.	16.ccc\LL	.	4r	.	4r	.	4r	.
.	.	.	.	.	.	.	.	.	.	.	32bb-\Jk	.	.	.	.	.	.	.
.	.	.	.	.	.	.	.	.	.	.	[8ddd-\J)	.	.	.	.	.	.	.
=122	=122	=122	=122	=122	=122	=122	=122	=122	=122	=122	=122	=122	=122	=122	=122	=122	=122	=122
2r	.	2r	2r	.	2r	2r	.	2r	2r	.	(16.ddd-\LL]	.	8b-\	.	8g\	.	8E-\	.
.	.	.	.	.	.	.	.	.	.	.	32gg\Jk	.	.	.	.	.	.	.
.	.	.	.	.	.	.	.	.	.	.	8..ddd-\J)	.	8r	.	8r	.	8r	.
.	.	.	.	.	.	.	.	.	.	.	.	.	8b-\	.	8g\	.	8E-\	.
.	.	.	.	.	.	.	.	.	.	.	(32gg\LKK	.	.	.	.	.	.	.
.	.	.	.	.	.	.	.	.	.	.	[8ddd-\J)	.	8r	.	8r	.	8r	.
=123	=123	=123	=123	=123	=123	=123	=123	=123	=123	=123	=123	=123	=123	=123	=123	=123	=123	=123
2r	.	2r	2r	.	2r	2r	.	2r	2r	.	(16.ddd-\LL]	.	8dn/	.	8a-\	.	8F\	.
.	.	.	.	.	.	.	.	.	.	.	32ddn\Jk	.	.	.	.	.	.	.
.	.	.	.	.	.	.	.	.	.	.	8..ccc-\J)	.	8r	.	8r	.	8r	.
.	.	.	.	.	.	.	.	.	.	.	.	.	8d/	.	8a-\	.	8F\	.
.	.	.	.	.	.	.	.	.	.	.	(32dd\LKK	.	.	.	.	.	.	.
.	.	.	.	.	.	.	.	.	.	.	[8ccc-\J)	.	8r	.	8r	.	8r	.
=124	=124	=124	=124	=124	=124	=124	=124	=124	=124	=124	=124	=124	=124	=124	=124	=124	=124	=124
2r	.	2r	2r	.	2r	2r	.	2r	2r	.	(16.ccc-\LL]	.	8e-/	.	8a-\	.	8E-\	.
.	.	.	.	.	.	.	.	.	.	.	32ee-\k	.	.	.	.	.	.	.
.	.	.	.	.	.	.	.	.	.	.	16.aa-\	.	8r	.	8r	.	8r	.
.	.	.	.	.	.	.	.	.	.	.	32cc-\JJk	.	.	.	.	.	.	.
.	.	.	.	.	.	.	.	.	.	.	16.ee-\LL	.	4r	.	4r	.	4r	.
.	.	.	.	.	.	.	.	.	.	.	32a-\k	.	.	.	.	.	.	.
.	.	.	.	.	.	.	.	.	.	.	16.cc-\	.	.	.	.	.	.	.
.	.	.	.	.	.	.	.	.	.	.	32dn\JJk	.	.	.	.	.	.	.
=125	=125	=125	=125	=125	=125	=125	=125	=125	=125	=125	=125	=125	=125	=125	=125	=125	=125	=125
2r	.	2r	2r	.	8r	2r	.	[2e-/	[2E-/	p	8e-/)	.	8e-/	.	8E-/	.	8E-\	.
.	.	.	.	.	(8d-'/L	.	p	.	.	.	8r	.	8r	.	8r	.	8r	.
.	.	.	.	.	8d-'/	.	.	.	.	.	8B-/	.	8G/	.	8E-/	.	8EE-/	.
.	.	.	.	.	8d-'/J)	.	.	.	.	.	8r	.	8r	.	8r	.	8r	.
=126	=126	=126	=126	=126	=126	=126	=126	=126	=126	=126	=126	=126	=126	=126	=126	=126	=126	=126
2r	.	(8b-'/L	2r	p	(16d-/LL	2r	.	2e-/_	2E-/_	.	(16A-/LL	.	(2A-/	.	[2E-/	.	[2AA-/	.
.	.	.	.	.	16c/	.	.	.	.	.	16e-/	.	.	.	.	.	.	.
.	.	8b-'/	.	.	16d-/	.	.	.	.	.	16A-/	.	.	.	.	.	.	.
.	.	.	.	.	16e-/JJ	.	.	.	.	.	16e-/JJ	.	.	.	.	.	.	.
.	.	8b-'/	.	.	16d-/LL	.	.	.	.	.	16A-/LL	.	.	.	.	.	.	.
.	.	.	.	.	16c/	.	.	.	.	.	16e-/	.	.	.	.	.	.	.
.	.	8b-'/J)	.	.	16B-/	.	.	.	.	.	16A-/	.	.	.	.	.	.	.
.	.	.	.	.	16A-/JJ)	.	.	.	.	.	16e-/JJ)	.	.	.	.	.	.	.
=127	=127	=127	=127	=127	=127	=127	=127	=127	=127	=127	=127	=127	=127	=127	=127	=127	=127	=127
2r	.	(16b-/LL	(8ee-'\L	.	(8d-'/L	2r	.	2e-/_	2E-/_	.	(16G/LL	.	2B-/)	.	2E-/_	.	2AA-/_	.
.	.	16a/	.	.	.	.	.	.	.	.	16e-/	.	.	.	.	.	.	.
.	.	16b-/	8ee-'\	.	8d-'/	.	.	.	.	.	16G/	.	.	.	.	.	.	.
.	.	16cc/JJ	.	.	.	.	.	.	.	.	16e-/JJ	.	.	.	.	.	.	.
.	.	16b-/LL	8ee-'\	.	8d-'/	.	.	.	.	.	16G/LL	.	.	.	.	.	.	.
.	.	16a/	.	.	.	.	.	.	.	.	16e-/	.	.	.	.	.	.	.
.	.	16g/	8ee-'\J)	.	8d-'/J)	.	.	.	.	.	16G/	.	.	.	.	.	.	.
.	.	16f/JJ)	.	.	.	.	.	.	.	.	16e-/JJ)	.	.	.	.	.	.	.
=128	=128	=128	=128	=128	=128	=128	=128	=128	=128	=128	=128	=128	=128	=128	=128	=128	=128	=128
2r	.	(8bb-'/L	(16ee-\LL	.	(16d-/LL	(8A-'\L	p	2e-/_	2E-/_	.	(16A-/LL	.	(2A-/	.	2E-/_	.	2AA-/_	.
.	.	.	16dd\	.	16c/	.	.	.	.	.	16e-/	.	.	.	.	.	.	.
.	.	8bb-'/	16ee-\	.	16d-/	8A-'\	.	.	.	.	16A-/	.	.	.	.	.	.	.
.	.	.	16ff\JJ	.	16e-/JJ	.	.	.	.	.	16e-/JJ	.	.	.	.	.	.	.
.	.	8bb-'/	16ee-\LL	.	16d-/LL	8A-'\	.	.	.	.	16A-/LL	.	.	.	.	.	.	.
.	.	.	16dd\	.	16c/	.	.	.	.	.	16e-/	.	.	.	.	.	.	.
.	.	8bb-'/J)	16cc\	.	16B-/	8A-'\J)	.	.	.	.	16A-/	.	.	.	.	.	.	.
.	.	.	16b-\JJ)	.	16A-/JJ)	.	.	.	.	.	16e-/JJ)	.	.	.	.	.	.	.
=129	=129	=129	=129	=129	=129	=129	=129	=129	=129	=129	=129	=129	=129	=129	=129	=129	=129	=129
(8ddd-'\L	p	(16bb-/LL	(8ee-'\L	.	(8d-'/L	(16A-\LL	.	2e-/]	2E-/]	.	(16G/LL	.	2B-/)	.	2E-/]	.	2AA-/]	.
.	.	16aa/	.	.	.	16G\	.	.	.	.	16e-/	.	.	.	.	.	.	.
8ddd-'\	.	16bb-/	8ee-'\	.	8d-'/	16A-\	.	.	.	.	16G/	.	.	.	.	.	.	.
.	.	16ccc/JJ	.	.	.	16B-\JJ	.	.	.	.	16e-/JJ	.	.	.	.	.	.	.
8ddd-'\	.	16bb-/LL	8ee-'\	.	8d-'/	16A-\LL	.	.	.	.	16G/LL	.	.	.	.	.	.	.
.	.	16aa/	.	.	.	16G\	.	.	.	.	16e-/	.	.	.	.	.	.	.
8ddd-'\J)	.	16gg/	8ee-'\J)	.	8d-'/J)	16F\	.	.	.	.	16G/	.	.	.	.	.	.	.
.	.	16ff/JJ)	.	.	.	16E-\JJ)	.	.	.	.	16e-/JJ)	.	.	.	.	.	.	.
=130	=130	=130	=130	=130	=130	=130	=130	=130	=130	=130	=130	=130	=130	=130	=130	=130	=130	=130
2r	.	2r	2r	.	2r	2r	.	4e-/	4E-/	f	(8.ccc\L	f	(8.ee-\L	f	(8.cc\L 8.e-\	f	16AA-\LL	f
.	.	.	.	.	.	.	.	.	.	.	.	.	.	.	.	.	16A-\	.
.	.	.	.	.	.	.	.	.	.	.	.	.	.	.	.	.	16A-\	.
.	.	.	.	.	.	.	.	.	.	.	16aa-\Jk)	.	16cc\Jk)	.	16a-\ 16c\Jk)	.	16A-\JJ	.
.	.	.	.	.	.	.	.	4f/	4f\	.	(8.ddd-\L	.	(8.ff\L	.	(8.dd-\ 8.f\L	.	16D-\LL	.
.	.	.	.	.	.	.	.	.	.	.	.	.	.	.	.	.	16d-\	.
.	.	.	.	.	.	.	.	.	.	.	.	.	.	.	.	.	16d-\	.
.	.	.	.	.	.	.	.	.	.	.	16bb-\Jk)	.	16dd-\Jk)	.	16b-\ 16d-\Jk)	.	16d-\JJ	.
=131	=131	=131	=131	=131	=131	=131	=131	=131	=131	=131	=131	=131	=131	=131	=131	=131	=131	=131
2r	.	2r	2r	.	2r	2r	.	8e-/L	8e-\L	.	(16bb-\LL	.	(16dd-\LL	.	(16b-\ 16d-\LL	.	16E-\LL	.
.	.	.	.	.	.	.	.	.	.	.	16aa-\J)	.	16cc\J)	.	16a-\ 16c\J)	.	16e-\	.
.	.	.	.	.	.	.	.	8e-/	8E-\	.	8.aa-\J	.	8.cc\J	.	8.a-\ 8.c\J	.	16e-\	.
.	.	.	.	.	.	.	.	.	.	.	.	.	.	.	.	.	16e-\JJ	.
.	.	.	.	.	.	.	.	8e-/	8E-\	.	.	.	.	.	.	.	16e-\LL	.
.	.	.	.	.	.	.	.	.	.	.	32gg\LLL	.	32b-\LLL	.	32g\ 32B-\LLL	.	16e-\	.
.	.	.	.	.	.	.	.	.	.	.	32aa-\J	.	32cc\J	.	32a-\ 32c\J	.	.	.
.	.	.	.	.	.	.	.	8e-/J	8E-\J	.	16bb-\	.	16dd-\	.	16b-\ 16d-\	.	16E-\	.
.	.	.	.	.	.	.	.	.	.	.	16gg\JJ	.	16b-\JJ	.	16g\ 16B-\JJ	.	16E-\JJ	.
=132	=132	=132	=132	=132	=132	=132	=132	=132	=132	=132	=132	=132	=132	=132	=132	=132	=132	=132
2r	.	2r	2r	.	2r	(8A-'\L	p	[2EE-/	[2EEE-/	p	8aa-\	p	8cc\	.	8a-\ 8c\	.	[2AA-/	p
.	.	.	.	.	.	8A-'\	.	.	.	.	8r	.	8r	.	8r	.	.	.
.	.	.	.	.	.	8A-'\	.	.	.	.	4r	.	4r	.	4r	.	.	.
.	.	.	.	.	.	8A-'\J)	.	.	.	.	.	.	.	.	.	.	.	.
=133	=133	=133	=133	=133	=133	=133	=133	=133	=133	=133	=133	=133	=133	=133	=133	=133	=133	=133
2r	.	2r	2r	.	(8d-'/L	(16A-\LL	p	2EE-/_	2EEE-/_	.	2r	.	2r	.	2r	.	2AA-/_	.
.	.	.	.	.	.	16G\	.	.	.	.	.	.	.	.	.	.	.	.
.	.	.	.	.	8d-'/	16A-\	.	.	.	.	.	.	.	.	.	.	.	.
.	.	.	.	.	.	16B-\JJ	.	.	.	.	.	.	.	.	.	.	.	.
.	.	.	.	.	8d-'/	16A-\LL	.	.	.	.	.	.	.	.	.	.	.	.
.	.	.	.	.	.	16G\	.	.	.	.	.	.	.	.	.	.	.	.
.	.	.	.	.	8d-'/J)	16F\	.	.	.	.	.	.	.	.	.	.	.	.
.	.	.	.	.	.	16E-\JJ)	.	.	.	.	.	.	.	.	.	.	.	.
=134	=134	=134	=134	=134	=134	=134	=134	=134	=134	=134	=134	=134	=134	=134	=134	=134	=134	=134
2r	.	2r	(8b-'\L	p	(16d-/LL	(8.E-\L	.	2EE-/_	2EEE-/_	.	2r	.	2r	.	2r	.	2AA-/_	.
.	.	.	.	.	16c/	.	.	.	.	.	.	.	.	.	.	.	.	.
.	.	.	8b-'\	.	16d-/	.	.	.	.	.	.	.	.	.	.	.	.	.
.	.	.	.	.	16e-/JJ	32F\LL	.	.	.	.	.	.	.	.	.	.	.	.
.	.	.	.	.	.	32G\JJJ	.	.	.	.	.	.	.	.	.	.	.	.
.	.	.	8b-'\	.	16d-/LL	8A-\)	.	.	.	.	.	.	.	.	.	.	.	.
.	.	.	.	.	16c/	.	.	.	.	.	.	.	.	.	.	.	.	.
.	.	.	8b-'\J)	.	16B-/	8r	.	.	.	.	.	.	.	.	.	.	.	.
.	.	.	.	.	16A-/JJ)	.	.	.	.	.	.	.	.	.	.	.	.	.
=135	=135	=135	=135	=135	=135	=135	=135	=135	=135	=135	=135	=135	=135	=135	=135	=135	=135	=135
2r	.	(8ee-'/L	(16b-\LL	p	(8.B-/L	2r	.	2EE-/_	2EEE-/_	.	2r	.	2r	.	2r	.	2AA-/_	.
.	.	.	16a\	.	.	.	.	.	.	.	.	.	.	.	.	.	.	.
.	.	8ee-'/	16b-\	.	.	.	.	.	.	.	.	.	.	.	.	.	.	.
.	.	.	16cc\JJ	.	32c/LL	.	.	.	.	.	.	.	.	.	.	.	.	.
.	.	.	.	.	32d-/JJJ	.	.	.	.	.	.	.	.	.	.	.	.	.
.	.	8ee-'/	16b-\LL	.	8e-/)	.	.	.	.	.	.	.	.	.	.	.	.	.
.	.	.	16a\	.	.	.	.	.	.	.	.	.	.	.	.	.	.	.
.	.	8ee-'/J)	16g\	.	8r	.	.	.	.	.	.	.	.	.	.	.	.	.
.	.	.	16f\JJ)	.	.	.	.	.	.	.	.	.	.	.	.	.	.	.
=136	=136	=136	=136	=136	=136	=136	=136	=136	=136	=136	=136	=136	=136	=136	=136	=136	=136	=136
(8gg-'\L	p	(16ee-/LL	(8.f\L	.	2r	2r	.	8EE-/]	8EEE-/]	.	2r	.	2r	.	2r	.	2AA-/]	.
.	.	16dd/	.	.	.	.	.	.	.	.	.	.	.	.	.	.	.	.
8gg-'\	.	16ee-/	.	.	.	.	.	8r	8r	.	.	.	.	.	.	.	.	.
.	.	16ff/JJ	32g\LL	.	.	.	.	.	.	.	.	.	.	.	.	.	.	.
.	.	.	32a-\JJJ	.	.	.	.	.	.	.	.	.	.	.	.	.	.	.
8gg-'\	.	16ee-/LL	8b-\)	.	.	.	.	4r	4r	.	.	.	.	.	.	.	.	.
.	.	16dd/	.	.	.	.	.	.	.	.	.	.	.	.	.	.	.	.
8gg-'\J)	.	16cc/	8r	.	.	.	.	.	.	.	.	.	.	.	.	.	.	.
.	.	16b-/JJ)	.	.	.	.	.	.	.	.	.	.	.	.	.	.	.	.
=137	=137	=137	=137	=137	=137	=137	=137	=137	=137	=137	=137	=137	=137	=137	=137	=137	=137	=137
8ff\L	.	8bn/L	8r	.	2r	2r	.	2r	2r	.	(16ee-\LL	p	(16e-/LL	p	8F/	p	8FF/	.
.	.	.	.	.	.	.	.	.	.	.	16ddn\	.	16dn/	.	.	.	.	.
8ccc\J	.	8gg/J	8bn\	.	.	.	.	.	.	.	16ee-\	.	16e-/	.	8r	.	8r	.
.	.	.	.	.	.	.	.	.	.	.	16ff\JJ	.	16f/JJ	.	.	.	.	.
8r	.	8r	8ryy	.	.	.	.	.	.	.	16ee-\LL	.	16e-/LL	.	8B-/	.	8BB-/	.
.	.	.	.	.	.	.	.	.	.	.	16dd-\	.	16d-/	.	.	.	.	.
8ddd-\	.	8gg\	8cc\	.	.	.	.	.	.	.	16cc\	.	16c/	.	8r	.	8r	.
.	.	.	.	.	.	.	.	.	.	.	16b-\JJ)	.	16B-/JJ)	.	.	.	.	.
=138	=138	=138	=138	=138	=138	=138	=138	=138	=138	=138	=138	=138	=138	=138	=138	=138	=138	=138
8r	.	8r	8r	.	2r	2r	.	2r	2r	.	(16dd-\LL	.	(16d-/LL	.	8E-/	.	8EE-/	.
.	.	.	.	.	.	.	.	.	.	.	16cc\	.	16c/	.	.	.	.	.
8bb-\	.	8ff\	8a\	.	.	.	.	.	.	.	16dd-\	.	16d-/	.	8r	.	8r	.
.	.	.	.	.	.	.	.	.	.	.	16ee-\JJ	.	16e-/JJ	.	.	.	.	.
8r	.	8r	8r	.	.	.	.	.	.	.	16dd-\LL	.	16d-/LL	.	8A-/	.	8AA-/	.
.	.	.	.	.	.	.	.	.	.	.	16cc\	.	16c/	.	.	.	.	.
8ccc\	.	8ff\	8b-\	.	.	.	.	.	.	.	16b-\	.	16B-/	.	8r	.	8r	.
.	.	.	.	.	.	.	.	.	.	.	16a-\JJ)	.	16A-/JJ)	.	.	.	.	.
=139	=139	=139	=139	=139	=139	=139	=139	=139	=139	=139	=139	=139	=139	=139	=139	=139	=139	=139
8r	.	(16bb-\LL	16gg\LL	.	2r	2r	.	2r	2r	.	2r	.	2r	.	[2B-/	.	2BB-/	.
.	.	16aa\	16ff\	.	.	.	.	.	.	.	.	.	.	.	.	.	.	.
(8ff\L	.	16gg\	16een\	.	.	.	.	.	.	.	.	.	.	.	.	.	.	.
.	.	16ff\JJ	16dd\JJ	.	.	.	.	.	.	.	.	.	.	.	.	.	.	.
8aa-\	.	16een\LL	16cc\LL	.	.	.	.	.	.	.	.	.	.	.	.	.	.	.
.	.	16dd\	16b-\	.	.	.	.	.	.	.	.	.	.	.	.	.	.	.
8ddn\J)	.	16cc\	16a\	.	.	.	.	.	.	.	.	.	.	.	.	.	.	.
.	.	16b-\JJ	16g\JJ	.	.	.	.	.	.	.	.	.	.	.	.	.	.	.
=140	=140	=140	=140	=140	=140	=140	=140	=140	=140	=140	=140	=140	=140	=140	=140	=140	=140	=140
8ee-\	.	8a/)	8f/	.	(16.E-/LL	2r	p	2r	2r	.	4r	.	4r	.	8B-/]	.	8E-\	.
.	.	.	.	.	32Dn/k	.	.	.	.	.	.	.	.	.	.	.	.	.
8r	.	8r	8r	.	16.F/	.	.	.	.	.	.	.	.	.	8r	.	8r	.
.	.	.	.	.	32E-/JJk	.	.	.	.	.	.	.	.	.	.	.	.	.
4r	.	4r	4r	.	16.A-/LL	.	.	.	.	.	8r	.	8r	.	8r	.	8r	.
.	.	.	.	.	32G/Jk	.	.	.	.	.	.	.	.	.	.	.	.	.
.	.	.	.	.	8B-/J)	.	.	.	.	.	(16.a-/LL	.	(16.f/LL	.	(16.B-/LL	.	8B-\	.
.	.	.	.	.	.	.	.	.	.	.	32f/JJk)	.	32dn/JJk)	.	32A-/JJk)	.	.	.
=141	=141	=141	=141	=141	=141	=141	=141	=141	=141	=141	=141	=141	=141	=141	=141	=141	=141	=141
(16.ee-\LL	.	2r	2r	.	2r	2r	.	2r	2r	.	4e-/	.	4e-/	.	8G/	.	8E-\	.
32ddn\k	.	.	.	.	.	.	.	.	.	.	.	.	.	.	.	.	.	.
16.ff\	.	.	.	.	.	.	.	.	.	.	.	.	.	.	8r	.	8r	.
32ee-\JJk	.	.	.	.	.	.	.	.	.	.	.	.	.	.	.	.	.	.
16.aa-\LL	.	.	.	.	.	.	.	.	.	.	8r	.	8r	.	8r	.	8r	.
32gg\Jk	.	.	.	.	.	.	.	.	.	.	.	.	.	.	.	.	.	.
8bb-\J)	.	.	.	.	.	.	.	.	.	.	(16.aa-\LL	.	(16.ff\LL	.	(16.b-\LL	.	8BB-/	.
.	.	.	.	.	.	.	.	.	.	.	32ff\JJk)	.	32ddn\JJk)	.	32a-\JJk)	.	.	.
=142	=142	=142	=142	=142	=142	=142	=142	=142	=142	=142	=142	=142	=142	=142	=142	=142	=142	=142
2r	.	(16aa\LL	16ff\LL	.	2r	2r	.	[2e-/	[2E-/	.	8ee-\	.	8ee-\	.	8g\	.	8EE-/	.
.	.	16gg#\	16een\	.	.	.	.	.	.	.	.	.	.	.	.	.	.	.
.	.	16aa\	16ff\	.	.	.	.	.	.	.	8r	.	8r	.	8r	.	8r	.
.	.	16bb-\JJ	16dd\JJ	.	.	.	.	.	.	.	.	.	.	.	.	.	.	.
.	.	16ggn\LL	16ee-\LL	.	.	.	.	.	.	.	4r	.	4r	.	4r	.	4r	.
.	.	16ff#\	16dd\	.	.	.	.	.	.	.	.	.	.	.	.	.	.	.
.	.	16gg\	16ee-\	.	.	.	.	.	.	.	.	.	.	.	.	.	.	.
.	.	16aa\JJ	16cc#\JJ	.	.	.	.	.	.	.	.	.	.	.	.	.	.	.
=143	=143	=143	=143	=143	=143	=143	=143	=143	=143	=143	=143	=143	=143	=143	=143	=143	=143	=143
2r	.	16ffn\LL	16dd\LL	.	2r	2r	.	2e-/]	2E-/]	.	2r	.	2r	.	2r	.	2r	.
.	.	16een\	16cc#\	.	.	.	.	.	.	.	.	.	.	.	.	.	.	.
.	.	16ff\	16dd\	.	.	.	.	.	.	.	.	.	.	.	.	.	.	.
.	.	16gg\JJ	16bn\JJ	.	.	.	.	.	.	.	.	.	.	.	.	.	.	.
.	.	16ee-\LL	16ccn\LL	.	.	.	.	.	.	.	.	.	.	.	.	.	.	.
.	.	16dd\	16b\	.	.	.	.	.	.	.	.	.	.	.	.	.	.	.
.	.	16ee-\	16cc\	.	.	.	.	.	.	.	.	.	.	.	.	.	.	.
.	.	16ff\JJ	16a\JJ	.	.	.	.	.	.	.	.	.	.	.	.	.	.	.
=144	=144	=144	=144	=144	=144	=144	=144	=144	=144	=144	=144	=144	=144	=144	=144	=144	=144	=144
2r	.	8dd\)	8b-\	.	2r	2r	.	2r	2r	.	(4e-/	.	(4c/	.	[2A-/	.	(4AA-/	.
.	.	8r	8r	.	.	.	.	.	.	.	.	.	.	.	.	.	.	.
.	.	4r	4r	.	.	.	.	.	.	.	16.f/LL	.	16.d-/LL	.	.	.	4D-/	.
.	.	.	.	.	.	.	.	.	.	.	32g/k	.	32e-/k	.	.	.	.	.
.	.	.	.	.	.	.	.	.	.	.	16.a-/	.	16.f/	.	.	.	.	.
.	.	.	.	.	.	.	.	.	.	.	32f/JJk	.	32d-/JJk	.	.	.	.	.
=145	=145	=145	=145	=145	=145	=145	=145	=145	=145	=145	=145	=145	=145	=145	=145	=145	=145	=145
2r	.	2r	2r	.	2r	2r	.	2r	2r	.	8e-/)	.	8c/)	.	8A-/]	.	8AA-/)	.
.	.	.	.	.	.	.	.	.	.	.	8r	.	8r	.	8r	.	8r	.
.	.	.	.	.	.	.	.	.	.	.	(16.a-/LL	.	4r	.	4r	.	4r	.
.	.	.	.	.	.	.	.	.	.	.	32g/k	.	.	.	.	.	.	.
.	.	.	.	.	.	.	.	.	.	.	16.b-/	.	.	.	.	.	.	.
.	.	.	.	.	.	.	.	.	.	.	32a-/JJk	.	.	.	.	.	.	.
=146	=146	=146	=146	=146	=146	=146	=146	=146	=146	=146	=146	=146	=146	=146	=146	=146	=146	=146
*	*	*	*	*	*	*	*	*	*	*	*	*	*	*	*	*	*^	*
2r	.	2r	2r	.	2r	2r	.	2r	2r	.	16.cc\LL	.	4r	.	4r	.	4r	2r	.
.	.	.	.	.	.	.	.	.	.	.	32b-\k	.	.	.	.	.	.	.	.
.	.	.	.	.	.	.	.	.	.	.	16.dd-\	.	.	.	.	.	.	.	.
.	.	.	.	.	.	.	.	.	.	.	32cc\JJk	.	.	.	.	.	.	.	.
!	!	!	!	!	!	!	!	!	!	!	!	!	!	!	!	!	! Cello	!	!
.	.	.	.	.	.	.	.	.	.	.	8ee-\L)	.	8b-'\L	.	8g'\L	.	8e-'/L	.	.
.	.	.	.	.	.	.	.	.	.	.	8ee-'\J	.	8cc'\J	.	8a-'\J	.	8e-'/J	.	.
=147	=147	=147	=147	=147	=147	=147	=147	=147	=147	=147	=147	=147	=147	=147	=147	=147	=147	=147	=147
*	*	*	*	*	*	*	*	*	*	*	*	*	*	*	*	*	*v	*v	*
2r	.	2r	2r	.	2r	2r	.	2r	2r	.	[4ee-\	.	(8.b-/L	.	(8.g\L	.	(4e-/	.
.	.	.	.	.	.	.	.	.	.	.	.	.	16g/Jk)	.	16e-\Jk)	.	.	.
.	.	.	.	.	.	.	.	.	.	.	(16ee-\LL]	.	8b-\	.	8g\	.	8E-/)	.
.	.	.	.	.	.	.	.	.	.	.	16ddn\	.	.	.	.	.	.	.
.	.	.	.	.	.	.	.	.	.	.	16dd-\	.	8r	.	8r	.	8r	.
.	.	.	.	.	.	.	.	.	.	.	16b-\JJ)	.	.	.	.	.	.	.
=148	=148	=148	=148	=148	=148	=148	=148	=148	=148	=148	=148	=148	=148	=148	=148	=148	=148	=148
!	!	!	!	!	!	!	!	!	!	!	!	!	!	!	!	!	! Bassi	!
(4ee-\	.	(4dd/	4f/	.	(4c/	2r	.	2r	2r	.	8a-\L	.	8r	.	[2A-/	.	(4AA-/	.
.	.	.	.	.	.	.	.	.	.	.	(8aa-'\	.	(8a-'/L	.	.	.	.	.
16.ff\LL	.	16.ee-\LL	16.g\LL	.	16.d-/LL	.	.	.	.	.	8aa-'\	.	8a-'/	.	.	.	4D-/	.
32gg\k	.	32ff\k	32a\k	.	32e-/k	.	.	.	.	.	.	.	.	.	.	.	.	.
16.aa-\	.	16.gg\	16.b-\	.	16.f/	.	.	.	.	.	8aa-'\J)	.	8a-'/J)	.	.	.	.	.
32ff\JJk	.	32ee-\JJk	32g\JJk	.	32d-/JJk	.	.	.	.	.	.	.	.	.	.	.	.	.
=149	=149	=149	=149	=149	=149	=149	=149	=149	=149	=149	=149	=149	=149	=149	=149	=149	=149	=149
8ee-\)	.	8dd/)	8f/	.	8c/)	2r	.	2r	2r	.	(8.aa-\L	.	(8.a-/L	.	8A-/]	.	8AA-/)	.
8r	.	8r	8ryy	.	8r	.	.	.	.	.	.	.	.	.	8r	.	8r	.
.	.	.	.	.	.	.	.	.	.	.	32gg\LL	.	32g/LL	.	.	.	.	.
.	.	.	.	.	.	.	.	.	.	.	32ff\JJJ	.	32f/JJJ	.	.	.	.	.
4r	.	(16.b-/LL	4r	.	(16.A-/LL	.	.	.	.	.	8ee-\L)	.	8e-/L)	.	4r	.	4r	.
.	.	32a/k	.	.	32G/k	.	.	.	.	.	.	.	.	.	.	.	.	.
.	.	16.cc/	.	.	16.B-/	.	.	.	.	.	8ee-'\J	.	8e-'/J	.	.	.	.	.
.	.	32b-/JJk	.	.	32A-/JJk	.	.	.	.	.	.	.	.	.	.	.	.	.
=150	=150	=150	=150	=150	=150	=150	=150	=150	=150	=150	=150	=150	=150	=150	=150	=150	=150	=150
2r	.	16.dd/LL	2r	.	16.c/LL	2r	.	2r	2r	.	(8.ee-\L	.	(8.e-/L	.	4r	.	2r	.
.	.	32cc/k	.	.	32B-/k	.	.	.	.	.	.	.	.	.	.	.	.	.
.	.	16.ee-/	.	.	16.d-/	.	.	.	.	.	.	.	.	.	.	.	.	.
.	.	.	.	.	.	.	.	.	.	.	64dd-\LLL	.	64d-/LLL	.	.	.	.	.
.	.	.	.	.	.	.	.	.	.	.	64cc\	.	64c/	.	.	.	.	.
.	.	32dd/JJk	.	.	32c/JJk	.	.	.	.	.	64b-\	.	64B-/	.	.	.	.	.
.	.	.	.	.	.	.	.	.	.	.	64a-\JJJJ)	.	64A-/JJJJ)	.	.	.	.	.
.	.	8ff/L)	.	.	8e-/L)	.	.	.	.	.	8cc\L	.	(8c/L	.	(8A-/L	.	.	.
.	.	8ff'/J	.	.	8e-'/J	.	.	.	.	.	(16.b-\L	.	8B-/J)	.	8G/J)	.	.	.
.	.	.	.	.	.	.	.	.	.	.	32ee-\JJk)	.	.	.	.	.	.	.
=151	=151	=151	=151	=151	=151	=151	=151	=151	=151	=151	=151	=151	=151	=151	=151	=151	=151	=151
2r	.	2r	2r	.	2r	2r	.	2r	2r	.	(4.ee-\	.	(2a-/	.	(2f\	.	(16.F\LL	.
.	.	.	.	.	.	.	.	.	.	.	.	.	.	.	.	.	32En\k	.
.	.	.	.	.	.	.	.	.	.	.	.	.	.	.	.	.	16.G\	.
.	.	.	.	.	.	.	.	.	.	.	.	.	.	.	.	.	32F\JJk	.
.	.	.	.	.	.	.	.	.	.	.	.	.	.	.	.	.	16.A-\LL	.
.	.	.	.	.	.	.	.	.	.	.	.	.	.	.	.	.	32G\Jk	.
.	.	.	.	.	.	.	.	.	.	.	8ddn\)	.	.	.	.	.	8c-\J)	.
=152	=152	=152	=152	=152	=152	=152	=152	=152	=152	=152	=152	=152	=152	=152	=152	=152	=152	=152
2r	.	2r	2r	.	2r	2r	.	2r	2r	.	(4.dd-\	.	8g/L	.	4f-\	.	(8B-\L	.
.	.	.	.	.	.	.	.	.	.	.	.	.	8a-/	.	.	.	8A-\	.
.	.	.	.	.	.	.	.	.	.	.	.	.	8b-/	.	4e-\)	.	8G\	.
.	.	.	.	.	.	.	.	.	.	.	[8cc\)	.	8a-/J)	.	.	.	8A-\J)	.
=153	=153	=153	=153	=153	=153	=153	=153	=153	=153	=153	=153	=153	=153	=153	=153	=153	=153	=153
4r	.	4r	2r	.	4r	2r	.	2r	2r	.	(16cc\LL]	.	(4f/	.	(4d-\	.	(4D-\	.
.	.	.	.	.	.	.	.	.	.	.	16b-\	.	.	.	.	.	.	.
.	.	.	.	.	.	.	.	.	.	.	16dd-\	.	.	.	.	.	.	.
.	.	.	.	.	.	.	.	.	.	.	16ff\JJ)	.	.	.	.	.	.	.
8r	.	8r	.	.	8r	.	.	.	.	.	8a-/L	.	4e-/)	.	8c/L	.	4E-\)	.
8eee-\	.	8ff/	.	.	8e-/	.	.	.	.	.	(16.g/L	.	.	.	8B-/J)	.	.	.
.	.	.	.	.	.	.	.	.	.	.	32ee-/JJk)	.	.	.	.	.	.	.
=154	=154	=154	=154	=154	=154	=154	=154	=154	=154	=154	=154	=154	=154	=154	=154	=154	=154	=154
(4.eee-\	.	(4.ff/	2r	.	(4.e-/	2r	.	2r	2r	.	(4.ee-\	.	2a-/	.	2fn\	.	(16.F\LL	.
.	.	.	.	.	.	.	.	.	.	.	.	.	.	.	.	.	32En\k	.
.	.	.	.	.	.	.	.	.	.	.	.	.	.	.	.	.	16.G\	.
.	.	.	.	.	.	.	.	.	.	.	.	.	.	.	.	.	32F\JJk	.
.	.	.	.	.	.	.	.	.	.	.	.	.	.	.	.	.	16.A-\LL	.
.	.	.	.	.	.	.	.	.	.	.	.	.	.	.	.	.	32G\k	.
8dddn\)	.	8een/)	.	.	8dn/)	.	.	.	.	.	8ddn\)	.	.	.	.	.	16.B-\	.
.	.	.	.	.	.	.	.	.	.	.	.	.	.	.	.	.	32A-\JJk)	.
=155	=155	=155	=155	=155	=155	=155	=155	=155	=155	=155	=155	=155	=155	=155	=155	=155	=155	=155
(4.ddd-\	.	(4.ee-/	2r	.	(4.d-/	2r	.	2r	2r	.	(4.dd-\	.	(8.g/L	.	(4f-\	.	(8c-\L	.
.	.	.	.	.	.	.	.	.	.	.	.	.	.	.	.	.	16.B-\L	.
.	.	.	.	.	.	.	.	.	.	.	.	.	16a-/Jk	.	.	.	.	.
.	.	.	.	.	.	.	.	.	.	.	.	.	.	.	.	.	32A-\JJk	.
.	.	.	.	.	.	.	.	.	.	.	.	.	8b-/L)	.	8e-\L)	.	8G\L	.
[8ccc\)	.	[8dd/)	.	.	[8c/)	.	.	.	.	.	[8cc\)	.	(8en/J	.	[8a-\J	.	8A-\J)	.
=156	=156	=156	=156	=156	=156	=156	=156	=156	=156	=156	=156	=156	=156	=156	=156	=156	=156	=156
(16ccc\LL]	.	(16dd/LL]	2r	.	(16c/LL]	2r	.	2r	2r	.	(16cc\LL]	.	8f/)	.	8a-\]	.	8D-\	.
16bb-\	.	16cc/	.	.	16B-/	.	.	.	.	.	16b-\	.	.	.	.	.	.	.
16eeen\	.	16ff#/	.	.	16en/	.	.	.	.	.	16een\	.	8r	.	8r	.	8r	.
16fff\JJ	.	16gg/JJ	.	.	16f/JJ	.	.	.	.	.	16ff\JJ	.	.	.	.	.	.	.
16eee-\LL	.	16ffn/LL	.	.	16e-/LL	.	.	.	.	.	16ee-\LL	.	4r	.	4r	.	4r	.
16ddd-\	.	16ee-/	.	.	16d-/	.	.	.	.	.	16dd-\	.	.	.	.	.	.	.
16ccc\	.	16dd/	.	.	16c/	.	.	.	.	.	16cc\	.	.	.	.	.	.	.
16bb-\JJ)	.	16cc/JJ)	.	.	16B-/JJ)	.	.	.	.	.	16b-\JJ)	.	.	.	.	.	.	.
=157	=157	=157	=157	=157	=157	=157	=157	=157	=157	=157	=157	=157	=157	=157	=157	=157	=157	=157
(4.aa-\	.	(4.b-/	2r	.	(4.A-/	2r	.	[2e-/	[2E-/	.	(4.a-/	.	(16c/LL	.	(4.e-\	.	8E-\L	.
.	.	.	.	.	.	.	.	.	.	.	.	.	16e-/	.	.	.	.	.
.	.	.	.	.	.	.	.	.	.	.	.	.	16c/	.	.	.	8E-\	.
.	.	.	.	.	.	.	.	.	.	.	.	.	16e-/JJ	.	.	.	.	.
.	.	.	.	.	.	.	.	.	.	.	.	.	16c/LL	.	.	.	8E-\	.
.	.	.	.	.	.	.	.	.	.	.	.	.	16e-/	.	.	.	.	.
16ccc\LL	.	16dd/LL	.	.	16c/LL	.	.	.	.	.	16cc\LL	.	16d-/	.	8g\)	.	8E-\J	.
16bb-\JJ	.	16cc/JJ	.	.	16B-/JJ)	.	.	.	.	.	16b-\JJ)	.	16e-/JJ)	.	.	.	.	.
=158	=158	=158	=158	=158	=158	=158	=158	=158	=158	=158	=158	=158	=158	=158	=158	=158	=158	=158
8aa-\)	.	8b-/)	2r	.	(16.A-/LL	2r	.	8e-/]	8E-/]	.	4a-/	.	4c/	.	8a-\	.	8AA-/	.
.	.	.	.	.	32G/k	.	.	.	.	.	.	.	.	.	.	.	.	.
8r	.	8r	.	.	16.B-/	.	.	8r	8r	.	.	.	.	.	8r	.	8r	.
.	.	.	.	.	32A-/JJk	.	.	.	.	.	.	.	.	.	.	.	.	.
4r	.	4r	.	.	16.d-/LL	.	.	4r	4r	.	8r	.	8r	.	8r	.	8r	.
.	.	.	.	.	32c/Jk	.	.	.	.	.	.	.	.	.	.	.	.	.
.	.	.	.	.	8e-/J)	.	.	.	.	.	(16.d-/LL	.	(16.B-/LL	.	(16.E-/LL	.	8E-'\	.
.	.	.	.	.	.	.	.	.	.	.	32B-/JJk)	.	32G/JJk)	.	32D-/JJk)	.	.	.
=159	=159	=159	=159	=159	=159	=159	=159	=159	=159	=159	=159	=159	=159	=159	=159	=159	=159	=159
2r	.	(16.b-/LL	2r	.	(16.A-/LL	2r	.	2r	2r	.	4A-/	.	4A-/	.	4C/	.	4A-'\	.
.	.	32a/k	.	.	32G/k	.	.	.	.	.	.	.	.	.	.	.	.	.
.	.	16.cc/	.	.	16.B-/	.	.	.	.	.	.	.	.	.	.	.	.	.
.	.	32b-/JJk	.	.	32A-/JJk	.	.	.	.	.	.	.	.	.	.	.	.	.
.	.	16.ee-/LL	.	.	16.d-/LL	.	.	.	.	.	8r	.	8r	.	8r	.	8r	.
.	.	32dd/Jk	.	.	32c/Jk	.	.	.	.	.	.	.	.	.	.	.	.	.
.	.	8ff/J)	.	.	8e-/J)	.	.	.	.	.	(16.dd-\LL	.	(16.b-/LL	.	(16.e-\LL	.	8E-'\	.
.	.	.	.	.	.	.	.	.	.	.	32b-\JJk)	.	32g/JJk)	.	32d-\JJk)	.	.	.
=160	=160	=160	=160	=160	=160	=160	=160	=160	=160	=160	=160	=160	=160	=160	=160	=160	=160	=160
*	*	*v	*v	*	*	*	*	*	*	*	*	*	*	*	*	*	*	*
!	!	! a 2.	!	!	!	!	!	!	!	!	!	!	!	!	!	!	!
!	!	!	!	!	!	!	!	!	!	!	!	!	!	!	!	!	!
*	*	*	*	*v	*v	*	*	*	*	*	*	*	*	*	*	*	*
!	!	!	!	! a 2.	!	!	!	!	!	!	!	!	!	!	!	!
!	!	!	!	!	!	!	!	!	!	!	!	!	!	!	!	!
(16.aa-\LL	f	(16.b-\LL	f	(16.A-\LL	f	4r	4r	.	4a-'/	.	4a-'/	.	4c'\	.	4A-'\	.
32gg\k	.	32a\k	.	32G\k	.	.	.	.	.	.	.	.	.	.	.	.
16.bb-\	.	16.cc\	.	16.B-\	.	.	.	.	.	.	.	.	.	.	.	.
32aa-\JJk	.	32b-\JJk	.	32A-\JJk	.	.	.	.	.	.	.	.	.	.	.	.
16.ddd-\LL	.	16.ee-\LL	.	16.d-\LL	.	8r	8r	.	8r	.	8r	.	8r	.	8r	.
32ccc\Jk	.	32dd\Jk	.	32c\Jk	.	.	.	.	.	.	.	.	.	.	.	.
8eee-\J)	.	8ff\J)	.	8e-\J)	.	8e-/	8E-'/	f	8gg'\ 8b-\ 8e-\	f	8gg'\ 8b-\ 8e-\	f	8e-'\	f	8E-'\	f
=161	=161	=161	=161	=161	=161	=161	=161	=161	=161	=161	=161	=161	=161	=161	=161	=161
8aa-'\	.	8b-'\	.	8A-'\xx	.	8e-/	8E-'/	.	8aa-'\ 8cc\ 8e-\	.	8aa-'\ 8cc\ 8e-\	.	8A-'/	.	8AA-'/	.
8r	.	8r	.	8r	.	8r	8r	.	8r	.	8r	.	8r	.	8r	.
4r	.	4r	.	4r	.	4r	4r	.	4r	.	4r	.	4r	.	4r	.
==|!	==|!	==|!	==|!	==|!	==|!	==|!	==|!	==|!	==|!	==|!	==|!	==|!	==|!	==|!	==|!	==|!
*-	*-	*-	*-	*-	*-	*-	*-	*-	*-	*-	*-	*-	*-	*-	*-	*-
!!!RWG: Appoggiaturas of spine 'Violino I' need manual editing in measures: 46, 47, 48, 49, 116, 117, 118, 119
!!!RWG: Appoggiaturas of spine 'Violino II' need manual editing in measures: 46, 47, 48, 116, 117, 118, 119
!!!RWG: Key is interpreted using the Humdrum key tool.
!!!AFT: stage2
!!!END: 1996/08/19
!!format changes:
!!content changes:
!!public access: complete
!!!KEY: 400836555
!!!EMD: Converted from MuseData to Humdrum Dec 16, 2000, by Andreas Kornstaedt using muse2kern.
